(Exported by FreeCAD)
(Post Processor: grbl_post)
(Output Time:2021-12-26 20:30:11.243146)
(Begin preamble)
G17 G90
G21
(Begin operation: Fixture)
(Path: Fixture)
G54
(Finish operation: Fixture)
(Begin operation: 0.6mm Ball End001)
(Path: 0.6mm Ball End001)
(0.6mm Ball End001)
(Begin toolchange)
( M6 T1.0 )
M3 S0.0
(Finish operation: 0.6mm Ball End001)
(Begin operation: Pocket_Shape)
(Path: Pocket_Shape)
(Pocket_Shape)
G0 Z5.000
G0 X0.463 Y13.819
G0 Z1.000
G1 X0.463 Y13.819 Z-0.500 F18.000
G3 X-0.862 Y14.291 Z-0.500 I-1.133 J-1.085 K0.000 F18.000
G3 X-2.684 Y13.254 Z-0.500 I0.100 J-2.295 K0.000 F18.000
G3 X-3.105 Y10.326 Z-0.500 I2.415 J-1.842 K0.000 F18.000
G3 X-1.487 Y9.389 Z-0.500 I1.441 J0.622 K0.000 F18.000
G3 X0.342 Y10.423 Z-0.500 I-0.103 J2.318 K0.000 F18.000
G3 X0.752 Y13.398 Z-0.500 I-2.417 J1.848 K0.000 F18.000
G3 X0.463 Y13.819 Z-0.500 I-1.421 J-0.664 K0.000 F18.000
G0 Z5.000
G0 X0.224 Y13.581 Z5.000
G0 X0.224 Y13.581 Z1.000
G1 X0.224 Y13.581 Z-0.500 F18.000
G2 X0.274 Y13.528 Z-0.500 I-1.155 J-1.150 K0.000 F18.000
G2 X0.655 Y12.357 Z-0.500 I-1.655 J-1.186 K0.000 F18.000
G2 X-0.340 Y9.991 Z-0.500 I-2.748 J-0.236 K0.000 F18.000
G2 X-1.400 Y9.634 Z-0.500 I-1.116 J1.564 K0.000 F18.000
G2 X-2.744 Y10.279 Z-0.500 I-0.157 J1.397 K0.000 F18.000
G2 X-2.981 Y11.817 Z-0.500 I2.280 J1.138 K0.000 F18.000
G2 X-1.741 Y13.846 Z-0.500 I2.579 J-0.183 K0.000 F18.000
G2 X0.224 Y13.581 Z-0.500 I0.809 J-1.415 K0.000 F18.000
G0 Z5.000
G0 X-2.504 Y13.466 Z5.000
G0 X-2.504 Y13.466 Z1.000
G1 X-2.504 Y13.466 Z-0.500 F18.000
G2 X-2.230 Y13.740 Z-0.500 I0.919 J-0.645 K0.000 F18.000
G3 X-3.132 Y12.413 Z-0.500 I2.019 J-2.343 K0.000 F18.000
G1 X-2.643 Y12.902 Z-0.500 F18.000
G2 X-1.673 Y13.873 Z-0.500 I1.829 J-0.858 K0.000 F18.000
G1 X-1.333 Y14.212 Z-0.500 F18.000
G2 X-0.831 Y14.290 Z-0.500 I0.498 J-1.544 K0.000 F18.000
G1 X-1.089 Y14.032 Z-0.500 F18.000
G2 X-0.661 Y14.036 Z-0.500 I0.229 J-1.508 K0.000 F18.000
G1 X-0.426 Y14.270 Z-0.500 F18.000
G2 X-0.090 Y14.183 Z-0.500 I-0.044 J-0.861 K0.000 F18.000
G1 X-0.318 Y13.955 Z-0.500 F18.000
G2 X-0.034 Y13.814 Z-0.500 I-0.288 J-0.940 K0.000 F18.000
G1 X0.195 Y14.043 Z-0.500 F18.000
G2 X0.425 Y13.849 Z-0.500 I-0.567 J-0.904 K0.000 F18.000
G1 X0.190 Y13.614 Z-0.500 F18.000
G2 X0.371 Y13.371 Z-0.500 I-0.403 J-0.492 K0.000 F18.000
G1 X0.621 Y13.621 Z-0.500 F18.000
G2 X0.771 Y13.346 Z-0.500 I-0.665 J-0.539 K0.000 F18.000
G1 X0.514 Y13.089 Z-0.500 F18.000
G2 X0.603 Y12.754 Z-0.500 I-1.126 J-0.478 K0.000 F18.000
G1 X0.883 Y13.034 Z-0.500 F18.000
G2 X0.940 Y12.667 Z-0.500 I-0.871 J-0.322 K0.000 F18.000
G1 X0.655 Y12.382 Z-0.500 F18.000
G2 X0.645 Y11.948 Z-0.500 I-3.832 J-0.133 K0.000 F18.000
G1 X0.964 Y12.267 Z-0.500 F18.000
G2 X0.931 Y11.810 Z-0.500 I-2.201 J-0.071 K0.000 F18.000
G1 X0.574 Y11.452 Z-0.500 F18.000
G2 X0.306 Y10.760 Z-0.500 I-2.314 J0.498 K0.000 F18.000
G1 X0.768 Y11.222 Z-0.500 F18.000
G2 X0.021 Y10.051 Z-0.500 I-2.751 J0.931 K0.000 F18.000
G0 Z5.000
G0 X-0.634 Y9.820 Z5.000
G0 X-0.634 Y9.820 Z1.000
G1 X-0.634 Y9.820 Z-0.500 F18.000
G1 X-0.976 Y9.478 Z-0.500 F18.000
G2 X-1.490 Y9.389 Z-0.500 I-0.472 J1.195 K0.000 F18.000
G1 X-1.227 Y9.652 Z-0.500 F18.000
G2 X-1.654 Y9.648 Z-0.500 I-0.223 J1.316 K0.000 F18.000
G1 X-1.896 Y9.407 Z-0.500 F18.000
G2 X-2.233 Y9.494 Z-0.500 I0.050 J0.889 K0.000 F18.000
G1 X-2.021 Y9.706 Z-0.500 F18.000
G2 X-2.306 Y9.846 Z-0.500 I0.210 J0.791 K0.000 F18.000
G1 X-2.518 Y9.633 Z-0.500 F18.000
G2 X-2.749 Y9.827 Z-0.500 I0.507 J0.835 K0.000 F18.000
G1 X-2.545 Y10.030 Z-0.500 F18.000
G2 X-2.735 Y10.265 Z-0.500 I0.585 J0.668 K0.000 F18.000
G1 X-2.943 Y10.057 Z-0.500 F18.000
G1 X-3.103 Y10.321 Z-0.500 F18.000
G1 X-2.871 Y10.553 Z-0.500 F18.000
G2 X-2.957 Y10.891 Z-0.500 I4.593 J1.355 K0.000 F18.000
G1 X-3.213 Y10.636 Z-0.500 F18.000
G2 X-3.276 Y10.996 Z-0.500 I0.890 J0.343 K0.000 F18.000
G1 X-2.998 Y11.275 Z-0.500 F18.000
G1 X-2.988 Y11.709 Z-0.500 F18.000
G1 X-3.298 Y11.399 Z-0.500 F18.000
G2 X-3.265 Y11.856 Z-0.500 I1.322 J0.136 K0.000 F18.000
G1 X-2.907 Y12.214 Z-0.500 F18.000
G2 X-2.643 Y12.902 Z-0.500 I2.347 J-0.505 K0.000 F18.000
G1 X-3.132 Y12.413 Z-0.500 F18.000
G0 Z5.000
G0 Z5.000
G0 X-3.132 Y12.413
G0 X-7.727 Y11.761
G0 X-7.727 Y11.761 Z1.000
G1 X-7.727 Y11.761 Z-0.500 F18.000
G3 X-7.880 Y12.207 Z-0.500 I-1.245 J-0.177 K0.000 F18.000
G3 X-8.969 Y12.435 Z-0.500 I-0.739 J-0.817 K0.000 F18.000
G1 X-10.296 Y12.153 Z-0.500 F18.000
G3 X-10.487 Y11.966 Z-0.500 I-0.019 J-0.172 K0.000 F18.000
G1 X-10.243 Y7.294 Z-0.500 F18.000
G3 X-10.206 Y7.208 Z-0.500 I0.077 J-0.018 K0.000 F18.000
G1 X-10.113 Y7.218 Z-0.500 F18.000
G3 X-8.193 Y7.662 Z-0.500 I-2.067 J13.326 K0.000 F18.000
G3 X-7.410 Y9.828 Z-0.500 I-0.480 J1.398 K0.000 F18.000
G3 X-8.018 Y10.117 Z-0.500 I-0.650 J-0.584 K0.000 F18.000
G2 X-8.166 Y10.620 Z-0.500 I0.065 J0.293 K0.000 F18.000
G3 X-7.727 Y11.761 Z-0.500 I-0.806 J0.965 K0.000 F18.000
G0 Z5.000
G0 X-7.998 Y11.672 Z5.000
G0 X-7.998 Y11.672 Z1.000
G1 X-7.998 Y11.672 Z-0.500 F18.000
G2 X-7.978 Y11.259 Z-0.500 I-0.736 J-0.243 K0.000 F18.000
G2 X-8.565 Y10.439 Z-0.500 I-1.089 J0.159 K0.000 F18.000
G2 X-9.796 Y10.111 Z-0.500 I-1.697 J3.891 K0.000 F18.000
G2 X-10.158 Y10.396 Z-0.500 I-0.062 J0.293 K0.000 F18.000
G1 X-10.192 Y11.678 Z-0.500 F18.000
G2 X-9.955 Y11.979 Z-0.500 I0.300 J0.008 K0.000 F18.000
G2 X-8.657 Y12.200 Z-0.500 I1.463 J-4.670 K0.000 F18.000
G2 X-7.998 Y11.672 Z-0.500 I-0.077 J-0.772 K0.000 F18.000
G0 Z5.000
G0 X-8.062 Y10.964 Z5.000
G0 X-8.062 Y10.964 Z1.000
G1 X-8.062 Y10.964 Z-0.500 F18.000
G1 X-7.770 Y11.257 Z-0.500 F18.000
G3 X-7.716 Y11.735 Z-0.500 I-0.874 J0.340 K0.000 F18.000
G1 X-7.982 Y11.469 Z-0.500 F18.000
G3 X-8.062 Y11.814 Z-0.500 I-0.716 J0.016 K0.000 F18.000
G1 X-7.805 Y12.071 Z-0.500 F18.000
G3 X-7.993 Y12.306 Z-0.500 I-0.412 J-0.137 K0.000 F18.000
G1 X-8.251 Y12.049 Z-0.500 F18.000
G3 X-8.541 Y12.183 Z-0.500 I-0.418 J-0.524 K0.000 F18.000
G1 X-8.285 Y12.439 Z-0.500 F18.000
G3 X-8.674 Y12.474 Z-0.500 I-0.278 J-0.913 K0.000 F18.000
G1 X-8.969 Y12.179 Z-0.500 F18.000
G3 X-9.496 Y12.077 Z-0.500 I0.213 J-2.504 K0.000 F18.000
G1 X-9.183 Y12.390 Z-0.500 F18.000
G1 X-9.722 Y12.275 Z-0.500 F18.000
G2 X-10.128 Y11.872 Z-0.500 I-3.835 J3.456 K0.000 F18.000
G1 X-10.131 Y11.866 Z-0.500 F18.000
G1 X-10.465 Y11.532 Z-0.500 F18.000
G1 X-10.486 Y11.935 Z-0.500 F18.000
G2 X-10.261 Y12.160 Z-0.500 I0.187 J0.038 K0.000 F18.000
G1 X-10.486 Y11.935 Z-0.500 F18.000
G0 Z5.000
G0 X-10.465 Y11.532 Z5.000
G0 X-10.465 Y11.532 Z1.000
G1 X-10.465 Y11.532 Z-0.500 F18.000
G1 X-10.131 Y11.866 Z-0.500 F18.000
G1 X-10.177 Y11.780 Z-0.500 F18.000
G3 X-10.185 Y11.388 Z-0.500 I1.116 J-0.217 K0.000 F18.000
G1 X-10.444 Y11.129 Z-0.500 F18.000
G1 X-10.423 Y10.726 Z-0.500 F18.000
G1 X-10.174 Y10.975 Z-0.500 F18.000
G1 X-10.163 Y10.561 Z-0.500 F18.000
G1 X-10.402 Y10.322 Z-0.500 F18.000
G1 X-10.380 Y9.919 Z-0.500 F18.000
G1 X-10.083 Y10.217 Z-0.500 F18.000
G3 X-9.757 Y10.119 Z-0.500 I0.230 J0.175 K0.000 F18.000
G1 X-10.359 Y9.516 Z-0.500 F18.000
G1 X-10.338 Y9.113 Z-0.500 F18.000
G1 X-10.085 Y9.367 Z-0.500 F18.000
G2 X-9.952 Y9.812 Z-0.500 I0.367 J0.133 K0.000 F18.000
G2 X-9.530 Y9.921 Z-0.500 I0.516 J-1.135 K0.000 F18.000
G1 X-9.218 Y10.233 Z-0.500 F18.000
G3 X-8.602 Y10.425 Z-0.500 I-0.334 J2.160 K0.000 F18.000
G1 X-8.992 Y10.035 Z-0.500 F18.000
G2 X-8.505 Y10.098 Z-0.500 I0.593 J-2.691 K0.000 F18.000
G1 X-8.243 Y10.359 Z-0.500 F18.000
G3 X-8.048 Y10.131 Z-0.500 I0.263 J0.027 K0.000 F18.000
G1 X-8.135 Y10.043 Z-0.500 F18.000
G2 X-7.858 Y9.896 Z-0.500 I-1.159 J-2.531 K0.000 F18.000
G1 X-7.712 Y10.042 Z-0.500 F18.000
G2 X-7.454 Y9.876 Z-0.500 I-0.233 J-0.649 K0.000 F18.000
G1 X-7.658 Y9.672 Z-0.500 F18.000
G2 X-7.537 Y9.368 Z-0.500 I-0.847 J-0.513 K0.000 F18.000
G1 X-7.292 Y9.614 Z-0.500 F18.000
G2 X-7.215 Y9.266 Z-0.500 I-1.002 J-0.403 K0.000 F18.000
G1 X-7.499 Y8.983 Z-0.500 F18.000
G2 X-7.734 Y8.323 Z-0.500 I-1.021 J-0.008 K0.000 F18.000
G1 X-7.228 Y8.829 Z-0.500 F18.000
G2 X-7.544 Y8.088 Z-0.500 I-1.331 J0.131 K0.000 F18.000
G0 Z5.000
G0 X-7.775 Y8.273 Z5.000
G0 X-7.775 Y8.273 Z1.000
G1 X-7.775 Y8.273 Z-0.500 F18.000
G2 X-8.471 Y7.829 Z-0.500 I-1.002 J0.802 K0.000 F18.000
G2 X-9.657 Y7.562 Z-0.500 I-2.893 J10.061 K0.000 F18.000
G2 X-10.019 Y7.842 Z-0.500 I-0.062 J0.293 K0.000 F18.000
G1 X-10.092 Y9.545 Z-0.500 F18.000
G2 X-9.855 Y9.852 Z-0.500 I0.300 J0.013 K0.000 F18.000
G2 X-8.490 Y10.098 Z-0.500 I1.894 J-6.604 K0.000 F18.000
G2 X-7.496 Y9.010 Z-0.500 I0.026 J-0.974 K0.000 F18.000
G2 X-7.775 Y8.273 Z-0.500 I-1.282 J0.066 K0.000 F18.000
G0 Z5.000
G0 X-7.901 Y8.156 Z5.000
G0 X-7.901 Y8.156 Z1.000
G1 X-7.901 Y8.156 Z-0.500 F18.000
G1 X-8.478 Y7.579 Z-0.500 F18.000
G2 X-9.033 Y7.448 Z-0.500 I-1.174 J3.726 K0.000 F18.000
G1 X-8.721 Y7.761 Z-0.500 F18.000
G2 X-9.260 Y7.646 Z-0.500 I-4.366 J19.197 K0.000 F18.000
G1 X-9.572 Y7.333 Z-0.500 F18.000
G1 X-10.111 Y7.219 Z-0.500 F18.000
G1 X-9.768 Y7.562 Z-0.500 F18.000
G0 Z5.000
G0 X-10.113 Y7.218 Z5.000
G0 X-10.113 Y7.218 Z1.000
G1 X-10.113 Y7.218 Z-0.500 F18.000
G1 X-10.111 Y7.219 Z-0.500 F18.000
G1 X-9.768 Y7.562 Z-0.500 F18.000
G2 X-9.997 Y7.758 Z-0.500 I0.030 J0.268 K0.000 F18.000
G1 X-10.254 Y7.500 Z-0.500 F18.000
G1 X-10.275 Y7.903 Z-0.500 F18.000
G1 X-10.032 Y8.146 Z-0.500 F18.000
G1 X-10.050 Y8.553 Z-0.500 F18.000
G1 X-10.296 Y8.307 Z-0.500 F18.000
G1 X-10.317 Y8.710 Z-0.500 F18.000
G1 X-10.067 Y8.960 Z-0.500 F18.000
G1 X-10.085 Y9.367 Z-0.500 F18.000
G1 X-10.338 Y9.113 Z-0.500 F18.000
G0 Z5.000
G0 Z5.000
G0 X-10.338 Y9.113
G0 X-14.866 Y9.599
G0 X-14.866 Y9.599 Z1.000
G1 X-14.866 Y9.599 Z-0.500 F18.000
G3 X-14.898 Y9.662 Z-0.500 I-0.065 J0.007 K0.000 F18.000
G3 X-17.450 Y7.958 Z-0.500 I-0.296 J-2.320 K0.000 F18.000
G3 X-16.917 Y4.987 Z-0.500 I2.915 J-1.010 K0.000 F18.000
G3 X-15.940 Y4.530 Z-0.500 I1.063 J0.999 K0.000 F18.000
G3 X-13.963 Y5.519 Z-0.500 I0.037 J2.398 K0.000 F18.000
G3 X-13.931 Y5.651 Z-0.500 I-0.093 J0.093 K0.000 F18.000
G3 X-14.044 Y5.587 Z-0.500 I0.005 J-0.140 K0.000 F18.000
G2 X-15.520 Y4.830 Z-0.500 I-2.022 J2.125 K0.000 F18.000
G2 X-17.016 Y5.718 Z-0.500 I-0.171 J1.415 K0.000 F18.000
G2 X-16.717 Y8.813 Z-0.500 I2.507 J1.320 K0.000 F18.000
G2 X-15.355 Y9.447 Z-0.500 I1.562 J-1.576 K0.000 F18.000
G1 X-14.928 Y9.540 Z-0.500 F18.000
G3 X-14.866 Y9.599 Z-0.500 I-0.003 J0.066 K0.000 F18.000
G0 Z5.000
G0 X-14.878 Y9.636 Z5.000
G0 X-14.878 Y9.636 Z1.000
G1 X-14.878 Y9.636 Z-0.500 F18.000
G2 X-14.987 Y9.527 Z-0.500 I-0.090 J-0.019 K0.000 F18.000
G1 X-14.878 Y9.636 Z-0.500 F18.000
G3 X-14.973 Y9.689 Z-0.500 I-0.088 J-0.046 K0.000 F18.000
G1 X-15.238 Y9.700 Z-0.500 F18.000
G1 X-15.523 Y9.416 Z-0.500 F18.000
G3 X-16.154 Y9.209 Z-0.500 I0.335 J-2.088 K0.000 F18.000
G1 X-15.749 Y9.614 Z-0.500 F18.000
G0 Z5.000
G0 X-16.536 Y9.252 Z5.000
G0 X-16.536 Y9.252 Z1.000
G1 X-16.536 Y9.252 Z-0.500 F18.000
G3 X-17.059 Y8.728 Z-0.500 I0.946 J-1.469 K0.000 F18.000
G1 X-16.536 Y9.252 Z-0.500 F18.000
G2 X-15.749 Y9.614 Z-0.500 I1.272 J-1.729 K0.000 F18.000
G1 X-16.154 Y9.209 Z-0.500 F18.000
G3 X-17.075 Y8.288 Z-0.500 I0.761 J-1.682 K0.000 F18.000
G1 X-17.464 Y7.899 Z-0.500 F18.000
G3 X-17.583 Y7.356 Z-0.500 I1.537 J-0.623 K0.000 F18.000
G1 X-17.271 Y7.668 Z-0.500 F18.000
G3 X-17.334 Y7.180 Z-0.500 I1.618 J-0.457 K0.000 F18.000
G1 X-17.612 Y6.902 Z-0.500 F18.000
G3 X-17.580 Y6.510 Z-0.500 I1.235 J-0.096 K0.000 F18.000
G1 X-17.322 Y6.769 Z-0.500 F18.000
G3 X-17.260 Y6.406 Z-0.500 I1.378 J0.049 K0.000 F18.000
G1 X-17.514 Y6.152 Z-0.500 F18.000
G3 X-17.412 Y5.829 Z-0.500 I1.661 J0.344 K0.000 F18.000
G1 X-17.164 Y6.078 Z-0.500 F18.000
G3 X-17.042 Y5.776 Z-0.500 I1.297 J0.348 K0.000 F18.000
G1 X-17.279 Y5.538 Z-0.500 F18.000
G3 X-17.132 Y5.261 Z-0.500 I0.739 J0.213 K0.000 F18.000
G1 X-16.887 Y5.506 Z-0.500 F18.000
G3 X-16.705 Y5.264 Z-0.500 I0.828 J0.433 K0.000 F18.000
G1 X-16.946 Y5.023 Z-0.500 F18.000
G3 X-16.719 Y4.825 Z-0.500 I0.557 J0.408 K0.000 F18.000
G1 X-16.484 Y5.060 Z-0.500 F18.000
G3 X-16.211 Y4.909 Z-0.500 I1.605 J2.590 K0.000 F18.000
G1 X-16.460 Y4.660 Z-0.500 F18.000
G3 X-16.132 Y4.564 Z-0.500 I0.405 J0.775 K0.000 F18.000
G1 X-15.863 Y4.833 Z-0.500 F18.000
G3 X-15.417 Y4.855 Z-0.500 I0.178 J0.923 K0.000 F18.000
G1 X-15.731 Y4.541 Z-0.500 F18.000
G3 X-15.207 Y4.641 Z-0.500 I0.011 J1.372 K0.000 F18.000
G1 X-14.758 Y5.090 Z-0.500 F18.000
G3 X-13.944 Y5.650 Z-0.500 I-6.907 J10.898 K0.000 F18.000
G2 X-13.927 Y5.637 Z-0.500 I0.006 J-0.010 K0.000 F18.000
G2 X-14.195 Y5.229 Z-0.500 I-0.650 J0.134 K0.000 F18.000
G0 Z5.000
G0 Z5.000
G0 X-14.195 Y5.229
G0 X4.212 Y11.149
G0 X4.212 Y11.149 Z1.000
G1 X4.212 Y11.149 Z-0.500 F18.000
G3 X5.198 Y10.191 Z-0.500 I1.394 J0.448 K0.000 F18.000
G3 X7.652 Y10.842 Z-0.500 I0.717 J2.249 K0.000 F18.000
G3 X8.477 Y13.862 Z-0.500 I-2.400 J2.278 K0.000 F18.000
G3 X7.078 Y14.842 Z-0.500 I-1.425 J-0.546 K0.000 F18.000
G3 X5.531 Y14.413 Z-0.500 I-0.236 J-2.154 K0.000 F18.000
G2 X5.086 Y14.764 Z-0.500 I-0.161 J0.253 K0.000 F18.000
G2 X6.080 Y16.234 Z-0.500 I2.183 J-0.404 K0.000 F18.000
G2 X7.354 Y16.472 Z-0.500 I0.994 J-1.790 K0.000 F18.000
G3 X9.322 Y16.961 Z-0.500 I0.398 J2.603 K0.000 F18.000
G3 X9.434 Y17.124 Z-0.500 I-0.156 J0.227 K0.000 F18.000
G2 X8.632 Y16.810 Z-0.500 I-11.080 J27.078 K0.000 F18.000
G2 X7.539 Y16.696 Z-0.500 I-0.784 J2.226 K0.000 F18.000
G3 X5.625 Y16.198 Z-0.500 I-0.409 J-2.356 K0.000 F18.000
G3 X4.933 Y15.193 Z-0.500 I1.770 J-1.959 K0.000 F18.000
G3 X4.230 Y12.752 Z-0.500 I18.257 J-6.578 K0.000 F18.000
G3 X4.212 Y11.149 Z-0.500 I2.571 J-0.830 K0.000 F18.000
G0 Z5.000
G0 X4.497 Y11.253 Z5.000
G0 X4.497 Y11.253 Z1.000
G1 X4.497 Y11.253 Z-0.500 F18.000
G2 X4.425 Y12.119 Z-0.500 I1.562 J0.566 K0.000 F18.000
G2 X5.739 Y14.408 Z-0.500 I2.901 J-0.144 K0.000 F18.000
G2 X7.651 Y14.374 Z-0.500 I0.925 J-1.778 K0.000 F18.000
G2 X8.263 Y13.080 Z-0.500 I-0.777 J-1.160 K0.000 F18.000
G2 X7.286 Y10.792 Z-0.500 I-3.273 J0.045 K0.000 F18.000
G2 X6.084 Y10.317 Z-0.500 I-1.250 J1.403 K0.000 F18.000
G2 X4.752 Y10.793 Z-0.500 I-0.147 J1.690 K0.000 F18.000
G2 X4.497 Y11.253 Z-0.500 I1.307 J1.026 K0.000 F18.000
G0 Z5.000
G0 X4.297 Y13.002 Z5.000
G0 X4.297 Y13.002 Z1.000
G1 X4.297 Y13.002 Z-0.500 F18.000
G1 X4.969 Y13.674 Z-0.500 F18.000
G3 X4.581 Y12.862 Z-0.500 I2.130 J-1.517 K0.000 F18.000
G1 X4.175 Y12.456 Z-0.500 F18.000
G3 X4.116 Y11.973 Z-0.500 I1.536 J-0.430 K0.000 F18.000
G1 X4.459 Y12.316 Z-0.500 F18.000
G3 X4.407 Y11.839 Z-0.500 I2.087 J-0.473 K0.000 F18.000
G1 X4.124 Y11.556 Z-0.500 F18.000
G1 X4.200 Y11.208 Z-0.500 F18.000
G1 X4.439 Y11.448 Z-0.500 F18.000
G3 X4.539 Y11.123 Z-0.500 I1.323 J0.230 K0.000 F18.000
G1 X4.322 Y10.906 Z-0.500 F18.000
G3 X4.498 Y10.657 Z-0.500 I0.772 J0.361 K0.000 F18.000
G1 X4.699 Y10.859 Z-0.500 F18.000
G3 X4.920 Y10.656 Z-0.500 I0.532 J0.356 K0.000 F18.000
G1 X4.712 Y10.448 Z-0.500 F18.000
G3 X4.975 Y10.286 Z-0.500 I0.498 J0.515 K0.000 F18.000
G1 X5.178 Y10.489 Z-0.500 F18.000
G3 X5.503 Y10.389 Z-0.500 I0.419 J0.790 K0.000 F18.000
G1 X5.287 Y10.174 Z-0.500 F18.000
G1 X5.640 Y10.103 Z-0.500 F18.000
G1 X5.862 Y10.325 Z-0.500 F18.000
G3 X6.296 Y10.334 Z-0.500 I0.178 J1.819 K0.000 F18.000
G1 X6.056 Y10.094 Z-0.500 F18.000
G3 X6.560 Y10.174 Z-0.500 I-0.014 J1.715 K0.000 F18.000
G1 X6.928 Y10.542 Z-0.500 F18.000
G0 Z5.000
G0 X7.652 Y10.842 Z5.000
G0 X7.652 Y10.842 Z1.000
G1 X7.652 Y10.842 Z-0.500 F18.000
G3 X8.340 Y11.954 Z-0.500 I-2.114 J2.077 K0.000 F18.000
G1 X7.777 Y11.391 Z-0.500 F18.000
G3 X8.103 Y12.142 Z-0.500 I-2.439 J1.508 K0.000 F18.000
G1 X8.501 Y12.539 Z-0.500 F18.000
G3 X8.566 Y13.029 Z-0.500 I-1.644 J0.469 K0.000 F18.000
G1 X8.217 Y12.680 Z-0.500 F18.000
G3 X8.262 Y13.148 Z-0.500 I-1.593 J0.387 K0.000 F18.000
G1 X8.567 Y13.453 Z-0.500 F18.000
G1 X8.490 Y13.801 Z-0.500 F18.000
G1 X8.224 Y13.535 Z-0.500 F18.000
G3 X8.120 Y13.856 Z-0.500 I-1.246 J-0.224 K0.000 F18.000
G1 X8.366 Y14.101 Z-0.500 F18.000
G3 X8.187 Y14.346 Z-0.500 I-0.809 J-0.404 K0.000 F18.000
G1 X7.955 Y14.115 Z-0.500 F18.000
G3 X7.727 Y14.311 Z-0.500 I-0.784 J-0.678 K0.000 F18.000
G1 X7.956 Y14.540 Z-0.500 F18.000
G3 X7.679 Y14.687 Z-0.500 I-0.455 J-0.520 K0.000 F18.000
G1 X7.464 Y14.472 Z-0.500 F18.000
G3 X7.133 Y14.566 Z-0.500 I-0.409 J-0.816 K0.000 F18.000
G1 X7.362 Y14.794 Z-0.500 F18.000
G3 X6.987 Y14.843 Z-0.500 I-0.355 J-1.247 K0.000 F18.000
G1 X6.770 Y14.626 Z-0.500 F18.000
G3 X6.324 Y14.605 Z-0.500 I-0.161 J-1.328 K0.000 F18.000
G1 X6.550 Y14.831 Z-0.500 F18.000
G3 X5.633 Y14.338 Z-0.500 I0.005 J-1.108 K0.000 F18.000
G3 X4.969 Y13.674 Z-0.500 I1.063 J-1.727 K0.000 F18.000
G1 X4.297 Y13.002 Z-0.500 F18.000
G1 X4.453 Y13.582 Z-0.500 F18.000
G1 X5.261 Y14.390 Z-0.500 F18.000
G2 X5.075 Y14.628 Z-0.500 I0.094 J0.265 K0.000 F18.000
G1 X4.609 Y14.162 Z-0.500 F18.000
G2 X4.787 Y14.765 Z-0.500 I4.688 J-1.062 K0.000 F18.000
G1 X5.243 Y15.221 Z-0.500 F18.000
G2 X6.403 Y16.381 Z-0.500 I1.845 J-0.685 K0.000 F18.000
G1 X6.704 Y16.682 Z-0.500 F18.000
G3 X6.110 Y16.512 Z-0.500 I0.109 J-1.506 K0.000 F18.000
G1 X5.077 Y15.479 Z-0.500 F18.000
G2 X6.110 Y16.512 Z-0.500 I1.965 J-0.932 K0.000 F18.000
G0 Z5.000
G0 X6.704 Y16.682 Z5.000
G0 X6.704 Y16.682 Z1.000
G1 X6.704 Y16.682 Z-0.500 F18.000
G1 X6.403 Y16.381 Z-0.500 F18.000
G2 X6.921 Y16.475 Z-0.500 I0.567 J-1.661 K0.000 F18.000
G1 X7.156 Y16.710 Z-0.500 F18.000
G2 X7.565 Y16.695 Z-0.500 I-0.156 J-9.577 K0.000 F18.000
G1 X7.343 Y16.473 Z-0.500 F18.000
G2 X7.754 Y16.459 Z-0.500 I-0.079 J-8.675 K0.000 F18.000
G1 X7.976 Y16.681 Z-0.500 F18.000
G3 X8.478 Y16.759 Z-0.500 I0.082 J1.135 K0.000 F18.000
G1 X8.215 Y16.496 Z-0.500 F18.000
G3 X8.810 Y16.667 Z-0.500 I-0.262 J2.034 K0.000 F18.000
G1 X9.193 Y17.049 Z-0.500 F18.000
G2 X9.434 Y17.124 Z-0.500 I0.259 J-0.408 K0.000 F18.000
G1 X9.421 Y17.083 Z-0.500 F18.000
G2 X8.810 Y16.667 Z-0.500 I-0.900 J0.664 K0.000 F18.000
G0 Z5.000
G0 Z5.000
G0 X8.810 Y16.667
G0 X12.486 Y13.274
G0 X12.486 Y13.274 Z1.000
G1 X12.486 Y13.274 Z-0.500 F18.000
G3 X11.685 Y11.058 Z-0.500 I2.232 J-2.060 K0.000 F18.000
G3 X12.934 Y9.666 Z-0.500 I1.563 J0.146 K0.000 F18.000
G3 X14.994 Y10.085 Z-0.500 I0.618 J2.236 K0.000 F18.000
G3 X16.303 Y12.788 Z-0.500 I-1.727 J2.505 K0.000 F18.000
G3 X15.044 Y14.136 Z-0.500 I-1.557 J-0.192 K0.000 F18.000
G3 X12.991 Y13.713 Z-0.500 I-0.614 J-2.214 K0.000 F18.000
G3 X12.486 Y13.274 Z-0.500 I1.727 J-2.498 K0.000 F18.000
G0 Z5.000
G0 X12.679 Y13.112 Z5.000
G0 X12.679 Y13.112 Z1.000
G1 X12.679 Y13.112 Z-0.500 F18.000
G2 X13.761 Y13.909 Z-0.500 I2.204 J-1.859 K0.000 F18.000
G2 X15.694 Y13.411 Z-0.500 I0.593 J-1.697 K0.000 F18.000
G2 X15.889 Y11.827 Z-0.500 I-1.538 J-0.994 K0.000 F18.000
G2 X14.211 Y9.884 Z-0.500 I-2.687 J0.624 K0.000 F18.000
G2 X13.564 Y9.797 Z-0.500 I-0.564 J1.732 K0.000 F18.000
G2 X12.059 Y10.743 Z-0.500 I-0.037 J1.611 K0.000 F18.000
G2 X12.078 Y11.920 Z-0.500 I1.831 J0.559 K0.000 F18.000
G2 X12.679 Y13.112 Z-0.500 I2.805 J-0.667 K0.000 F18.000
G0 Z5.000
G0 X13.441 Y13.982 Z5.000
G0 X13.441 Y13.982 Z1.000
G1 X13.441 Y13.982 Z-0.500 F18.000
G1 X11.984 Y12.525 Z-0.500 F18.000
G2 X13.441 Y13.982 Z-0.500 I2.835 J-1.378 K0.000 F18.000
G2 X14.066 Y14.182 Z-0.500 I0.867 J-1.632 K0.000 F18.000
G1 X13.804 Y13.920 Z-0.500 F18.000
G3 X12.227 Y12.343 Z-0.500 I0.998 J-2.575 K0.000 F18.000
G1 X11.750 Y11.866 Z-0.500 F18.000
G3 X11.679 Y11.371 Z-0.500 I1.231 J-0.430 K0.000 F18.000
G1 X12.035 Y11.726 Z-0.500 F18.000
G3 X11.981 Y11.248 Z-0.500 I1.714 J-0.435 K0.000 F18.000
G1 X11.705 Y10.972 Z-0.500 F18.000
G3 X11.793 Y10.636 Z-0.500 I1.049 J0.094 K0.000 F18.000
G1 X12.023 Y10.867 Z-0.500 F18.000
G3 X12.145 Y10.564 Z-0.500 I0.938 J0.203 K0.000 F18.000
G1 X11.939 Y10.358 Z-0.500 F18.000
G3 X12.122 Y10.117 Z-0.500 I0.696 J0.338 K0.000 F18.000
G1 X12.327 Y10.322 Z-0.500 F18.000
G3 X12.548 Y10.119 Z-0.500 I0.599 J0.429 K0.000 F18.000
G1 X12.354 Y9.925 Z-0.500 F18.000
G3 X12.630 Y9.776 Z-0.500 I0.541 J0.672 K0.000 F18.000
G1 X12.829 Y9.975 Z-0.500 F18.000
G3 X13.139 Y9.861 Z-0.500 I0.574 J1.079 K0.000 F18.000
G1 X12.943 Y9.664 Z-0.500 F18.000
G3 X13.305 Y9.603 Z-0.500 I0.398 J1.239 K0.000 F18.000
G1 X13.503 Y9.801 Z-0.500 F18.000
G3 X13.946 Y9.819 Z-0.500 I0.147 J1.803 K0.000 F18.000
G1 X13.716 Y9.589 Z-0.500 F18.000
G3 X14.259 Y9.708 Z-0.500 I-0.074 J1.641 K0.000 F18.000
G1 X14.621 Y10.070 Z-0.500 F18.000
G0 Z5.000
G0 X15.411 Y10.436 Z5.000
G0 X15.411 Y10.436 Z1.000
G1 X15.411 Y10.436 Z-0.500 F18.000
G3 X16.136 Y11.585 Z-0.500 I-2.079 J2.114 K0.000 F18.000
G1 X15.505 Y10.954 Z-0.500 F18.000
G3 X15.854 Y11.727 Z-0.500 I-2.220 J1.466 K0.000 F18.000
G1 X16.275 Y12.149 Z-0.500 F18.000
G3 X16.309 Y12.606 Z-0.500 I-1.103 J0.311 K0.000 F18.000
G1 X15.966 Y12.264 Z-0.500 F18.000
G3 X15.973 Y12.695 Z-0.500 I-1.460 J0.240 K0.000 F18.000
G1 X16.260 Y12.982 Z-0.500 F18.000
G0 Z5.000
G0 X15.973 Y12.695 Z5.000
G0 X15.973 Y12.695 Z1.000
G1 X15.973 Y12.695 Z-0.500 F18.000
G1 X16.260 Y12.982 Z-0.500 F18.000
G3 X16.146 Y13.292 Z-0.500 I-0.819 J-0.125 K0.000 F18.000
G1 X15.894 Y13.040 Z-0.500 F18.000
G3 X15.747 Y13.318 Z-0.500 I-0.862 J-0.278 K0.000 F18.000
G1 X15.986 Y13.556 Z-0.500 F18.000
G3 X15.773 Y13.768 Z-0.500 I-0.819 J-0.606 K0.000 F18.000
G1 X15.563 Y13.557 Z-0.500 F18.000
G3 X15.318 Y13.737 Z-0.500 I-0.584 J-0.540 K0.000 F18.000
G1 X15.521 Y13.940 Z-0.500 F18.000
G3 X15.226 Y14.070 Z-0.500 I-0.481 J-0.694 K0.000 F18.000
G1 X15.033 Y13.876 Z-0.500 F18.000
G3 X14.701 Y13.969 Z-0.500 I-0.493 J-1.125 K0.000 F18.000
G1 X14.899 Y14.166 Z-0.500 F18.000
G3 X14.518 Y14.209 Z-0.500 I-0.340 J-1.297 K0.000 F18.000
G1 X14.306 Y13.998 Z-0.500 F18.000
G3 X13.804 Y13.920 Z-0.500 I-0.043 J-1.383 K0.000 F18.000
G1 X14.066 Y14.182 Z-0.500 F18.000
G0 Z5.000
G0 Z5.000
G0 X14.066 Y14.182
G0 X17.936 Y9.068
G0 X17.936 Y9.068 Z1.000
G1 X17.936 Y9.068 Z-0.500 F18.000
G3 X17.824 Y8.935 Z-0.500 I0.238 J-0.315 K0.000 F18.000
G3 X17.287 Y8.103 Z-0.500 I7.314 J-5.314 K0.000 F18.000
G3 X17.446 Y7.942 Z-0.500 I0.080 J-0.080 K0.000 F18.000
G3 X17.645 Y8.121 Z-0.500 I-0.167 J0.387 K0.000 F18.000
G1 X18.029 Y8.713 Z-0.500 F18.000
G2 X18.403 Y8.823 Z-0.500 I0.252 J-0.163 K0.000 F18.000
G1 X21.748 Y7.334 Z-0.500 F18.000
G2 X21.879 Y6.900 Z-0.500 I-0.122 J-0.274 K0.000 F18.000
G3 X21.438 Y6.196 Z-0.500 I9.892 J-6.692 K0.000 F18.000
G3 X21.556 Y6.073 Z-0.500 I0.064 J-0.057 K0.000 F18.000
G3 X21.796 Y6.202 Z-0.500 I0.006 J0.275 K0.000 F18.000
G3 X22.423 Y7.193 Z-0.500 I-11.049 J7.689 K0.000 F18.000
G1 X22.426 Y7.213 Z-0.500 F18.000
G2 X22.050 Y7.438 Z-0.500 I0.496 J1.253 K0.000 F18.000
G2 X22.028 Y7.796 Z-0.500 I0.229 J0.193 K0.000 F18.000
G1 X24.339 Y11.327 Z-0.500 F18.000
G3 X24.390 Y11.483 Z-0.500 I-0.050 J0.103 K0.000 F18.000
G1 X22.248 Y12.437 Z-0.500 F18.000
G3 X21.396 Y12.549 Z-0.500 I-0.562 J-0.980 K0.000 F18.000
G3 X20.886 Y12.113 Z-0.500 I0.385 J-0.966 K0.000 F18.000
G2 X19.453 Y9.909 Z-0.500 I-40.054 J24.487 K0.000 F18.000
G2 X18.676 Y9.205 Z-0.500 I-1.325 J0.682 K0.000 F18.000
G2 X18.018 Y9.115 Z-0.500 I-0.690 J2.602 K0.000 F18.000
G3 X17.936 Y9.068 Z-0.500 I0.156 J-0.362 K0.000 F18.000
G0 Z5.000
G0 X17.938 Y9.066 Z5.000
G0 X17.938 Y9.066 Z1.000
G1 X17.938 Y9.066 Z-0.500 F18.000
G2 X18.336 Y9.140 Z-0.500 I0.271 J-0.350 K0.000 F18.000
G3 X18.384 Y9.145 Z-0.500 I-0.012 J0.334 K0.000 F18.000
G1 X17.260 Y8.021 Z-0.500 F18.000
G2 X17.315 Y8.153 Z-0.500 I0.350 J-0.070 K0.000 F18.000
G1 X17.824 Y8.935 Z-0.500 F18.000
G2 X17.938 Y9.066 Z-0.500 I0.385 J-0.219 K0.000 F18.000
G0 Z5.000
G0 X18.968 Y9.038 Z5.000
G0 X18.968 Y9.038 Z1.000
G1 X18.968 Y9.038 Z-0.500 F18.000
G2 X19.111 Y9.286 Z-0.500 I0.300 J-0.008 K0.000 F18.000
G3 X19.733 Y9.855 Z-0.500 I-0.652 J1.336 K0.000 F18.000
G2 X21.139 Y12.017 Z-0.500 I37.801 J-23.059 K0.000 F18.000
G2 X22.129 Y12.226 Z-0.500 I0.617 J-0.473 K0.000 F18.000
G1 X23.704 Y11.525 Z-0.500 F18.000
G2 X23.832 Y11.086 Z-0.500 I-0.122 J-0.274 K0.000 F18.000
G1 X21.720 Y7.885 Z-0.500 F18.000
G2 X21.450 Y7.750 Z-0.500 I-0.250 J0.165 K0.000 F18.000
G1 X21.348 Y7.776 Z-0.500 F18.000
G1 X19.146 Y8.756 Z-0.500 F18.000
G2 X18.968 Y9.038 Z-0.500 I0.122 J0.274 K0.000 F18.000
G0 Z5.000
G0 X17.260 Y8.021 Z5.000
G0 X17.260 Y8.021 Z1.000
G1 X17.260 Y8.021 Z-0.500 F18.000
G1 X18.384 Y9.145 Z-0.500 F18.000
G3 X19.152 Y9.523 Z-0.500 I-0.083 J1.137 K0.000 F18.000
G3 X20.020 Y10.781 Z-0.500 I-6.904 J5.695 K0.000 F18.000
G1 X20.921 Y11.682 Z-0.500 F18.000
G1 X20.132 Y10.468 Z-0.500 F18.000
G1 X18.461 Y8.798 Z-0.500 F18.000
G1 X18.754 Y8.667 Z-0.500 F18.000
G1 X18.999 Y8.911 Z-0.500 F18.000
G3 X19.230 Y8.719 Z-0.500 I0.282 J0.103 K0.000 F18.000
G1 X19.048 Y8.536 Z-0.500 F18.000
G1 X19.342 Y8.405 Z-0.500 F18.000
G1 X19.524 Y8.588 Z-0.500 F18.000
G1 X19.817 Y8.457 Z-0.500 F18.000
G1 X19.635 Y8.275 Z-0.500 F18.000
G1 X19.929 Y8.144 Z-0.500 F18.000
G1 X20.111 Y8.326 Z-0.500 F18.000
G1 X20.405 Y8.196 Z-0.500 F18.000
G1 X20.222 Y8.013 Z-0.500 F18.000
G1 X20.516 Y7.883 Z-0.500 F18.000
G1 X20.698 Y8.065 Z-0.500 F18.000
G1 X20.992 Y7.934 Z-0.500 F18.000
G1 X20.809 Y7.752 Z-0.500 F18.000
G1 X21.103 Y7.621 Z-0.500 F18.000
G1 X21.285 Y7.804 Z-0.500 F18.000
G0 Z5.000
G0 X21.745 Y6.143 Z5.000
G0 X21.745 Y6.143 Z1.000
G1 X21.745 Y6.143 Z-0.500 F18.000
G1 X21.796 Y6.202 Z-0.500 F18.000
G3 X22.423 Y7.193 Z-0.500 I-11.048 J7.689 K0.000 F18.000
G3 X22.405 Y7.226 Z-0.500 I-0.017 J0.012 K0.000 F18.000
G1 X21.538 Y6.359 Z-0.500 F18.000
G2 X21.879 Y6.900 Z-0.500 I28.543 J-17.661 K0.000 F18.000
G3 X21.909 Y7.154 Z-0.500 I-0.155 J0.147 K0.000 F18.000
G1 X22.131 Y7.376 Z-0.500 F18.000
G2 X21.984 Y7.654 Z-0.500 I0.123 J0.242 K0.000 F18.000
G1 X21.690 Y7.360 Z-0.500 F18.000
G1 X21.396 Y7.491 Z-0.500 F18.000
G1 X22.647 Y8.741 Z-0.500 F18.000
G1 X23.450 Y9.968 Z-0.500 F18.000
G1 X22.407 Y8.925 Z-0.500 F18.000
G1 X23.229 Y10.172 Z-0.500 F18.000
G1 X24.253 Y11.196 Z-0.500 F18.000
G3 X24.399 Y11.478 Z-0.500 I-0.384 J0.377 K0.000 F18.000
G3 X24.200 Y11.567 Z-0.500 I-0.624 J-1.123 K0.000 F18.000
G1 X23.876 Y11.243 Z-0.500 F18.000
G3 X23.721 Y11.512 Z-0.500 I-0.268 J0.025 K0.000 F18.000
G1 X23.907 Y11.698 Z-0.500 F18.000
G1 X23.613 Y11.829 Z-0.500 F18.000
G1 X23.431 Y11.646 Z-0.500 F18.000
G1 X23.137 Y11.777 Z-0.500 F18.000
G1 X23.320 Y11.959 Z-0.500 F18.000
G1 X23.026 Y12.090 Z-0.500 F18.000
G1 X22.844 Y11.908 Z-0.500 F18.000
G1 X22.550 Y12.038 Z-0.500 F18.000
G1 X22.733 Y12.221 Z-0.500 F18.000
G1 X22.439 Y12.351 Z-0.500 F18.000
G1 X22.257 Y12.169 Z-0.500 F18.000
G3 X21.950 Y12.287 Z-0.500 I-0.782 J-1.576 K0.000 F18.000
G1 X22.138 Y12.474 Z-0.500 F18.000
G3 X21.812 Y12.573 Z-0.500 I-0.390 J-0.704 K0.000 F18.000
G1 X21.530 Y12.291 Z-0.500 F18.000
G3 X21.129 Y12.002 Z-0.500 I0.157 J-0.640 K0.000 F18.000
G1 X20.921 Y11.682 Z-0.500 F18.000
G1 X20.020 Y10.781 Z-0.500 F18.000
G1 X20.810 Y11.995 Z-0.500 F18.000
G2 X21.325 Y12.511 Z-0.500 I0.978 J-0.462 K0.000 F18.000
G1 X20.810 Y11.995 Z-0.500 F18.000
G0 Z5.000
G0 Z5.000
G0 X20.810 Y11.995
G0 X26.409 Y8.071
G0 X26.409 Y8.071 Z1.000
G1 X26.409 Y8.071 Z-0.500 F18.000
G3 X26.137 Y7.605 Z-0.500 I2.681 J-1.878 K0.000 F18.000
G3 X27.458 Y5.195 Z-0.500 I1.519 J-0.735 K0.000 F18.000
G3 X28.340 Y5.254 Z-0.500 I0.289 J2.317 K0.000 F18.000
G2 X28.619 Y4.740 Z-0.500 I0.042 J-0.310 K0.000 F18.000
G3 X28.354 Y4.449 Z-0.500 I0.408 J-0.639 K0.000 F18.000
G3 X28.515 Y4.359 Z-0.500 I0.147 J0.073 K0.000 F18.000
G3 X28.674 Y4.466 Z-0.500 I-0.044 J0.238 K0.000 F18.000
G1 X31.773 Y7.870 Z-0.500 F18.000
G3 X31.795 Y7.985 Z-0.500 I-0.008 J0.061 K0.000 F18.000
G3 X31.534 Y7.969 Z-0.500 I-0.121 J-0.171 K0.000 F18.000
G2 X31.269 Y7.731 Z-0.500 I-0.827 J0.655 K0.000 F18.000
G2 X30.831 Y7.953 Z-0.500 I-0.126 J0.294 K0.000 F18.000
G3 X30.114 Y9.078 Z-0.500 I-1.449 J-0.132 K0.000 F18.000
G3 X27.743 Y9.168 Z-0.500 I-1.273 J-2.230 K0.000 F18.000
G3 X26.744 Y8.475 Z-0.500 I1.105 J-2.659 K0.000 F18.000
G3 X26.409 Y8.071 Z-0.500 I2.347 J-2.282 K0.000 F18.000
G0 Z5.000
G0 X26.664 Y7.882 Z5.000
G0 X26.664 Y7.882 Z1.000
G1 X26.664 Y7.882 Z-0.500 F18.000
G2 X26.677 Y7.900 Z-0.500 I1.434 J-1.067 K0.000 F18.000
G2 X29.162 Y9.208 Z-0.500 I2.329 J-1.408 K0.000 F18.000
G2 X30.604 Y8.035 Z-0.500 I-0.244 J-1.772 K0.000 F18.000
G2 X30.256 Y6.644 Z-0.500 I-1.749 J-0.301 K0.000 F18.000
G2 X28.096 Y5.280 Z-0.500 I-2.404 J1.414 K0.000 F18.000
G2 X26.395 Y6.269 Z-0.500 I-0.083 J1.814 K0.000 F18.000
G2 X26.664 Y7.882 Z-0.500 I1.702 J0.545 K0.000 F18.000
G0 Z5.000
G0 X26.741 Y8.473 Z5.000
G0 X26.741 Y8.473 Z1.000
G1 X26.741 Y8.473 Z-0.500 F18.000
G2 X26.751 Y8.482 Z-0.500 I0.033 J-0.024 K0.000 F18.000
G3 X26.049 Y7.356 Z-0.500 I2.012 J-2.035 K0.000 F18.000
G1 X26.959 Y8.266 Z-0.500 F18.000
G2 X26.968 Y8.278 Z-0.500 I0.323 J-0.246 K0.000 F18.000
G2 X27.924 Y9.231 Z-0.500 I8.612 J-7.678 K0.000 F18.000
G2 X28.497 Y9.380 Z-0.500 I0.805 J-1.920 K0.000 F18.000
G1 X28.207 Y9.090 Z-0.500 F18.000
G2 X28.761 Y9.219 Z-0.500 I0.680 J-1.660 K0.000 F18.000
G1 X28.950 Y9.408 Z-0.500 F18.000
G1 X29.348 Y9.382 Z-0.500 F18.000
G1 X29.173 Y9.207 Z-0.500 F18.000
G2 X29.506 Y9.116 Z-0.500 I-0.159 J-1.233 K0.000 F18.000
G1 X29.683 Y9.293 Z-0.500 F18.000
G2 X29.966 Y9.152 Z-0.500 I-0.202 J-0.764 K0.000 F18.000
G1 X29.801 Y8.986 Z-0.500 F18.000
G2 X30.051 Y8.812 Z-0.500 I-0.409 J-0.855 K0.000 F18.000
G1 X30.228 Y8.990 Z-0.500 F18.000
G2 X30.456 Y8.794 Z-0.500 I-0.552 J-0.873 K0.000 F18.000
G1 X30.281 Y8.618 Z-0.500 F18.000
G2 X30.458 Y8.371 Z-0.500 I-0.554 J-0.583 K0.000 F18.000
G1 X30.635 Y8.548 Z-0.500 F18.000
G2 X30.769 Y8.257 Z-0.500 I-0.655 J-0.476 K0.000 F18.000
G1 X30.594 Y8.080 Z-0.500 F18.000
G2 X30.640 Y7.704 Z-0.500 I-1.191 J-0.338 K0.000 F18.000
G1 X30.845 Y7.909 Z-0.500 F18.000
G3 X31.071 Y7.711 Z-0.500 I0.299 J0.114 K0.000 F18.000
G1 X30.519 Y7.159 Z-0.500 F18.000
G0 Z5.000
G0 X28.674 Y4.466 Z5.000
G0 X28.674 Y4.466 Z1.000
G1 X28.674 Y4.466 Z-0.500 F18.000
G1 X31.773 Y7.870 Z-0.500 F18.000
G3 X31.777 Y7.993 Z-0.500 I-0.009 J0.062 K0.000 F18.000
G1 X28.691 Y4.907 Z-0.500 F18.000
G3 X28.560 Y5.200 Z-0.500 I-0.278 J0.052 K0.000 F18.000
G1 X28.780 Y5.420 Z-0.500 F18.000
G2 X28.231 Y5.296 Z-0.500 I-0.627 J1.494 K0.000 F18.000
G1 X28.163 Y5.227 Z-0.500 F18.000
G2 X27.696 Y5.185 Z-0.500 I-0.343 J1.188 K0.000 F18.000
G1 X27.808 Y5.297 Z-0.500 F18.000
G2 X27.461 Y5.374 Z-0.500 I0.467 J2.927 K0.000 F18.000
G1 X27.317 Y5.230 Z-0.500 F18.000
G2 X27.000 Y5.337 Z-0.500 I0.082 J0.764 K0.000 F18.000
G1 X27.164 Y5.501 Z-0.500 F18.000
G2 X26.898 Y5.659 Z-0.500 I0.456 J1.069 K0.000 F18.000
G1 X26.725 Y5.486 Z-0.500 F18.000
G2 X26.487 Y5.673 Z-0.500 I0.462 J0.834 K0.000 F18.000
G1 X26.670 Y5.856 Z-0.500 F18.000
G2 X26.481 Y6.091 Z-0.500 I0.764 J0.806 K0.000 F18.000
G1 X26.288 Y5.898 Z-0.500 F18.000
G2 X26.127 Y6.161 Z-0.500 I0.726 J0.625 K0.000 F18.000
G1 X26.360 Y6.394 Z-0.500 F18.000
G2 X26.302 Y6.761 Z-0.500 I0.983 J0.342 K0.000 F18.000
G1 X26.025 Y6.483 Z-0.500 F18.000
G2 X25.985 Y6.868 Z-0.500 I0.898 J0.286 K0.000 F18.000
G1 X26.370 Y7.253 Z-0.500 F18.000
G2 X26.959 Y8.266 Z-0.500 I2.476 J-0.761 K0.000 F18.000
G1 X26.049 Y7.356 Z-0.500 F18.000
G0 Z5.000
G0 Z5.000
(Finish operation: Pocket_Shape)
(Begin postamble)
M5
G17 G90
M2
