(Program was generated 06.11.21 22:40)
(Tool diameter=3mm)
(KeyCapHolderBase offCY=3.000 depthZ=0.900)
G0 Z5.000
G0 X5.100 Y-1.500
G0 Z1.000
G1 X5.100 Y-1.500 Z-0.900 F10
G1 X5.100 Y13.400 Z0.000 F60
G1 X19.900 Y13.400 Z0.000 F60
G1 X19.900 Y-1.500 Z-0.900 F60
G1 X5.100 Y-1.500 Z-0.900 F60
G1 X5.100 Y-1.500 Z-1.900 F10
G1 X5.100 Y13.400 Z-1.000 F60
G1 X19.900 Y13.400 Z-1.000 F60
G1 X19.900 Y-1.500 Z-1.900 F60
G1 X5.100 Y-1.500 Z-1.900 F60
G1 X5.100 Y-1.500 Z-2.900 F10
G1 X5.100 Y13.400 Z-2.000 F60
G1 X19.900 Y13.400 Z-2.000 F60
G1 X19.900 Y-1.500 Z-2.900 F60
G1 X5.100 Y-1.500 Z-2.900 F60
(Corner00 off=0.439)
G0 Z5.000
G0 X4.661 Y-1.939
G0 Z1.000
G1 X4.661 Y-1.939 Z-2.900 F10
G0 Z5.000
(Corner01)
G0 Z5.000
G0 X4.661 Y13.839
G0 Z1.000
G1 X4.661 Y13.839 Z-2.900 F10
G0 Z5.000
(Corner11)
G0 Z5.000
G0 X20.339 Y13.839
G0 Z1.000
G1 X20.339 Y13.839 Z-2.900 F10
G0 Z5.000
(Corner10)
G0 Z5.000
G0 X20.339 Y-1.939
G0 Z1.000
G1 X20.339 Y-1.939 Z-2.900 F10
G0 Z5.000
G0 Z5.000
G0 X0.000 Y7.250
G0 Z1.000
G1 X0.000 Y7.250 Z-3.000 F10
G0 Z5.000
G0 Z5.000
G0 X25.000 Y7.250
G0 Z1.000
G1 X25.000 Y7.250 Z-3.000 F10
G0 Z5.000
(Program stops)
G0 Z5.000
G0 X0.000 Y0.000
