(Program was generated 06.11.21 20:13)
(Tool diameter=3mm)
(KeyCapHolderBase offCY=3.000 depthZ=0.900)
G0 Z5.000
G0 X15.100 Y8.500
G0 Z1.000
G1 X15.100 Y8.500 Z-0.900 F10
G1 X15.100 Y23.400 Z0.000 F60
G1 X29.900 Y23.400 Z0.000 F60
G1 X29.900 Y8.500 Z-0.900 F60
G1 X15.100 Y8.500 Z-0.900 F60
G1 X15.100 Y8.500 Z-1.900 F10
G1 X15.100 Y23.400 Z-1.000 F60
G1 X29.900 Y23.400 Z-1.000 F60
G1 X29.900 Y8.500 Z-1.900 F60
G1 X15.100 Y8.500 Z-1.900 F60
G1 X15.100 Y8.500 Z-2.900 F10
G1 X15.100 Y23.400 Z-2.000 F60
G1 X29.900 Y23.400 Z-2.000 F60
G1 X29.900 Y8.500 Z-2.900 F60
G1 X15.100 Y8.500 Z-2.900 F60
(Corner00 off=0.439)
G0 Z5.000
G0 X14.661 Y8.061
G0 Z1.000
G1 X14.661 Y8.061 Z-2.900 F10
G0 Z5.000
(Corner01)
G0 Z5.000
G0 X14.661 Y23.839
G0 Z1.000
G1 X14.661 Y23.839 Z-2.900 F10
G0 Z5.000
(Corner11)
G0 Z5.000
G0 X30.339 Y23.839
G0 Z1.000
G1 X30.339 Y23.839 Z-2.900 F10
G0 Z5.000
(Corner10)
G0 Z5.000
G0 X30.339 Y8.061
G0 Z1.000
G1 X30.339 Y8.061 Z-2.900 F10
G0 Z5.000
G0 Z5.000
G0 X10.000 Y17.250
G0 Z1.000
G1 X10.000 Y17.250 Z-3.000 F10
G0 Z5.000
G0 Z5.000
G0 X35.000 Y17.250
G0 Z1.000
G1 X35.000 Y17.250 Z-3.000 F10
G0 Z5.000
(Program stops)
G0 Z5.000
G0 X0.000 Y0.000
