(Program was generated 06.11.21 19:13)
(KeyCapHolderClamp ToolDiameter=3mm)
(Cut 1/7 zDown=0.314)
G0 Z5.000
G0 X7.500 Y0.250
G0 Z1.000
G1 X7.500 Y0.250 Z-0.314 F10
G1 X7.500 Y0.250 Z-0.314 F60
G1 X7.500 Y14.250 Z-0.314 F60
G1 X17.500 Y14.250 Z-0.314 F60
G1 X17.500 Y0.250 Z-0.314 F60
G1 X7.500 Y0.250 Z-0.314 F60
(Cut 2/7 zDown=0.314)
G1 X7.500 Y0.250 Z-0.629 F10
G1 X7.500 Y0.250 Z-0.629 F60
G1 X7.500 Y14.250 Z-0.629 F60
G1 X17.500 Y14.250 Z-0.629 F60
G1 X17.500 Y0.250 Z-0.629 F60
G1 X7.500 Y0.250 Z-0.629 F60
(Cut 3/7 zDown=0.314)
G1 X7.500 Y0.250 Z-0.943 F10
G1 X7.500 Y0.250 Z-0.943 F60
G1 X7.500 Y14.250 Z-0.943 F60
G1 X17.500 Y14.250 Z-0.943 F60
G1 X17.500 Y0.250 Z-0.943 F60
G1 X7.500 Y0.250 Z-0.943 F60
(Cut 4/7 zDown=0.314)
G1 X7.500 Y0.250 Z-1.257 F10
G1 X7.500 Y0.250 Z-1.257 F60
G1 X7.500 Y14.250 Z-1.257 F60
G1 X17.500 Y14.250 Z-1.257 F60
G1 X17.500 Y0.250 Z-1.257 F60
G1 X7.500 Y0.250 Z-1.257 F60
(Cut 5/7 zDown=0.314)
G1 X7.500 Y0.250 Z-1.571 F10
G1 X7.500 Y0.250 Z-1.571 F60
G1 X7.500 Y14.250 Z-1.571 F60
G1 X17.500 Y14.250 Z-1.571 F60
G1 X17.500 Y0.250 Z-1.571 F60
G1 X7.500 Y0.250 Z-1.571 F60
(Cut 6/7 zDown=0.314)
G1 X7.500 Y0.250 Z-1.886 F10
G1 X7.500 Y0.250 Z-1.886 F60
G1 X7.500 Y14.250 Z-1.886 F60
G1 X17.500 Y14.250 Z-1.886 F60
G1 X17.500 Y0.250 Z-1.886 F60
G1 X7.500 Y0.250 Z-1.886 F60
(Cut 7/7 zDown=0.314)
G1 X7.500 Y0.250 Z-2.200 F10
G1 X7.500 Y0.250 Z-2.200 F60
G1 X7.500 Y14.250 Z-2.200 F60
G1 X17.500 Y14.250 Z-2.200 F60
G1 X17.500 Y0.250 Z-2.200 F60
G1 X7.500 Y0.250 Z-2.200 F60
G0 Z5.000
G0 X0.000 Y7.250
G0 Z1.000
G1 X0.000 Y7.250 Z-2.200 F10
G0 Z5.000
G0 Z5.000
G0 X25.000 Y7.250
G0 Z1.000
G1 X25.000 Y7.250 Z-2.200 F10
G0 Z5.000
G0 Z5.000
G0 X6.000 Y1.500
G0 Z1.000
G1 X6.000 Y1.500 Z0.500 F10
G0 Z5.000
G0 Z5.000
G0 X19.000 Y1.500
G0 Z1.000
G1 X19.000 Y1.500 Z0.500 F10
G0 Z5.000
(Program stops)
G0 Z5.000
G0 X0.000 Y0.000
