(Exported by FreeCAD)
(Post Processor: grbl_post)
(Output Time:2021-10-04 22:23:47.047884)
(Begin preamble)
G17 G90
G21
(Begin operation: Fixture)
(Path: Fixture)
G54
(Finish operation: Fixture)
(Begin operation: 0.6mm Ball End001)
(Path: 0.6mm Ball End001)
(0.6mm Ball End001)
(Begin toolchange)
( M6 T1.0 )
M3 S0.0
(Finish operation: 0.6mm Ball End001)
(Begin operation: Pocket_3D)
(Path: Pocket_3D)
(Pocket_3D)
G0 Z8.001
G0 X4.953 Y5.041
G0 Z6.001
G1 X4.953 Y5.041 Z2.401
G3 X3.553 Y5.592 Z2.401 I-1.296 J-1.242 K0.000
G3 X1.671 Y4.114 Z2.401 I-0.108 J-1.801 K0.000
G3 X1.917 Y1.995 Z2.401 I2.810 J-0.747 K0.000
G3 X3.554 Y1.165 Z2.401 I1.584 J1.096 K0.000
G3 X5.423 Y2.624 Z2.401 I0.089 J1.813 K0.000
G3 X5.097 Y4.871 Z2.401 I-2.648 J0.763 K0.000
G3 X4.953 Y5.041 Z2.401 I-1.440 J-1.072 K0.000
G0 Z8.001
G0 X4.718 Y4.840 Z8.001
G0 X4.718 Y4.840 Z6.001
G1 X4.718 Y4.840 Z2.401
G2 X5.051 Y4.169 Z2.401 I-1.171 J-0.999 K0.000
G2 X4.715 Y1.928 Z2.401 I-2.604 J-0.756 K0.000
G2 X3.549 Y1.379 Z2.401 I-1.137 J0.904 K0.000
G2 X2.037 Y2.644 Z2.401 I0.006 J1.543 K0.000
G2 X2.383 Y4.849 Z2.401 I2.563 J0.727 K0.000
G2 X4.718 Y4.840 Z2.401 I1.164 J-1.007 K0.000
G0 Z8.001
G0 X3.379 Y5.578 Z8.001
G0 X3.379 Y5.578 Z6.001
G1 X3.379 Y5.578 Z2.401
G1 X3.122 Y5.321 Z2.401
G2 X3.833 Y5.354 Z2.401 I0.431 J-1.647 K0.000
G1 X4.020 Y5.540 Z2.401
G2 X4.522 Y5.363 Z2.401 I-0.145 J-1.214 K0.000
G1 X4.333 Y5.174 Z2.401
G2 X4.703 Y4.866 Z2.401 I-0.727 J-1.247 K0.000
G1 X4.914 Y5.077 Z2.401
G2 X5.205 Y4.689 Z2.401 I-0.863 J-0.953 K0.000
G1 X4.955 Y4.439 Z2.401
G2 X5.098 Y3.903 Z2.401 I-1.462 J-0.677 K0.000
G1 X5.403 Y4.208 Z2.401
G2 X5.501 Y3.627 Z2.401 I-1.620 J-0.572 K0.000
G1 X5.129 Y3.256 Z2.401
G2 X4.985 Y2.433 Z2.401 I-2.212 J-0.037 K0.000
G1 X5.483 Y2.930 Z2.401
G2 X4.897 Y1.666 Z2.401 I-2.239 J0.269 K0.000
G0 Z8.001
G0 X4.004 Y1.451 Z8.001
G0 X4.004 Y1.451 Z6.001
G1 X4.004 Y1.451 Z2.401
G1 X3.733 Y1.180 Z2.401
G2 X3.089 Y1.215 Z2.401 I-0.245 J1.433 K0.000
G1 X3.283 Y1.409 Z2.401
G2 X2.785 Y1.590 Z2.401 I0.111 J1.087 K0.000
G1 X2.590 Y1.395 Z2.401
G2 X2.197 Y1.681 Z2.401 I0.679 J1.347 K0.000
G1 X2.411 Y1.895 Z2.401
G2 X2.153 Y2.316 Z2.401 I0.972 J0.886 K0.000
G1 X1.889 Y2.052 Z2.401
G2 X1.696 Y2.538 Z2.401 I2.028 J1.087 K0.000
G1 X2.003 Y2.845 Z2.401
G2 X1.961 Y3.482 Z2.401 I2.149 J0.461 K0.000
G1 X1.600 Y3.121 Z2.401
G2 X1.615 Y3.814 Z2.401 I2.661 J0.291 K0.000
G1 X2.087 Y4.286 Z2.401
G2 X3.122 Y5.321 Z2.401 I1.429 J-0.393 K0.000
G1 X3.379 Y5.578 Z2.401
G3 X2.065 Y4.943 Z2.401 I0.006 J-1.688 K0.000
G2 X2.307 Y5.185 Z2.401 I0.838 J-0.596 K0.000
G1 X2.307 Y5.185 Z1.801
G3 X2.065 Y4.943 Z1.801 I0.596 J-0.838 K0.000
G2 X2.956 Y5.522 Z1.801 I1.315 J-1.047 K0.000
G1 X2.956 Y5.256 Z1.801
G3 X2.087 Y4.286 Z1.801 I0.501 J-1.323 K0.000
G1 X1.615 Y3.814 Z1.801
G3 X1.600 Y3.121 Z1.801 I2.646 J-0.402 K0.000
G1 X1.961 Y3.482 Z1.801
G3 X2.003 Y2.845 Z1.801 I2.191 J-0.176 K0.000
G1 X1.696 Y2.538 Z1.801
G3 X1.889 Y2.052 Z1.801 I2.221 J0.601 K0.000
G1 X2.153 Y2.316 Z1.801
G3 X2.411 Y1.895 Z1.801 I1.230 J0.465 K0.000
G1 X2.197 Y1.681 Z1.801
G3 X2.590 Y1.395 Z1.801 I1.072 J1.061 K0.000
G1 X2.785 Y1.590 Z1.801
G3 X2.956 Y1.497 Z1.801 I0.359 J0.460 K0.000
G1 X2.956 Y1.248 Z1.801
G2 X2.590 Y1.395 Z1.801 I0.246 J1.140 K0.000
G0 Z8.001
G0 X2.589 Y1.394 Z8.001
G0 X2.589 Y1.394 Z6.001
G1 X2.589 Y1.394 Z1.801
G3 X2.956 Y1.248 Z1.801 I0.869 J1.648 K0.000
G1 X2.956 Y1.497 Z1.801
G2 X2.037 Y2.644 Z1.801 I0.644 J1.458 K0.000
G2 X2.383 Y4.849 Z1.801 I2.563 J0.727 K0.000
G2 X2.956 Y5.256 Z1.801 I1.002 J-0.802 K0.000
G1 X2.956 Y5.522 Z1.801
G3 X1.671 Y4.114 Z1.801 I0.475 J-1.724 K0.000
G3 X1.917 Y1.995 Z1.801 I2.810 J-0.747 K0.000
G3 X2.589 Y1.394 Z1.801 I1.541 J1.047 K0.000
G0 Z8.001
G0 X4.155 Z8.001
G0 X4.155 Z6.001
G1 X4.155 Y1.394 Z1.801
G1 X4.155 Y1.252 Z1.801
G3 X5.423 Y2.624 Z1.801 I-0.441 J1.679 K0.000
G3 X5.097 Y4.871 Z1.801 I-2.648 J0.763 K0.000
G3 X4.155 Y5.514 Z1.801 I-1.375 J-1.005 K0.000
G1 X4.155 Y5.253 Z1.801
G2 X5.051 Y4.169 Z1.801 I-0.563 J-1.378 K0.000
G2 X4.715 Y1.928 Z1.801 I-2.604 J-0.756 K0.000
G2 X4.155 Y1.501 Z1.801 I-1.120 J0.891 K0.000
G1 X4.155 Y1.394 Z1.801
G0 Z8.001
G0 X4.897 Y1.666 Z8.001
G0 X4.897 Y1.666 Z6.001
G1 X4.897 Y1.666 Z1.801
G3 X5.483 Y2.930 Z1.801 I-1.654 J1.534 K0.000
G1 X4.985 Y2.433 Z1.801
G3 X5.129 Y3.256 Z1.801 I-2.068 J0.786 K0.000
G1 X5.501 Y3.627 Z1.801
G3 X5.403 Y4.208 Z1.801 I-1.718 J0.009 K0.000
G1 X5.098 Y3.903 Z1.801
G3 X4.955 Y4.439 Z1.801 I-1.605 J-0.141 K0.000
G1 X5.205 Y4.689 Z1.801
G3 X4.914 Y5.077 Z1.801 I-1.154 J-0.566 K0.000
G1 X4.703 Y4.866 Z1.801
G3 X4.333 Y5.174 Z1.801 I-1.097 J-0.939 K0.000
G1 X4.522 Y5.363 Z1.801
G3 X4.155 Y5.514 Z1.801 I-0.698 J-1.180 K0.000
G1 X4.155 Y5.253 Z1.801
G2 X4.332 Y5.175 Z1.801 I-0.118 J-0.508 K0.000
G1 X4.332 Y5.175 Z1.201
G3 X4.276 Y5.207 Z1.201 I-0.175 J-0.240 K0.000
G1 X4.276 Y5.476 Z1.201
G2 X4.522 Y5.363 Z1.201 I-0.264 J-0.896 K0.000
G1 X4.333 Y5.174 Z1.201
G2 X4.703 Y4.866 Z1.201 I-0.727 J-1.247 K0.000
G1 X4.914 Y5.077 Z1.201
G2 X5.205 Y4.689 Z1.201 I-0.863 J-0.953 K0.000
G1 X4.955 Y4.439 Z1.201
G2 X5.098 Y3.903 Z1.201 I-1.462 J-0.677 K0.000
G1 X5.403 Y4.208 Z1.201
G2 X5.501 Y3.627 Z1.201 I-1.620 J-0.572 K0.000
G1 X5.129 Y3.256 Z1.201
G2 X4.985 Y2.433 Z1.201 I-2.212 J-0.037 K0.000
G1 X5.483 Y2.930 Z1.201
G2 X4.897 Y1.666 Z1.201 I-2.239 J0.269 K0.000
G0 Z8.001
G0 X4.900 Y1.663 Z8.001
G0 X4.900 Y1.663 Z6.001
G1 X4.900 Y1.663 Z1.201
G3 X5.423 Y2.624 Z1.201 I-1.188 J1.269 K0.000
G3 X5.097 Y4.871 Z1.201 I-2.648 J0.763 K0.000
G3 X4.276 Y5.476 Z1.201 I-1.370 J-1.000 K0.000
G1 X4.276 Y5.207 Z1.201
G2 X5.118 Y3.792 Z1.201 I-0.802 J-1.434 K0.000
G2 X4.693 Y1.901 Z1.201 I-2.543 J-0.421 K0.000
G2 X4.276 Y1.563 Z1.201 I-1.020 J0.829 K0.000
G1 X4.276 Y1.287 Z1.201
G3 X4.900 Y1.663 Z1.201 I-0.564 J1.644 K0.000
G0 Z8.001
G0 X2.831 Y1.562 Z8.001
G0 X2.831 Y1.562 Z6.001
G1 X2.831 Y1.562 Z1.201
G2 X1.968 Y3.063 Z1.201 I0.901 J1.516 K0.000
G2 X2.215 Y4.601 Z1.201 I2.735 J0.349 K0.000
G2 X2.831 Y5.209 Z1.201 I1.290 J-0.689 K0.000
G1 X2.831 Y5.483 Z1.201
G3 X1.671 Y4.114 Z1.201 I0.607 J-1.691 K0.000
G3 X1.917 Y1.994 Z1.201 I2.810 J-0.747 K0.000
G3 X2.831 Y1.289 Z1.201 I1.551 J1.064 K0.000
G1 X2.831 Y1.562 Z1.201
G0 Z8.001
G0 X2.589 Y1.395 Z8.001
G0 X2.589 Y1.395 Z6.001
G1 X2.589 Y1.395 Z1.201
G3 X2.831 Y1.289 Z1.201 I0.448 J0.693 K0.000
G1 X2.831 Y1.562 Z1.201
G1 X2.785 Y1.590 Z1.201
G1 X2.589 Y1.395 Z1.201
G2 X2.197 Y1.681 Z1.201 I0.688 J1.356 K0.000
G1 X2.411 Y1.895 Z1.201
G2 X2.153 Y2.316 Z1.201 I0.972 J0.886 K0.000
G1 X1.889 Y2.052 Z1.201
G2 X1.696 Y2.538 Z1.201 I2.028 J1.087 K0.000
G1 X2.003 Y2.845 Z1.201
G2 X1.961 Y3.482 Z1.201 I2.149 J0.461 K0.000
G1 X1.600 Y3.121 Z1.201
G2 X1.615 Y3.814 Z1.201 I2.661 J0.291 K0.000
G1 X2.087 Y4.286 Z1.201
G2 X2.831 Y5.209 Z1.201 I1.459 J-0.415 K0.000
G1 X2.831 Y5.483 Z1.201
G3 X2.065 Y4.943 Z1.201 I0.536 J-1.574 K0.000
G2 X2.307 Y5.185 Z1.201 I0.838 J-0.596 K0.000
G1 X2.307 Y5.185 Z0.601
G3 X2.065 Y4.943 Z0.601 I0.596 J-0.838 K0.000
G2 X2.770 Y5.457 Z0.601 I1.272 J-1.003 K0.000
G1 X2.770 Y5.175 Z0.601
G3 X2.087 Y4.286 Z0.601 I0.753 J-1.286 K0.000
G1 X1.615 Y3.814 Z0.601
G3 X1.600 Y3.121 Z0.601 I2.646 J-0.402 K0.000
G1 X1.961 Y3.482 Z0.601
G3 X2.003 Y2.845 Z0.601 I2.191 J-0.176 K0.000
G1 X1.696 Y2.538 Z0.601
G3 X1.889 Y2.052 Z0.601 I2.221 J0.601 K0.000
G1 X2.153 Y2.316 Z0.601
G3 X2.411 Y1.895 Z0.601 I1.230 J0.465 K0.000
G1 X2.197 Y1.681 Z0.601
G3 X2.590 Y1.395 Z0.601 I1.048 J1.031 K0.000
G1 X2.770 Y1.575 Z0.601
G1 X2.770 Y1.313 Z0.601
G1 X2.590 Y1.395 Z0.601
G0 Z8.001
G0 X2.590 Y1.396 Z8.001
G0 X2.590 Y1.396 Z6.001
G1 X2.590 Y1.396 Z0.601
G3 X2.770 Y1.313 Z0.601 I0.866 J1.651 K0.000
G1 X2.770 Y1.599 Z0.601
G2 X1.968 Y3.063 Z0.601 I0.965 J1.480 K0.000
G2 X2.215 Y4.601 Z0.601 I2.735 J0.349 K0.000
G2 X2.770 Y5.175 Z0.601 I1.324 J-0.725 K0.000
G1 X2.770 Y5.457 Z0.601
G3 X1.671 Y4.114 Z0.601 I0.660 J-1.662 K0.000
G3 X1.917 Y1.994 Z0.601 I2.810 J-0.747 K0.000
G3 X2.590 Y1.396 Z0.601 I1.539 J1.052 K0.000
G0 Z8.001
G0 X4.334 Z8.001
G0 X4.334 Z6.001
G1 X4.334 Y1.396 Z0.601
G1 X4.334 Y1.309 Z0.601
G3 X5.479 Y2.872 Z0.601 I-0.792 J1.781 K0.000
G3 X5.097 Y4.871 Z0.601 I-2.686 J0.523 K0.000
G3 X4.334 Y5.453 Z0.601 I-1.351 J-0.982 K0.000
G1 X4.334 Y5.174 Z0.601
G2 X5.122 Y3.753 Z0.601 I-0.934 J-1.447 K0.000
G2 X4.876 Y2.168 Z0.601 I-2.776 J-0.381 K0.000
G2 X4.334 Y1.593 Z0.601 I-1.377 J0.755 K0.000
G1 X4.334 Y1.396 Z0.601
G0 Z8.001
G0 X4.897 Y1.666 Z8.001
G0 X4.897 Y1.666 Z6.001
G1 X4.897 Y1.666 Z0.601
G3 X5.483 Y2.930 Z0.601 I-1.654 J1.534 K0.000
G1 X4.985 Y2.433 Z0.601
G3 X5.129 Y3.256 Z0.601 I-2.068 J0.786 K0.000
G1 X5.501 Y3.627 Z0.601
G3 X5.403 Y4.208 Z0.601 I-1.718 J0.009 K0.000
G1 X5.098 Y3.903 Z0.601
G3 X4.955 Y4.439 Z0.601 I-1.605 J-0.141 K0.000
G1 X5.205 Y4.689 Z0.601
G3 X4.914 Y5.077 Z0.601 I-1.154 J-0.566 K0.000
G1 X4.703 Y4.866 Z0.601
G3 X4.334 Y5.174 Z0.601 I-1.070 J-0.906 K0.000
G1 X4.522 Y5.363 Z0.601
G1 X4.334 Y5.453 Z0.601
G1 X4.334 Y5.175 Z0.601
G0 Z8.001
G0 X4.334 Y5.174 Z8.001
G0 X4.334 Y5.174 Z6.001
G1 X4.334 Y5.174 Z0.600
G2 X5.122 Y3.753 Z0.600 I-0.934 J-1.447 K0.000
G2 X4.876 Y2.168 Z0.600 I-2.776 J-0.381 K0.000
G2 X4.334 Y1.593 Z0.600 I-1.377 J0.755 K0.000
G1 X4.334 Y1.309 Z0.600
G3 X5.479 Y2.872 Z0.600 I-0.792 J1.781 K0.000
G3 X5.097 Y4.871 Z0.600 I-2.686 J0.523 K0.000
G3 X4.334 Y5.453 Z0.600 I-1.350 J-0.982 K0.000
G1 X4.334 Y5.174 Z0.600
G0 Z8.001
G0 Y5.175 Z8.001
G0 Y5.175 Z6.001
G1 X4.334 Y5.175 Z0.600
G1 X4.334 Y5.453 Z0.600
G1 X4.522 Y5.363 Z0.600
G1 X4.334 Y5.174 Z0.600
G2 X4.703 Y4.866 Z0.600 I-0.700 J-1.214 K0.000
G1 X4.914 Y5.077 Z0.600
G2 X5.205 Y4.689 Z0.600 I-0.863 J-0.953 K0.000
G1 X4.955 Y4.439 Z0.600
G2 X5.098 Y3.903 Z0.600 I-1.462 J-0.677 K0.000
G1 X5.403 Y4.208 Z0.600
G2 X5.501 Y3.627 Z0.600 I-1.620 J-0.572 K0.000
G1 X5.129 Y3.256 Z0.600
G2 X4.985 Y2.433 Z0.600 I-2.212 J-0.037 K0.000
G1 X5.483 Y2.930 Z0.600
G2 X4.897 Y1.666 Z0.600 I-2.239 J0.269 K0.000
G0 Z8.001
G0 X2.770 Y1.599 Z8.001
G0 X2.770 Y1.599 Z6.001
G1 X2.770 Y1.599 Z0.600
G2 X1.968 Y3.063 Z0.600 I0.965 J1.480 K0.000
G2 X2.215 Y4.601 Z0.600 I2.735 J0.349 K0.000
G2 X2.770 Y5.175 Z0.600 I1.324 J-0.725 K0.000
G1 X2.770 Y5.457 Z0.600
G3 X1.671 Y4.114 Z0.600 I0.661 J-1.662 K0.000
G3 X1.917 Y1.994 Z0.600 I2.810 J-0.747 K0.000
G3 X2.770 Y1.313 Z0.600 I1.539 J1.052 K0.000
G1 X2.770 Y1.599 Z0.600
G0 Z8.001
G0 X2.590 Y1.395 Z8.001
G0 X2.590 Y1.395 Z6.001
G1 X2.590 Y1.395 Z0.600
G1 X2.770 Y1.313 Z0.600
G1 X2.770 Y1.575 Z0.600
G1 X2.590 Y1.395 Z0.600
G2 X2.197 Y1.681 Z0.600 I0.654 J1.316 K0.000
G1 X2.411 Y1.895 Z0.600
G2 X2.153 Y2.316 Z0.600 I0.972 J0.886 K0.000
G1 X1.889 Y2.052 Z0.600
G2 X1.696 Y2.538 Z0.600 I2.028 J1.087 K0.000
G1 X2.003 Y2.845 Z0.600
G2 X1.961 Y3.482 Z0.600 I2.149 J0.461 K0.000
G1 X1.600 Y3.121 Z0.600
G2 X1.615 Y3.814 Z0.600 I2.661 J0.291 K0.000
G1 X2.087 Y4.286 Z0.600
G2 X2.770 Y5.175 Z0.600 I1.436 J-0.397 K0.000
G1 X2.770 Y5.457 Z0.600
G3 X2.065 Y4.943 Z0.600 I0.566 J-1.517 K0.000
G2 X2.307 Y5.185 Z0.600 I0.838 J-0.596 K0.000
G0 Z8.001
G0 Z8.001
(Finish operation: Pocket_3D)
(Begin postamble)
M5
G17 G90
M2
