(Exported by FreeCAD)
(Post Processor: grbl_post)
(Output Time:2021-10-31 16:48:30.252648)
(Begin preamble)
G17 G90
G21
(Begin operation: Fixture)
(Path: Fixture)
G54
(Finish operation: Fixture)
(Begin operation: 0.6mm Ball End001)
(Path: 0.6mm Ball End001)
(0.6mm Ball End001)
(Begin toolchange)
( M6 T1.0 )
M3 S0.0
(Finish operation: 0.6mm Ball End001)
(Begin operation: Pocket_Shape)
(Path: Pocket_Shape)
(Pocket_Shape)
G0 Z8.001
G0 X7.624 Y9.784
G0 Z6.001
G1 X7.624 Y9.784 Z2.401 F50
G2 X7.497 Y9.523 Z2.401 I-0.199 J-0.065 K0.000
G1 X3.725 Y6.082 Z2.401
G3 X3.718 Y5.646 Z2.401 I0.202 J-0.222 K0.000
G1 X7.904 Y1.566 Z2.401
G2 X8.001 Y1.358 Z2.401 I-0.060 J-0.155 K0.000
G2 X7.765 Y1.302 Z2.401 I-0.165 J0.167 K0.000
G2 X7.373 Y1.500 Z2.401 I0.017 J0.520 K0.000
G1 X3.100 Y5.605 Z2.401
G3 X2.592 Y5.388 Z2.401 I-0.208 J-0.216 K0.000
G1 X2.592 Y1.586 Z2.401
G1 X2.578 Y1.443 Z2.401
G2 X2.055 Y1.590 Z2.401 I-0.243 J0.139 K0.000
G1 X2.055 Y9.585 Z2.401
G1 X2.066 Y9.684 Z2.401
G2 X2.592 Y9.614 Z2.401 I0.263 J-0.041 K0.000
G1 X2.592 Y6.320 Z2.401
G3 X3.096 Y6.099 Z2.401 I0.300 J0.000 K0.000
G1 X7.116 Y9.799 Z2.401
G1 X7.281 Y9.868 Z2.401
G2 X7.614 Y9.810 Z2.401 I0.135 J-0.211 K0.000
G2 X7.624 Y9.784 Z2.401 I-0.189 J-0.091 K0.000
G0 Z8.001
G0 X2.055 Y8.989 Z8.001
G0 X2.055 Y8.989 Z6.001
G1 X2.055 Y8.989 Z2.401
G1 X2.592 Y9.526 Z2.401
G3 X2.451 Y9.879 Z2.401 I-0.252 J0.104 K0.000
G3 X2.055 Y9.585 Z2.401 I-0.114 J-0.260 K0.000
G1 X2.055 Y8.989 Z2.401
G1 X2.055 Y8.140 Z2.401
G1 X2.592 Y8.678 Z2.401
G1 X2.592 Y7.829 Z2.401
G1 X2.055 Y7.292 Z2.401
G1 X2.055 Y6.443 Z2.401
G1 X2.592 Y6.980 Z2.401
G1 X2.592 Y6.320 Z2.401
G3 X2.634 Y6.174 Z2.401 I0.168 J-0.031 K0.000
G1 X2.055 Y5.595 Z2.401
G1 X2.055 Y4.746 Z2.401
G1 X2.592 Y5.283 Z2.401
G2 X2.983 Y5.674 Z2.401 I0.302 J0.088 K0.000
G1 X7.013 Y9.704 Z2.401
G2 X7.281 Y9.868 Z2.401 I0.359 J-0.286 K0.000
G2 X7.614 Y9.810 Z2.401 I0.135 J-0.211 K0.000
G2 X7.497 Y9.523 Z2.401 I-0.189 J-0.091 K0.000
G1 X3.725 Y6.082 Z2.401
G3 X3.761 Y5.603 Z2.401 I0.209 J-0.225 K0.000
G1 X3.438 Y5.280 Z2.401
G1 X3.871 Y4.865 Z2.401
G1 X4.191 Y5.185 Z2.401
G1 X4.620 Y4.766 Z2.401
G1 X4.303 Y4.449 Z2.401
G1 X4.736 Y4.033 Z2.401
G1 X5.050 Y4.347 Z2.401
G1 X5.480 Y3.928 Z2.401
G1 X5.169 Y3.617 Z2.401
G1 X5.602 Y3.202 Z2.401
G1 X5.910 Y3.509 Z2.401
G1 X6.339 Y3.091 Z2.401
G1 X6.034 Y2.786 Z2.401
G1 X6.467 Y2.370 Z2.401
G1 X6.769 Y2.672 Z2.401
G1 X7.199 Y2.253 Z2.401
G1 X6.900 Y1.954 Z2.401
G1 X7.333 Y1.538 Z2.401
G1 X7.629 Y1.834 Z2.401
G1 X7.904 Y1.566 Z2.401
G2 X8.001 Y1.358 Z2.401 I-0.060 J-0.155 K0.000
G0 Z8.001
G0 X2.115 Y1.412 Z8.001
G0 X2.115 Y1.412 Z6.001
G1 X2.115 Y1.412 Z2.401
G3 X2.592 Y1.586 Z2.401 I0.222 J0.132 K0.000
G1 X2.592 Y1.889 Z2.401
G1 X2.115 Y1.412 Z2.401
G2 X2.055 Y1.590 Z2.401 I0.210 J0.169 K0.000
G1 X2.055 Y2.201 Z2.401
G1 X2.592 Y2.738 Z2.401
G1 X2.592 Y3.586 Z2.401
G1 X2.055 Y3.049 Z2.401
G1 X2.055 Y3.898 Z2.401
G1 X2.592 Y4.435 Z2.401
G1 X2.592 Y5.283 Z2.401
G1 X2.055 Y4.746 Z2.401
G1 X2.055 Y4.746 Z1.801
G1 X2.592 Y5.283 Z1.801
G1 X2.592 Y4.435 Z1.801
G1 X2.055 Y3.898 Z1.801
G1 X2.055 Y3.049 Z1.801
G1 X2.592 Y3.586 Z1.801
G1 X2.592 Y2.738 Z1.801
G1 X2.055 Y2.201 Z1.801
G1 X2.055 Y1.590 Z1.801
G3 X2.115 Y1.412 Z1.801 I0.269 J-0.009 K0.000
G1 X2.592 Y1.889 Z1.801
G1 X2.592 Y1.586 Z1.801
G2 X2.115 Y1.412 Z1.801 I-0.255 J-0.042 K0.000
G0 Z8.001
G0 X2.114 Y1.411 Z8.001
G0 X2.114 Y1.411 Z6.001
G1 X2.114 Y1.411 Z1.801
G2 X2.055 Y1.590 Z1.801 I0.221 J0.171 K0.000
G1 X2.055 Y9.585 Z1.801
G1 X2.066 Y9.684 Z1.801
G2 X2.592 Y9.614 Z1.801 I0.263 J-0.041 K0.000
G1 X2.592 Y6.320 Z1.801
G3 X3.096 Y6.099 Z1.801 I0.300 J0.000 K0.000
G1 X7.116 Y9.799 Z1.801
G1 X7.281 Y9.868 Z1.801
G2 X7.614 Y9.810 Z1.801 I0.135 J-0.211 K0.000
G2 X7.497 Y9.523 Z1.801 I-0.189 J-0.091 K0.000
G1 X3.725 Y6.082 Z1.801
G3 X3.718 Y5.646 Z1.801 I0.202 J-0.222 K0.000
G1 X7.904 Y1.566 Z1.801
G2 X8.001 Y1.358 Z1.801 I-0.060 J-0.155 K0.000
G2 X7.765 Y1.302 Z1.801 I-0.165 J0.167 K0.000
G2 X7.373 Y1.500 Z1.801 I0.017 J0.520 K0.000
G1 X3.100 Y5.605 Z1.801
G3 X2.592 Y5.388 Z1.801 I-0.208 J-0.216 K0.000
G1 X2.592 Y1.586 Z1.801
G1 X2.578 Y1.443 Z1.801
G2 X2.114 Y1.411 Z1.801 I-0.243 J0.139 K0.000
G0 Z8.001
G0 X8.001 Y1.358 Z8.001
G0 X8.001 Y1.358 Z6.001
G1 X8.001 Y1.358 Z1.801
G3 X7.904 Y1.566 Z1.801 I-0.157 J0.053 K0.000
G1 X7.629 Y1.834 Z1.801
G1 X7.333 Y1.538 Z1.801
G1 X6.900 Y1.954 Z1.801
G1 X7.199 Y2.253 Z1.801
G1 X6.769 Y2.672 Z1.801
G1 X6.467 Y2.370 Z1.801
G1 X6.034 Y2.786 Z1.801
G1 X6.339 Y3.091 Z1.801
G1 X5.910 Y3.509 Z1.801
G1 X5.602 Y3.202 Z1.801
G1 X5.169 Y3.617 Z1.801
G1 X5.480 Y3.928 Z1.801
G1 X5.050 Y4.347 Z1.801
G1 X4.736 Y4.033 Z1.801
G1 X4.303 Y4.449 Z1.801
G1 X4.620 Y4.766 Z1.801
G1 X4.191 Y5.185 Z1.801
G1 X3.871 Y4.865 Z1.801
G1 X3.438 Y5.280 Z1.801
G1 X3.761 Y5.603 Z1.801
G2 X3.725 Y6.082 Z1.801 I0.173 J0.254 K0.000
G1 X7.497 Y9.523 Z1.801
G3 X7.614 Y9.810 Z1.801 I-0.072 J0.197 K0.000
G3 X7.281 Y9.868 Z1.801 I-0.197 J-0.153 K0.000
G3 X7.013 Y9.704 Z1.801 I0.090 J-0.450 K0.000
G1 X2.983 Y5.674 Z1.801
G3 X2.592 Y5.283 Z1.801 I-0.088 J-0.302 K0.000
G1 X2.055 Y4.746 Z1.801
G1 X2.055 Y5.595 Z1.801
G1 X2.634 Y6.174 Z1.801
G2 X2.592 Y6.320 Z1.801 I0.126 J0.115 K0.000
G1 X2.592 Y6.980 Z1.801
G1 X2.055 Y6.443 Z1.801
G1 X2.055 Y7.292 Z1.801
G1 X2.592 Y7.829 Z1.801
G1 X2.592 Y8.678 Z1.801
G1 X2.055 Y8.140 Z1.801
G1 X2.055 Y8.989 Z1.801
G1 X2.055 Y9.585 Z1.801
G2 X2.451 Y9.879 Z1.801 I0.282 J0.034 K0.000
G2 X2.592 Y9.526 Z1.801 I-0.111 J-0.249 K0.000
G1 X2.055 Y8.989 Z1.801
G1 X2.055 Y8.989 Z1.500
G1 X2.592 Y9.526 Z1.500
G3 X2.451 Y9.879 Z1.500 I-0.252 J0.104 K0.000
G3 X2.055 Y9.585 Z1.500 I-0.114 J-0.260 K0.000
G1 X2.055 Y8.989 Z1.500
G1 X2.055 Y8.140 Z1.500
G1 X2.592 Y8.678 Z1.500
G1 X2.592 Y7.829 Z1.500
G1 X2.055 Y7.292 Z1.500
G1 X2.055 Y6.443 Z1.500
G1 X2.592 Y6.980 Z1.500
G1 X2.592 Y6.320 Z1.500
G3 X2.634 Y6.174 Z1.500 I0.168 J-0.031 K0.000
G1 X2.055 Y5.595 Z1.500
G1 X2.055 Y4.746 Z1.500
G1 X2.592 Y5.283 Z1.500
G2 X2.983 Y5.674 Z1.500 I0.302 J0.088 K0.000
G1 X7.013 Y9.704 Z1.500
G2 X7.281 Y9.868 Z1.500 I0.359 J-0.286 K0.000
G2 X7.614 Y9.810 Z1.500 I0.135 J-0.211 K0.000
G2 X7.497 Y9.523 Z1.500 I-0.189 J-0.091 K0.000
G1 X3.725 Y6.082 Z1.500
G3 X3.761 Y5.603 Z1.500 I0.209 J-0.225 K0.000
G1 X3.438 Y5.280 Z1.500
G1 X3.871 Y4.865 Z1.500
G1 X4.191 Y5.185 Z1.500
G1 X4.620 Y4.766 Z1.500
G1 X4.303 Y4.449 Z1.500
G1 X4.736 Y4.033 Z1.500
G1 X5.050 Y4.347 Z1.500
G1 X5.480 Y3.928 Z1.500
G1 X5.169 Y3.617 Z1.500
G1 X5.602 Y3.202 Z1.500
G1 X5.910 Y3.509 Z1.500
G1 X6.339 Y3.091 Z1.500
G1 X6.034 Y2.786 Z1.500
G1 X6.467 Y2.370 Z1.500
G1 X6.769 Y2.672 Z1.500
G1 X7.199 Y2.253 Z1.500
G1 X6.900 Y1.954 Z1.500
G1 X7.333 Y1.538 Z1.500
G1 X7.629 Y1.834 Z1.500
G1 X7.904 Y1.566 Z1.500
G2 X8.001 Y1.358 Z1.500 I-0.060 J-0.155 K0.000
G1 X8.001 Y1.358 Z1.500
G2 X7.765 Y1.302 Z1.500 I-0.165 J0.167 K0.000
G2 X7.373 Y1.500 Z1.500 I0.017 J0.520 K0.000
G1 X3.100 Y5.605 Z1.500
G3 X2.592 Y5.388 Z1.500 I-0.208 J-0.216 K0.000
G1 X2.592 Y1.586 Z1.500
G1 X2.578 Y1.443 Z1.500
G2 X2.055 Y1.590 Z1.500 I-0.243 J0.139 K0.000
G1 X2.055 Y9.585 Z1.500
G1 X2.066 Y9.684 Z1.500
G2 X2.592 Y9.614 Z1.500 I0.263 J-0.041 K0.000
G1 X2.592 Y6.320 Z1.500
G3 X3.096 Y6.099 Z1.500 I0.300 J0.000 K0.000
G1 X7.116 Y9.799 Z1.500
G1 X7.281 Y9.868 Z1.500
G2 X7.614 Y9.810 Z1.500 I0.135 J-0.211 K0.000
G2 X7.497 Y9.523 Z1.500 I-0.189 J-0.091 K0.000
G1 X3.725 Y6.082 Z1.500
G3 X3.718 Y5.646 Z1.500 I0.202 J-0.222 K0.000
G1 X7.904 Y1.566 Z1.500
G2 X8.001 Y1.358 Z1.500 I-0.060 J-0.155 K0.000
G0 Z8.001
G0 X2.115 Y1.412 Z8.001
G0 X2.115 Y1.412 Z6.001
G1 X2.115 Y1.412 Z1.500
G3 X2.592 Y1.586 Z1.500 I0.222 J0.132 K0.000
G1 X2.592 Y1.889 Z1.500
G1 X2.115 Y1.412 Z1.500
G2 X2.055 Y1.590 Z1.500 I0.210 J0.169 K0.000
G1 X2.055 Y2.201 Z1.500
G1 X2.592 Y2.738 Z1.500
G1 X2.592 Y3.586 Z1.500
G1 X2.055 Y3.049 Z1.500
G1 X2.055 Y3.898 Z1.500
G1 X2.592 Y4.435 Z1.500
G1 X2.592 Y5.283 Z1.500
G1 X2.055 Y4.746 Z1.500
G0 Z8.001
G0 Z8.001
(Finish operation: Pocket_Shape)
(Begin postamble)
M5
G17 G90
M2
