(Exported by FreeCAD)
(Post Processor: grbl_post)
(Output Time:2022-02-19 18:43:22.426694)
(Begin preamble)
G17 G90
G21
(Begin operation: Fixture)
(Path: Fixture)
G54
(Finish operation: Fixture)
(Begin operation: 3mm Endmill001)
(Path: 3mm Endmill001)
(3mm Endmill001)
(Begin toolchange)
( M6 T1.0 )
M3 S0.0
(Finish operation: 3mm Endmill001)
(Begin operation: Pocket_Shape)
(Path: Pocket_Shape)
(Pocket_Shape)
G0 Z5.000
G0 X4.029 Y3.029
G0 Z3.000
G1 X4.029 Y3.029 Z-0.550 F48.000
G3 X3.982 Y3.036 Z-0.550 I-0.029 J-0.029 K0.000 F48.000
G3 X4.018 Y2.964 Z-0.550 I0.018 J-0.036 K0.000 F48.000
G3 X4.029 Y3.029 Z-0.550 I-0.018 J0.036 K0.000 F48.000
G1 X4.029 Y3.029 Z-1.100 F48.000
G3 X3.982 Y3.036 Z-1.100 I-0.029 J-0.029 K0.000 F48.000
G3 X4.018 Y2.964 Z-1.100 I0.018 J-0.036 K0.000 F48.000
G3 X4.029 Y3.029 Z-1.100 I-0.018 J0.036 K0.000 F48.000
G1 X4.029 Y3.029 Z-1.650 F48.000
G3 X3.982 Y3.036 Z-1.650 I-0.029 J-0.029 K0.000 F48.000
G3 X4.018 Y2.964 Z-1.650 I0.018 J-0.036 K0.000 F48.000
G3 X4.029 Y3.029 Z-1.650 I-0.018 J0.036 K0.000 F48.000
G1 X4.029 Y3.029 Z-2.200 F48.000
G3 X3.982 Y3.036 Z-2.200 I-0.029 J-0.029 K0.000 F48.000
G3 X4.018 Y2.964 Z-2.200 I0.018 J-0.036 K0.000 F48.000
G3 X4.029 Y3.029 Z-2.200 I-0.018 J0.036 K0.000 F48.000
G0 Z5.000
G0 Z5.000
G0 X4.029 Y3.029
G0 X12.500 Y9.500
G0 X12.500 Y9.500 Z3.000
G1 X12.500 Y9.500 Z-0.550 F48.000
G1 X25.500 Y9.500 Z-0.550 F48.000
G1 X25.500 Y14.500 Z-0.550 F48.000
G1 X12.500 Y14.500 Z-0.550 F48.000
G1 X12.500 Y9.500 Z-0.550 F48.000
G0 Z5.000
G0 X14.900 Y11.900 Z5.000
G0 X14.900 Y11.900 Z3.000
G1 X14.900 Y11.900 Z-0.550 F48.000
G1 X23.100 Y11.900 Z-0.550 F48.000
G1 X23.100 Y12.100 Z-0.550 F48.000
G1 X14.900 Y12.100 Z-0.550 F48.000
G1 X14.900 Y11.900 Z-0.550 F48.000
G1 X14.900 Y11.900 Z-1.100 F48.000
G1 X23.100 Y11.900 Z-1.100 F48.000
G1 X23.100 Y12.100 Z-1.100 F48.000
G1 X14.900 Y12.100 Z-1.100 F48.000
G1 X14.900 Y11.900 Z-1.100 F48.000
G0 Z5.000
G0 X12.500 Z5.000
G0 X12.500 Z3.000
G1 X12.500 Y11.900 Z-1.100 F48.000
G1 X12.500 Y9.500 Z-1.100 F48.000
G1 X25.500 Y9.500 Z-1.100 F48.000
G1 X25.500 Y14.500 Z-1.100 F48.000
G1 X12.500 Y14.500 Z-1.100 F48.000
G1 X12.500 Y11.900 Z-1.100 F48.000
G1 X12.500 Y11.900 Z-1.650 F48.000
G1 X12.500 Y9.500 Z-1.650 F48.000
G1 X25.500 Y9.500 Z-1.650 F48.000
G1 X25.500 Y14.500 Z-1.650 F48.000
G1 X12.500 Y14.500 Z-1.650 F48.000
G1 X12.500 Y11.900 Z-1.650 F48.000
G0 Z5.000
G0 X14.900 Z5.000
G0 X14.900 Z3.000
G1 X14.900 Y11.900 Z-1.650 F48.000
G1 X23.100 Y11.900 Z-1.650 F48.000
G1 X23.100 Y12.100 Z-1.650 F48.000
G1 X14.900 Y12.100 Z-1.650 F48.000
G1 X14.900 Y11.900 Z-1.650 F48.000
G1 X14.900 Y11.900 Z-2.200 F48.000
G1 X23.100 Y11.900 Z-2.200 F48.000
G1 X23.100 Y12.100 Z-2.200 F48.000
G1 X14.900 Y12.100 Z-2.200 F48.000
G1 X14.900 Y11.900 Z-2.200 F48.000
G0 Z5.000
G0 X12.500 Z5.000
G0 X12.500 Z3.000
G1 X12.500 Y11.900 Z-2.200 F48.000
G1 X12.500 Y9.500 Z-2.200 F48.000
G1 X25.500 Y9.500 Z-2.200 F48.000
G1 X25.500 Y14.500 Z-2.200 F48.000
G1 X12.500 Y14.500 Z-2.200 F48.000
G1 X12.500 Y11.900 Z-2.200 F48.000
G0 Z5.000
G0 Z5.000
G0 X12.500 Y11.900
G0 X33.963 Y3.015
G0 X33.963 Y3.015 Z3.000
G1 X33.963 Y3.015 Z-0.550 F48.000
G3 X34.018 Y2.964 Z-0.550 I0.037 J-0.015 K0.000 F48.000
G3 X33.982 Y3.036 Z-0.550 I-0.018 J0.036 K0.000 F48.000
G3 X33.963 Y3.015 Z-0.550 I0.018 J-0.036 K0.000 F48.000
G1 X33.963 Y3.015 Z-1.100 F48.000
G3 X34.018 Y2.964 Z-1.100 I0.037 J-0.015 K0.000 F48.000
G3 X33.982 Y3.036 Z-1.100 I-0.018 J0.036 K0.000 F48.000
G3 X33.963 Y3.015 Z-1.100 I0.018 J-0.036 K0.000 F48.000
G1 X33.963 Y3.015 Z-1.650 F48.000
G3 X34.018 Y2.964 Z-1.650 I0.037 J-0.015 K0.000 F48.000
G3 X33.982 Y3.036 Z-1.650 I-0.018 J0.036 K0.000 F48.000
G3 X33.963 Y3.015 Z-1.650 I0.018 J-0.036 K0.000 F48.000
G1 X33.963 Y3.015 Z-2.200 F48.000
G3 X34.018 Y2.964 Z-2.200 I0.037 J-0.015 K0.000 F48.000
G3 X33.982 Y3.036 Z-2.200 I-0.018 J0.036 K0.000 F48.000
G3 X33.963 Y3.015 Z-2.200 I0.018 J-0.036 K0.000 F48.000
G0 Z5.000
G0 Z5.000
(Finish operation: Pocket_Shape)
(Begin operation: Profile)
(Path: Profile)
(Profile)
(Compensated Tool Path. Diameter: 3.0)
G0 Z5.000
G0 X31.482 Y69.234
G0 Z3.000
G1 X31.482 Y69.234 Z-0.550 F48.000
G2 X31.489 Y69.180 Z-0.550 I-1.482 J-0.234 K0.000 F48.000
G1 X39.489 Y3.180 Z-0.550 F48.000
G2 X35.118 Y-1.495 Z-0.550 I-4.486 J-0.187 K0.000 F48.000
G1 X3.000 Y-1.500 Z-0.550 F48.000
G2 X-1.489 Y3.181 Z-0.550 I0.002 J4.495 K0.000 F48.000
G1 X6.511 Y69.180 Z-0.550 F48.000
G2 X8.000 Y70.500 Z-0.550 I1.489 J-0.180 K0.000 F48.000
G1 X30.000 Y70.500 Z-0.550 F48.000
G2 X31.482 Y69.234 Z-0.550 I0.000 J-1.500 K0.000 F48.000
G1 X31.482 Y69.234 Z-1.100 F48.000
G2 X31.489 Y69.180 Z-1.100 I-1.482 J-0.234 K0.000 F48.000
G1 X39.489 Y3.180 Z-1.100 F48.000
G2 X35.118 Y-1.495 Z-1.100 I-4.486 J-0.187 K0.000 F48.000
G1 X3.000 Y-1.500 Z-1.100 F48.000
G2 X-1.489 Y3.181 Z-1.100 I0.002 J4.495 K0.000 F48.000
G1 X6.511 Y69.180 Z-1.100 F48.000
G2 X8.000 Y70.500 Z-1.100 I1.489 J-0.180 K0.000 F48.000
G1 X30.000 Y70.500 Z-1.100 F48.000
G2 X31.482 Y69.234 Z-1.100 I0.000 J-1.500 K0.000 F48.000
G1 X31.482 Y69.234 Z-1.650 F48.000
G2 X31.489 Y69.180 Z-1.650 I-1.482 J-0.234 K0.000 F48.000
G1 X39.489 Y3.180 Z-1.650 F48.000
G2 X35.118 Y-1.495 Z-1.650 I-4.486 J-0.187 K0.000 F48.000
G1 X3.000 Y-1.500 Z-1.650 F48.000
G2 X-1.489 Y3.181 Z-1.650 I0.002 J4.495 K0.000 F48.000
G1 X6.511 Y69.180 Z-1.650 F48.000
G2 X8.000 Y70.500 Z-1.650 I1.489 J-0.180 K0.000 F48.000
G1 X30.000 Y70.500 Z-1.650 F48.000
G2 X31.482 Y69.234 Z-1.650 I0.000 J-1.500 K0.000 F48.000
G1 X31.482 Y69.234 Z-2.200 F48.000
G2 X31.489 Y69.180 Z-2.200 I-1.482 J-0.234 K0.000 F48.000
G1 X39.489 Y3.180 Z-2.200 F48.000
G2 X35.118 Y-1.495 Z-2.200 I-4.486 J-0.187 K0.000 F48.000
G1 X3.000 Y-1.500 Z-2.200 F48.000
G2 X-1.489 Y3.181 Z-2.200 I0.002 J4.495 K0.000 F48.000
G1 X6.511 Y69.180 Z-2.200 F48.000
G2 X8.000 Y70.500 Z-2.200 I1.489 J-0.180 K0.000 F48.000
G1 X30.000 Y70.500 Z-2.200 F48.000
G2 X31.482 Y69.234 Z-2.200 I0.000 J-1.500 K0.000 F48.000
G0 Z5.000
G0 Z5.000
(Finish operation: Profile)
(Begin postamble)
M5
G17 G90
M2
