(Exported by FreeCAD)
(Post Processor: grbl_post)
(Output Time:2022-02-13 16:38:59.112787)
(Begin preamble)
G17 G90
G21
(Begin operation: Fixture)
(Path: Fixture)
G54
(Finish operation: Fixture)
(Begin operation: 3mm Endmill001)
(Path: 3mm Endmill001)
(3mm Endmill001)
(Begin toolchange)
( M6 T1.0 )
M3 S0.0
(Finish operation: 3mm Endmill001)
(Begin operation: Profile)
(Path: Profile)
(Profile)
(Compensated Tool Path. Diameter: 3.0)
G0 Z5.000
G0 X32.662 Y71.702
G0 Z3.000
G1 X32.662 Y71.702 Z-0.500 F48.000
G2 X32.995 Y70.118 Z-0.500 I-4.167 J-1.705 K0.000 F48.000
G1 X33.000 Y11.500 Z-0.500 F48.000
G1 X35.000 Y11.500 Z-0.500 F48.000
G2 X39.495 Y7.118 Z-0.500 I-0.005 J-4.502 K0.000 F48.000
G1 X39.500 Y3.000 Z-0.500 F48.000
G2 X35.118 Y-1.495 Z-0.500 I-4.502 J0.005 K0.000 F48.000
G1 X3.000 Y-1.500 Z-0.500 F48.000
G2 X-1.495 Y2.882 Z-0.500 I0.005 J4.502 K0.000 F48.000
G1 X-1.500 Y7.000 Z-0.500 F48.000
G2 X2.882 Y11.495 Z-0.500 I4.502 J-0.005 K0.000 F48.000
G1 X5.000 Y11.498 Z-0.500 F48.000
G1 X5.000 Y70.000 Z-0.500 F48.000
G2 X9.382 Y74.495 Z-0.500 I4.502 J-0.005 K0.000 F48.000
G1 X28.500 Y74.500 Z-0.500 F48.000
G2 X32.662 Y71.702 Z-0.500 I-0.005 J-4.502 K0.000 F48.000
G1 X32.662 Y71.702 Z-1.000 F48.000
G2 X32.995 Y70.118 Z-1.000 I-4.167 J-1.705 K0.000 F48.000
G1 X33.000 Y11.500 Z-1.000 F48.000
G1 X35.000 Y11.500 Z-1.000 F48.000
G2 X39.495 Y7.118 Z-1.000 I-0.005 J-4.502 K0.000 F48.000
G1 X39.500 Y3.000 Z-1.000 F48.000
G2 X35.118 Y-1.495 Z-1.000 I-4.502 J0.005 K0.000 F48.000
G1 X3.000 Y-1.500 Z-1.000 F48.000
G2 X-1.495 Y2.882 Z-1.000 I0.005 J4.502 K0.000 F48.000
G1 X-1.500 Y7.000 Z-1.000 F48.000
G2 X2.882 Y11.495 Z-1.000 I4.502 J-0.005 K0.000 F48.000
G1 X5.000 Y11.498 Z-1.000 F48.000
G1 X5.000 Y70.000 Z-1.000 F48.000
G2 X9.382 Y74.495 Z-1.000 I4.502 J-0.005 K0.000 F48.000
G1 X28.500 Y74.500 Z-1.000 F48.000
G2 X32.662 Y71.702 Z-1.000 I-0.005 J-4.502 K0.000 F48.000
G1 X32.662 Y71.702 Z-1.500 F48.000
G2 X32.995 Y70.118 Z-1.500 I-4.167 J-1.705 K0.000 F48.000
G1 X33.000 Y11.500 Z-1.500 F48.000
G1 X35.000 Y11.500 Z-1.500 F48.000
G2 X39.495 Y7.118 Z-1.500 I-0.005 J-4.502 K0.000 F48.000
G1 X39.500 Y3.000 Z-1.500 F48.000
G2 X35.118 Y-1.495 Z-1.500 I-4.502 J0.005 K0.000 F48.000
G1 X3.000 Y-1.500 Z-1.500 F48.000
G2 X-1.495 Y2.882 Z-1.500 I0.005 J4.502 K0.000 F48.000
G1 X-1.500 Y7.000 Z-1.500 F48.000
G2 X2.882 Y11.495 Z-1.500 I4.502 J-0.005 K0.000 F48.000
G1 X5.000 Y11.498 Z-1.500 F48.000
G1 X5.000 Y70.000 Z-1.500 F48.000
G2 X9.382 Y74.495 Z-1.500 I4.502 J-0.005 K0.000 F48.000
G1 X28.500 Y74.500 Z-1.500 F48.000
G2 X32.662 Y71.702 Z-1.500 I-0.005 J-4.502 K0.000 F48.000
G1 X32.662 Y71.702 Z-2.000 F48.000
G2 X32.995 Y70.118 Z-2.000 I-4.167 J-1.705 K0.000 F48.000
G1 X33.000 Y11.500 Z-2.000 F48.000
G1 X35.000 Y11.500 Z-2.000 F48.000
G2 X39.495 Y7.118 Z-2.000 I-0.005 J-4.502 K0.000 F48.000
G1 X39.500 Y3.000 Z-2.000 F48.000
G2 X35.118 Y-1.495 Z-2.000 I-4.502 J0.005 K0.000 F48.000
G1 X3.000 Y-1.500 Z-2.000 F48.000
G2 X-1.495 Y2.882 Z-2.000 I0.005 J4.502 K0.000 F48.000
G1 X-1.500 Y7.000 Z-2.000 F48.000
G2 X2.882 Y11.495 Z-2.000 I4.502 J-0.005 K0.000 F48.000
G1 X5.000 Y11.498 Z-2.000 F48.000
G1 X5.000 Y70.000 Z-2.000 F48.000
G2 X9.382 Y74.495 Z-2.000 I4.502 J-0.005 K0.000 F48.000
G1 X28.500 Y74.500 Z-2.000 F48.000
G2 X32.662 Y71.702 Z-2.000 I-0.005 J-4.502 K0.000 F48.000
G0 Z5.000
G0 Z5.000
(Finish operation: Profile)
(Begin postamble)
M5
G17 G90
M2
