(Exported by FreeCAD)
(Post Processor: grbl_post)
(Output Time:2021-11-21 19:19:46.316416)
(Begin preamble)
G17 G90
G21
(Begin operation: Fixture)
(Path: Fixture)
G54
(Finish operation: Fixture)
(Begin operation: 0.6mm Ball End001)
(Path: 0.6mm Ball End001)
(0.6mm Ball End001)
(Begin toolchange)
( M6 T1.0 )
M3 S0.0
(Finish operation: 0.6mm Ball End001)
(Begin operation: Pocket_3D)
(Path: Pocket_3D)
(Pocket_3D)
G0 Z5.000
G0 X16.199 Y4.488
G0 Z3.000
G1 X16.199 Y4.488 Z-0.300 F18.000
G3 X15.513 Y4.619 Z-0.300 I-0.622 J-1.397 K0.000 F42.000
G1 X14.753 Y4.619 Z-0.300 F42.000
G2 X14.453 Y4.919 Z-0.300 I-0.000 J0.300 K0.000 F42.000
G3 X14.429 Y6.045 Z-0.300 I-4.976 J0.459 K0.000 F42.000
G3 X14.401 Y6.165 Z-0.300 I-0.895 J-0.147 K0.000 F42.000
G1 X14.253 Y6.186 Z-0.300 F42.000
G1 X12.990 Y6.186 Z-0.300 F42.000
G3 X12.802 Y6.140 Z-0.300 I-0.039 J-0.246 K0.000 F42.000
G3 X12.806 Y5.832 Z-0.300 I0.168 J-0.152 K0.000 F42.000
G3 X12.986 Y5.789 Z-0.300 I0.140 J0.186 K0.000 F42.000
G1 X13.617 Y5.789 Z-0.300 F42.000
G2 X13.917 Y5.489 Z-0.300 I0.000 J-0.300 K0.000 F42.000
G3 X13.921 Y2.195 Z-0.300 I57.764 J-1.591 K0.000 F42.000
G3 X14.015 Y1.880 Z-0.300 I0.655 J0.024 K0.000 F42.000
G3 X14.416 Y1.800 Z-0.300 I0.433 J1.128 K0.000 F42.000
G3 X15.888 Y1.848 Z-0.300 I0.499 J7.299 K0.000 F42.000
G1 X16.118 Y1.924 Z-0.300 F42.000
G3 X16.771 Y2.461 Z-0.300 I-0.485 J1.254 K0.000 F42.000
G3 X16.633 Y4.197 Z-0.300 I-1.470 J0.757 K0.000 F42.000
G3 X16.199 Y4.488 Z-0.300 I-1.056 J-1.107 K0.000 F42.000
G0 Z5.000
G0 X16.310 Y4.091 Z5.000
G0 X16.310 Y4.091 Z3.000
G1 X16.310 Y4.091 Z-0.300 F18.000
G2 X16.458 Y2.530 Z-0.300 I-1.126 J-0.894 K0.000 F42.000
G3 X16.314 Y4.088 Z-0.300 I-1.093 J0.685 K0.000 F42.000
G1 X16.310 Y4.091 Z-0.300 F42.000
G0 Z5.000
G0 X16.092 Y3.895 Z5.000
G0 X16.092 Y3.895 Z3.000
G1 X16.092 Y3.895 Z-0.300 F18.000
G3 X15.647 Y4.171 Z-0.300 I-0.689 J-0.617 K0.000 F42.000
G3 X14.753 Y4.222 Z-0.300 I-0.644 J-3.422 K0.000 F42.000
G3 X14.453 Y3.922 Z-0.300 I-0.000 J-0.300 K0.000 F42.000
G1 X14.453 Y2.497 Z-0.300 F42.000
G3 X14.753 Y2.197 Z-0.300 I0.300 J-0.000 K0.000 F42.000
G3 X15.588 Y2.234 Z-0.300 I0.246 J3.868 K0.000 F42.000
G3 X16.322 Y3.172 Z-0.300 I-0.171 J0.889 K0.000 F42.000
G3 X16.092 Y3.895 Z-0.300 I-0.920 J0.106 K0.000 F42.000
G0 Z5.000
G0 X14.430 Y4.423 Z5.000
G0 X14.430 Y4.423 Z3.000
G1 X14.430 Y4.423 Z-0.300 F18.000
G2 X14.217 Y4.677 Z-0.300 I0.112 J0.310 K0.000 F42.000
G1 X14.217 Y4.177 Z-0.300 F42.000
G2 X14.430 Y4.423 Z-0.300 I0.444 J-0.169 K0.000 F42.000
G0 Z5.000
G0 X14.153 Y5.746 Z5.000
G0 X14.153 Y5.746 Z3.000
G1 X14.153 Y5.746 Z-0.300 F18.000
G3 X14.147 Y5.886 Z-0.300 I-1.052 J0.031 K0.000 F42.000
G1 X14.056 Y5.886 Z-0.300 F42.000
G2 X14.153 Y5.746 Z-0.300 I-0.143 J-0.203 K0.000 F42.000
G0 Z5.000
G0 X14.219 Y2.248 Z5.000
G0 X14.219 Y2.248 Z3.000
G1 X14.219 Y2.248 Z-0.300 F18.000
G3 X14.295 Y2.112 Z-0.300 I0.110 J-0.028 K0.000 F42.000
G1 X14.305 Y2.111 Z-0.300 F42.000
G2 X14.219 Y2.248 Z-0.300 I0.104 J0.161 K0.000 F42.000
G1 X14.219 Y2.248 Z-0.600 F18.000
G3 X14.295 Y2.112 Z-0.600 I0.110 J-0.028 K0.000 F42.000
G1 X14.305 Y2.111 Z-0.600 F42.000
G2 X14.219 Y2.248 Z-0.600 I0.104 J0.161 K0.000 F42.000
G0 Z5.000
G0 X14.481 Y2.370 Z5.000
G0 X14.481 Y2.370 Z3.000
G1 X14.481 Y2.370 Z-0.600 F18.000
G3 X14.753 Y2.197 Z-0.600 I0.272 J0.127 K0.000 F42.000
G3 X15.588 Y2.234 Z-0.600 I0.246 J3.868 K0.000 F42.000
G3 X16.322 Y3.172 Z-0.600 I-0.171 J0.889 K0.000 F42.000
G3 X15.647 Y4.171 Z-0.600 I-0.920 J0.106 K0.000 F42.000
G3 X14.753 Y4.222 Z-0.600 I-0.644 J-3.422 K0.000 F42.000
G3 X14.453 Y3.922 Z-0.600 I-0.000 J-0.300 K0.000 F42.000
G1 X14.453 Y2.497 Z-0.600 F42.000
G3 X14.481 Y2.370 Z-0.600 I0.300 J-0.000 K0.000 F42.000
G0 Z5.000
G0 X13.916 Y2.355 Z5.000
G0 X13.916 Y2.355 Z3.000
G1 X13.916 Y2.355 Z-0.600 F18.000
G3 X13.921 Y2.195 Z-0.600 I57.765 J1.542 K0.000 F42.000
G3 X14.015 Y1.880 Z-0.600 I0.655 J0.024 K0.000 F42.000
G3 X14.416 Y1.800 Z-0.600 I0.433 J1.128 K0.000 F42.000
G3 X15.888 Y1.848 Z-0.600 I0.499 J7.299 K0.000 F42.000
G1 X16.118 Y1.924 Z-0.600 F42.000
G3 X16.771 Y2.461 Z-0.600 I-0.485 J1.254 K0.000 F42.000
G3 X16.633 Y4.197 Z-0.600 I-1.470 J0.757 K0.000 F42.000
G3 X15.513 Y4.619 Z-0.600 I-1.056 J-1.107 K0.000 F42.000
G1 X14.753 Y4.619 Z-0.600 F42.000
G2 X14.453 Y4.919 Z-0.600 I-0.000 J0.300 K0.000 F42.000
G3 X14.429 Y6.045 Z-0.600 I-4.976 J0.459 K0.000 F42.000
G3 X14.401 Y6.165 Z-0.600 I-0.895 J-0.147 K0.000 F42.000
G1 X14.253 Y6.186 Z-0.600 F42.000
G1 X12.990 Y6.186 Z-0.600 F42.000
G3 X12.802 Y6.140 Z-0.600 I-0.039 J-0.246 K0.000 F42.000
G3 X12.806 Y5.832 Z-0.600 I0.168 J-0.152 K0.000 F42.000
G3 X12.986 Y5.789 Z-0.600 I0.140 J0.186 K0.000 F42.000
G1 X13.617 Y5.789 Z-0.600 F42.000
G2 X13.917 Y5.489 Z-0.600 I0.000 J-0.300 K0.000 F42.000
G3 X13.916 Y2.355 Z-0.600 I57.764 J-1.591 K0.000 F42.000
G0 Z5.000
G0 X14.217 Y4.177 Z5.000
G0 X14.217 Y4.177 Z3.000
G1 X14.217 Y4.177 Z-0.600 F18.000
G2 X14.430 Y4.423 Z-0.600 I0.444 J-0.169 K0.000 F42.000
G2 X14.217 Y4.677 Z-0.600 I0.112 J0.310 K0.000 F42.000
G1 X14.217 Y4.177 Z-0.600 F42.000
G0 Z5.000
G0 X14.153 Y5.746 Z5.000
G0 X14.153 Y5.746 Z3.000
G1 X14.153 Y5.746 Z-0.600 F18.000
G3 X14.147 Y5.886 Z-0.600 I-1.052 J0.031 K0.000 F42.000
G1 X14.056 Y5.886 Z-0.600 F42.000
G2 X14.153 Y5.746 Z-0.600 I-0.143 J-0.203 K0.000 F42.000
G0 Z5.000
G0 X16.310 Y4.091 Z5.000
G0 X16.310 Y4.091 Z3.000
G1 X16.310 Y4.091 Z-0.600 F18.000
G2 X16.458 Y2.530 Z-0.600 I-1.126 J-0.894 K0.000 F42.000
G3 X16.314 Y4.088 Z-0.600 I-1.093 J0.685 K0.000 F42.000
G1 X16.310 Y4.091 Z-0.600 F42.000
G1 X16.310 Y4.091 Z-0.900 F18.000
G2 X16.458 Y2.530 Z-0.900 I-1.126 J-0.894 K0.000 F42.000
G3 X16.314 Y4.088 Z-0.900 I-1.093 J0.685 K0.000 F42.000
G1 X16.310 Y4.091 Z-0.900 F42.000
G0 Z5.000
G0 X16.481 Y4.324 Z5.000
G0 X16.481 Y4.324 Z3.000
G1 X16.481 Y4.324 Z-0.900 F18.000
G3 X15.513 Y4.619 Z-0.900 I-0.904 J-1.234 K0.000 F42.000
G1 X14.753 Y4.619 Z-0.900 F42.000
G2 X14.453 Y4.919 Z-0.900 I-0.000 J0.300 K0.000 F42.000
G3 X14.429 Y6.045 Z-0.900 I-4.976 J0.459 K0.000 F42.000
G3 X14.401 Y6.165 Z-0.900 I-0.895 J-0.147 K0.000 F42.000
G1 X14.253 Y6.186 Z-0.900 F42.000
G1 X12.990 Y6.186 Z-0.900 F42.000
G3 X12.802 Y6.140 Z-0.900 I-0.039 J-0.246 K0.000 F42.000
G3 X12.806 Y5.832 Z-0.900 I0.168 J-0.152 K0.000 F42.000
G3 X12.986 Y5.789 Z-0.900 I0.140 J0.186 K0.000 F42.000
G1 X13.617 Y5.789 Z-0.900 F42.000
G2 X13.917 Y5.489 Z-0.900 I0.000 J-0.300 K0.000 F42.000
G3 X13.921 Y2.195 Z-0.900 I57.764 J-1.591 K0.000 F42.000
G3 X14.015 Y1.880 Z-0.900 I0.655 J0.024 K0.000 F42.000
G3 X14.416 Y1.800 Z-0.900 I0.433 J1.128 K0.000 F42.000
G3 X15.888 Y1.848 Z-0.900 I0.499 J7.299 K0.000 F42.000
G1 X16.118 Y1.924 Z-0.900 F42.000
G3 X16.771 Y2.461 Z-0.900 I-0.485 J1.254 K0.000 F42.000
G3 X16.633 Y4.197 Z-0.900 I-1.470 J0.757 K0.000 F42.000
G3 X16.481 Y4.324 Z-0.900 I-1.056 J-1.107 K0.000 F42.000
G0 Z5.000
G0 X16.067 Y3.922 Z5.000
G0 X16.067 Y3.922 Z3.000
G1 X16.067 Y3.922 Z-0.900 F18.000
G3 X15.647 Y4.171 Z-0.900 I-0.664 J-0.644 K0.000 F42.000
G3 X14.753 Y4.222 Z-0.900 I-0.644 J-3.422 K0.000 F42.000
G3 X14.453 Y3.922 Z-0.900 I-0.000 J-0.300 K0.000 F42.000
G1 X14.453 Y2.497 Z-0.900 F42.000
G3 X14.753 Y2.197 Z-0.900 I0.300 J-0.000 K0.000 F42.000
G3 X15.588 Y2.234 Z-0.900 I0.246 J3.868 K0.000 F42.000
G3 X16.322 Y3.172 Z-0.900 I-0.171 J0.889 K0.000 F42.000
G3 X16.067 Y3.922 Z-0.900 I-0.920 J0.106 K0.000 F42.000
G0 Z5.000
G0 X14.430 Y4.423 Z5.000
G0 X14.430 Y4.423 Z3.000
G1 X14.430 Y4.423 Z-0.900 F18.000
G2 X14.217 Y4.677 Z-0.900 I0.112 J0.310 K0.000 F42.000
G1 X14.217 Y4.177 Z-0.900 F42.000
G2 X14.430 Y4.423 Z-0.900 I0.444 J-0.169 K0.000 F42.000
G0 Z5.000
G0 X14.153 Y5.746 Z5.000
G0 X14.153 Y5.746 Z3.000
G1 X14.153 Y5.746 Z-0.900 F18.000
G3 X14.147 Y5.886 Z-0.900 I-1.052 J0.031 K0.000 F42.000
G1 X14.056 Y5.886 Z-0.900 F42.000
G2 X14.153 Y5.746 Z-0.900 I-0.143 J-0.203 K0.000 F42.000
G0 Z5.000
G0 X14.219 Y2.248 Z5.000
G0 X14.219 Y2.248 Z3.000
G1 X14.219 Y2.248 Z-0.900 F18.000
G3 X14.295 Y2.112 Z-0.900 I0.110 J-0.028 K0.000 F42.000
G1 X14.305 Y2.111 Z-0.900 F42.000
G2 X14.219 Y2.248 Z-0.900 I0.104 J0.161 K0.000 F42.000
G1 X14.219 Y2.248 Z-1.200 F18.000
G3 X14.250 Y2.117 Z-1.200 I0.195 J-0.024 K0.000 F42.000
G3 X14.219 Y2.248 Z-1.200 I-1.262 J-0.226 K0.000 F42.000
G0 Z5.000
G0 X14.474 Y2.374 Z5.000
G0 X14.474 Y2.374 Z3.000
G1 X14.474 Y2.374 Z-1.200 F18.000
G2 X14.453 Y2.497 Z-1.200 I0.200 J0.099 K0.000 F42.000
G1 X14.453 Y3.922 Z-1.200 F42.000
G2 X14.550 Y4.132 Z-1.200 I0.249 J0.012 K0.000 F42.000
G1 X14.550 Y4.709 Z-1.200 F42.000
G2 X14.453 Y4.919 Z-1.200 I0.125 J0.185 K0.000 F42.000
G3 X14.429 Y6.045 Z-1.200 I-4.976 J0.459 K0.000 F42.000
G3 X14.401 Y6.165 Z-1.200 I-0.895 J-0.147 K0.000 F42.000
G1 X14.253 Y6.186 Z-1.200 F42.000
G1 X12.990 Y6.186 Z-1.200 F42.000
G3 X12.802 Y6.140 Z-1.200 I-0.039 J-0.246 K0.000 F42.000
G3 X12.806 Y5.832 Z-1.200 I0.168 J-0.152 K0.000 F42.000
G3 X12.986 Y5.789 Z-1.200 I0.140 J0.186 K0.000 F42.000
G1 X13.617 Y5.789 Z-1.200 F42.000
G2 X13.917 Y5.489 Z-1.200 I0.000 J-0.300 K0.000 F42.000
G3 X13.921 Y2.195 Z-1.200 I57.764 J-1.591 K0.000 F42.000
G3 X14.015 Y1.880 Z-1.200 I0.655 J0.024 K0.000 F42.000
G3 X14.550 Y1.800 Z-1.200 I0.453 J1.203 K0.000 F42.000
G1 X14.550 Y2.287 Z-1.200 F42.000
G2 X14.474 Y2.374 Z-1.200 I0.125 J0.185 K0.000 F42.000
G0 Z5.000
G0 X15.950 Z5.000
G0 X15.950 Z3.000
G1 X15.950 Y2.374 Z-1.200 F18.000
G1 X15.950 Y1.868 Z-1.200 F42.000
G3 X16.832 Y2.591 Z-1.200 I-0.299 J1.263 K0.000 F42.000
G3 X16.684 Y4.134 Z-1.200 I-1.570 J0.629 K0.000 F42.000
G3 X15.950 Y4.575 Z-1.200 I-0.930 J-0.717 K0.000 F42.000
G1 X15.950 Y4.015 Z-1.200 F42.000
G2 X16.322 Y3.172 Z-1.200 I-0.554 J-0.748 K0.000 F42.000
G2 X15.950 Y2.394 Z-1.200 I-0.926 J-0.035 K0.000 F42.000
G1 X15.950 Y2.374 Z-1.200 F42.000
G0 Z5.000
G0 X16.458 Y2.530 Z5.000
G0 X16.458 Y2.530 Z3.000
G1 X16.458 Y2.530 Z-1.200 F18.000
G3 X16.314 Y4.088 Z-1.200 I-1.093 J0.685 K0.000 F42.000
G1 X16.310 Y4.091 Z-1.200 F42.000
G2 X16.458 Y2.530 Z-1.200 I-1.126 J-0.894 K0.000 F42.000
G0 Z5.000
G0 X14.217 Y4.177 Z5.000
G0 X14.217 Y4.177 Z3.000
G1 X14.217 Y4.177 Z-1.200 F18.000
G1 X14.250 Y4.233 Z-1.200 F42.000
G1 X14.250 Y4.598 Z-1.200 F42.000
G2 X14.217 Y4.677 Z-1.200 I0.068 J0.074 K0.000 F42.000
G1 X14.217 Y4.177 Z-1.200 F42.000
G0 Z5.000
G0 X14.153 Y5.746 Z5.000
G0 X14.153 Y5.746 Z3.000
G1 X14.153 Y5.746 Z-1.200 F18.000
G3 X14.147 Y5.886 Z-1.200 I-1.052 J0.031 K0.000 F42.000
G1 X14.056 Y5.886 Z-1.200 F42.000
G2 X14.153 Y5.746 Z-1.200 I-0.143 J-0.203 K0.000 F42.000
G0 Z5.000
G0 X14.150 Y5.753 Z5.000
G0 X14.150 Y5.753 Z3.000
G1 X14.150 Y5.753 Z-1.500 F18.000
G3 X14.147 Y5.886 Z-1.500 I-0.738 J0.052 K0.000 F42.000
G1 X14.056 Y5.886 Z-1.500 F42.000
G2 X14.150 Y5.753 Z-1.500 I-0.135 J-0.196 K0.000 F42.000
G0 Z5.000
G0 X13.886 Y5.622 Z5.000
G0 X13.886 Y5.622 Z3.000
G1 X13.886 Y5.622 Z-1.500 F18.000
G2 X13.917 Y5.489 Z-1.500 I-0.269 J-0.133 K0.000 F42.000
G3 X13.921 Y2.195 Z-1.500 I57.766 J-1.591 K0.000 F42.000
G3 X14.017 Y1.879 Z-1.500 I0.646 J0.024 K0.000 F42.000
G3 X14.450 Y1.800 Z-1.500 I0.428 J1.115 K0.000 F42.000
G1 X14.450 Y5.870 Z-1.500 F42.000
G3 X14.401 Y6.165 Z-1.500 I-1.365 J-0.076 K0.000 F42.000
G1 X14.253 Y6.186 Z-1.500 F42.000
G1 X12.991 Y6.186 Z-1.500 F42.000
G3 X12.802 Y6.140 Z-1.500 I-0.041 J-0.246 K0.000 F42.000
G3 X12.806 Y5.832 Z-1.500 I0.169 J-0.152 K0.000 F42.000
G3 X12.986 Y5.789 Z-1.500 I0.140 J0.186 K0.000 F42.000
G1 X13.617 Y5.789 Z-1.500 F42.000
G2 X13.886 Y5.622 Z-1.500 I0.000 J-0.300 K0.000 F42.000
G0 Z5.000
G0 X16.050 Y4.550 Z5.000
G0 X16.050 Y4.550 Z3.000
G1 X16.050 Y4.550 Z-1.500 F18.000
G1 X16.050 Y3.944 Z-1.500 F42.000
G2 X16.050 Y2.482 Z-1.500 I-0.841 J-0.731 K0.000 F42.000
G1 X16.050 Y1.902 Z-1.500 F42.000
G3 X16.947 Y3.212 Z-1.500 I-0.362 J1.210 K0.000 F42.000
G3 X16.328 Y4.440 Z-1.500 I-1.236 J0.147 K0.000 F42.000
G3 X16.050 Y4.550 Z-1.500 I-0.403 J-0.610 K0.000 F42.000
G0 Z5.000
G0 X16.350 Y4.055 Z5.000
G0 X16.350 Y4.055 Z3.000
G1 X16.350 Y4.055 Z-1.500 F18.000
G2 X16.458 Y2.530 Z-1.500 I-1.191 J-0.850 K0.000 F42.000
G3 X16.350 Y4.055 Z-1.500 I-1.103 J0.688 K0.000 F42.000
G0 Z5.000
G0 Z5.000
(Finish operation: Pocket_3D)
(Begin postamble)
M5
G17 G90
M2
