(Exported by FreeCAD)
(Post Processor: grbl_post)
(Output Time:2021-11-21 16:53:19.132455)
(Begin preamble)
G17 G90
G21
(Begin operation: Fixture)
(Path: Fixture)
G54
(Finish operation: Fixture)
(Begin operation: 0.6mm Ball End001)
(Path: 0.6mm Ball End001)
(0.6mm Ball End001)
(Begin toolchange)
( M6 T1.0 )
M3 S0.0
(Finish operation: 0.6mm Ball End001)
(Begin operation: Pocket_Shape)
(Path: Pocket_Shape)
(Pocket_Shape)
G0 Z5.000
G0 X16.863 Y5.991
G0 Z1.000
G1 X16.863 Y5.991 Z-0.500 F18.000
G3 X16.827 Y6.085 Z-0.500 I-0.775 J-0.237 K0.000 F42.000
G3 X16.369 Y5.865 Z-0.500 I-0.204 J-0.161 K0.000 F42.000
G1 X16.360 Y5.694 Z-0.500 F42.000
G1 X16.360 Y2.497 Z-0.500 F42.000
G2 X16.060 Y2.197 Z-0.500 I-0.300 J-0.000 K0.000 F42.000
G1 X14.077 Y2.197 Z-0.500 F42.000
G2 X13.777 Y2.497 Z-0.500 I-0.000 J0.300 K0.000 F42.000
G1 X13.777 Y5.684 Z-0.500 F42.000
G3 X13.709 Y6.085 Z-0.500 I-0.808 J0.069 K0.000 F42.000
G3 X13.282 Y6.008 Z-0.500 I-0.196 J-0.138 K0.000 F42.000
G3 X13.242 Y5.684 Z-0.500 I1.174 J-0.308 K0.000 F42.000
G1 X13.242 Y2.313 Z-0.500 F42.000
G3 X13.464 Y1.840 Z-0.500 I0.430 J-0.087 K0.000 F42.000
G3 X13.737 Y1.800 Z-0.500 I0.233 J0.631 K0.000 F42.000
G1 X16.772 Y1.800 Z-0.500 F42.000
G2 X17.072 Y1.500 Z-0.500 I0.000 J-0.300 K0.000 F42.000
G3 X17.098 Y0.901 Z-0.500 I1.890 J-0.221 K0.000 F42.000
G3 X17.429 Y0.842 Z-0.500 I0.195 J0.138 K0.000 F42.000
G3 X17.483 Y1.050 Z-0.500 I-0.201 J0.162 K0.000 F42.000
G3 X17.476 Y2.049 Z-0.500 I-5.346 J0.462 K0.000 F42.000
G3 X17.362 Y2.177 Z-0.500 I-0.150 J-0.018 K0.000 F42.000
G2 X16.932 Y2.354 Z-0.500 I-0.092 J0.387 K0.000 F42.000
G1 X16.895 Y2.497 Z-0.500 F42.000
G1 X16.895 Y5.684 Z-0.500 F42.000
G3 X16.863 Y5.991 Z-0.500 I-0.808 J0.069 K0.000 F42.000
G0 Z5.000
G0 X16.625 Y2.173 Z5.000
G0 X16.625 Y2.173 Z1.000
G1 X16.625 Y2.173 Z-0.500 F18.000
G1 X16.618 Y2.160 Z-0.500 F42.000
G1 X16.635 Y2.160 Z-0.500 F42.000
G1 X16.625 Y2.173 Z-0.500 F42.000
G1 X16.625 Y2.173 Z-1.000 F18.000
G1 X16.618 Y2.160 Z-1.000 F42.000
G1 X16.635 Y2.160 Z-1.000 F42.000
G1 X16.625 Y2.173 Z-1.000 F42.000
G0 Z5.000
G0 X16.320 Y2.348 Z5.000
G0 X16.320 Y2.348 Z1.000
G1 X16.320 Y2.348 Z-1.000 F18.000
G2 X16.060 Y2.197 Z-1.000 I-0.260 J0.149 K0.000 F42.000
G1 X14.077 Y2.197 Z-1.000 F42.000
G2 X13.777 Y2.497 Z-1.000 I-0.000 J0.300 K0.000 F42.000
G1 X13.777 Y5.684 Z-1.000 F42.000
G3 X13.709 Y6.085 Z-1.000 I-0.808 J0.069 K0.000 F42.000
G3 X13.282 Y6.008 Z-1.000 I-0.196 J-0.138 K0.000 F42.000
G3 X13.242 Y5.684 Z-1.000 I1.174 J-0.308 K0.000 F42.000
G1 X13.242 Y2.313 Z-1.000 F42.000
G3 X13.464 Y1.840 Z-1.000 I0.430 J-0.087 K0.000 F42.000
G3 X13.737 Y1.800 Z-1.000 I0.233 J0.631 K0.000 F42.000
G1 X16.772 Y1.800 Z-1.000 F42.000
G2 X17.072 Y1.500 Z-1.000 I0.000 J-0.300 K0.000 F42.000
G3 X17.098 Y0.901 Z-1.000 I1.890 J-0.221 K0.000 F42.000
G3 X17.429 Y0.842 Z-1.000 I0.195 J0.138 K0.000 F42.000
G3 X17.483 Y1.050 Z-1.000 I-0.201 J0.162 K0.000 F42.000
G3 X17.476 Y2.049 Z-1.000 I-5.346 J0.462 K0.000 F42.000
G3 X17.362 Y2.177 Z-1.000 I-0.150 J-0.018 K0.000 F42.000
G2 X16.932 Y2.354 Z-1.000 I-0.092 J0.387 K0.000 F42.000
G1 X16.895 Y2.497 Z-1.000 F42.000
G1 X16.895 Y5.684 Z-1.000 F42.000
G3 X16.827 Y6.085 Z-1.000 I-0.808 J0.069 K0.000 F42.000
G3 X16.369 Y5.865 Z-1.000 I-0.204 J-0.161 K0.000 F42.000
G1 X16.360 Y5.694 Z-1.000 F42.000
G1 X16.360 Y2.497 Z-1.000 F42.000
G2 X16.320 Y2.348 Z-1.000 I-0.300 J-0.000 K0.000 F42.000
G1 X16.320 Y2.348 Z-1.500 F18.000
G2 X16.060 Y2.197 Z-1.500 I-0.260 J0.149 K0.000 F42.000
G1 X14.077 Y2.197 Z-1.500 F42.000
G2 X13.777 Y2.497 Z-1.500 I-0.000 J0.300 K0.000 F42.000
G1 X13.777 Y5.684 Z-1.500 F42.000
G3 X13.709 Y6.085 Z-1.500 I-0.808 J0.069 K0.000 F42.000
G3 X13.282 Y6.008 Z-1.500 I-0.196 J-0.138 K0.000 F42.000
G3 X13.242 Y5.684 Z-1.500 I1.174 J-0.308 K0.000 F42.000
G1 X13.242 Y2.313 Z-1.500 F42.000
G3 X13.464 Y1.840 Z-1.500 I0.430 J-0.087 K0.000 F42.000
G3 X13.737 Y1.800 Z-1.500 I0.233 J0.631 K0.000 F42.000
G1 X16.772 Y1.800 Z-1.500 F42.000
G2 X17.072 Y1.500 Z-1.500 I0.000 J-0.300 K0.000 F42.000
G3 X17.098 Y0.901 Z-1.500 I1.890 J-0.221 K0.000 F42.000
G3 X17.429 Y0.842 Z-1.500 I0.195 J0.138 K0.000 F42.000
G3 X17.483 Y1.050 Z-1.500 I-0.201 J0.162 K0.000 F42.000
G3 X17.476 Y2.049 Z-1.500 I-5.346 J0.462 K0.000 F42.000
G3 X17.362 Y2.177 Z-1.500 I-0.150 J-0.018 K0.000 F42.000
G2 X16.932 Y2.354 Z-1.500 I-0.092 J0.387 K0.000 F42.000
G1 X16.895 Y2.497 Z-1.500 F42.000
G1 X16.895 Y5.684 Z-1.500 F42.000
G3 X16.827 Y6.085 Z-1.500 I-0.808 J0.069 K0.000 F42.000
G3 X16.369 Y5.865 Z-1.500 I-0.204 J-0.161 K0.000 F42.000
G1 X16.360 Y5.694 Z-1.500 F42.000
G1 X16.360 Y2.497 Z-1.500 F42.000
G2 X16.320 Y2.348 Z-1.500 I-0.300 J-0.000 K0.000 F42.000
G0 Z5.000
G0 X16.625 Y2.173 Z5.000
G0 X16.625 Y2.173 Z1.000
G1 X16.625 Y2.173 Z-1.500 F18.000
G1 X16.618 Y2.160 Z-1.500 F42.000
G1 X16.635 Y2.160 Z-1.500 F42.000
G1 X16.625 Y2.173 Z-1.500 F42.000
G1 X16.625 Y2.173 Z-1.600 F18.000
G1 X16.618 Y2.160 Z-1.600 F42.000
G1 X16.635 Y2.160 Z-1.600 F42.000
G1 X16.625 Y2.173 Z-1.600 F42.000
G0 Z5.000
G0 X16.320 Y2.348 Z5.000
G0 X16.320 Y2.348 Z1.000
G1 X16.320 Y2.348 Z-1.600 F18.000
G2 X16.060 Y2.197 Z-1.600 I-0.260 J0.149 K0.000 F42.000
G1 X14.077 Y2.197 Z-1.600 F42.000
G2 X13.777 Y2.497 Z-1.600 I-0.000 J0.300 K0.000 F42.000
G1 X13.777 Y5.684 Z-1.600 F42.000
G3 X13.709 Y6.085 Z-1.600 I-0.808 J0.069 K0.000 F42.000
G3 X13.282 Y6.008 Z-1.600 I-0.196 J-0.138 K0.000 F42.000
G3 X13.242 Y5.684 Z-1.600 I1.174 J-0.308 K0.000 F42.000
G1 X13.242 Y2.313 Z-1.600 F42.000
G3 X13.464 Y1.840 Z-1.600 I0.430 J-0.087 K0.000 F42.000
G3 X13.737 Y1.800 Z-1.600 I0.233 J0.631 K0.000 F42.000
G1 X16.772 Y1.800 Z-1.600 F42.000
G2 X17.072 Y1.500 Z-1.600 I0.000 J-0.300 K0.000 F42.000
G3 X17.098 Y0.901 Z-1.600 I1.890 J-0.221 K0.000 F42.000
G3 X17.429 Y0.842 Z-1.600 I0.195 J0.138 K0.000 F42.000
G3 X17.483 Y1.050 Z-1.600 I-0.201 J0.162 K0.000 F42.000
G3 X17.476 Y2.049 Z-1.600 I-5.346 J0.462 K0.000 F42.000
G3 X17.362 Y2.177 Z-1.600 I-0.150 J-0.018 K0.000 F42.000
G2 X16.932 Y2.354 Z-1.600 I-0.092 J0.387 K0.000 F42.000
G1 X16.895 Y2.497 Z-1.600 F42.000
G1 X16.895 Y5.684 Z-1.600 F42.000
G3 X16.827 Y6.085 Z-1.600 I-0.808 J0.069 K0.000 F42.000
G3 X16.369 Y5.865 Z-1.600 I-0.204 J-0.161 K0.000 F42.000
G1 X16.360 Y5.694 Z-1.600 F42.000
G1 X16.360 Y2.497 Z-1.600 F42.000
G2 X16.320 Y2.348 Z-1.600 I-0.300 J-0.000 K0.000 F42.000
G0 Z5.000
G0 Z5.000
(Finish operation: Pocket_Shape)
(Begin postamble)
M5
G17 G90
M2
