(Exported by FreeCAD)
(Post Processor: grbl_post)
(Output Time:2021-11-10 20:18:22.528357)
(Begin preamble)
G17 G90
G21
(Begin operation: Fixture)
(Path: Fixture)
G54
(Finish operation: Fixture)
(Begin operation: 0.6mm Ball End001)
(Path: 0.6mm Ball End001)
(0.6mm Ball End001)
(Begin toolchange)
( M6 T1.0 )
M3 S0.0
(Finish operation: 0.6mm Ball End001)
(Begin operation: Pocket_Shape)
(Path: Pocket_Shape)
(Pocket_Shape)
G0 Z5.000
G0 X16.747 Y6.044
G0 X16.751 Y6.038
G0 X16.751 Y6.038 Z1.000
G1 X16.751 Y6.038 Z-0.500 F18.000
G3 X16.238 Y6.051 Z-0.500 I-0.261 J-0.166 K0.000 F42.000
G1 X16.081 Y5.927 Z-0.500 F42.000
G1 X14.645 Y4.449 Z-0.500 F42.000
G2 X14.130 Y4.658 Z-0.500 I-0.215 J0.209 K0.000 F42.000
G1 X14.130 Y5.688 Z-0.500 F42.000
G3 X14.063 Y6.085 Z-0.500 I-0.801 J0.068 K0.000 F42.000
G3 X13.604 Y5.864 Z-0.500 I-0.205 J-0.161 K0.000 F42.000
G1 X13.595 Y5.692 Z-0.500 F42.000
G1 X13.595 Y2.304 Z-0.500 F42.000
G3 X13.664 Y1.900 Z-0.500 I0.811 J-0.070 K0.000 F42.000
G3 X14.014 Y1.846 Z-0.500 I0.203 J0.153 K0.000 F42.000
G3 X14.130 Y2.291 Z-0.500 I-0.446 J0.354 K0.000 F42.000
G1 X14.130 Y3.425 Z-0.500 F42.000
G2 X14.713 Y3.873 Z-0.500 I0.553 J-0.117 K0.000 F42.000
G1 X14.853 Y3.784 Z-0.500 F42.000
G1 X16.347 Y2.096 Z-0.500 F42.000
G3 X16.723 Y1.806 Z-0.500 I0.679 J0.493 K0.000 F42.000
G3 X16.955 Y2.022 Z-0.500 I0.042 J0.187 K0.000 F42.000
G3 X15.234 Y4.073 Z-0.500 I-37.388 J-29.618 K0.000 F42.000
G2 X15.251 Y4.479 Z-0.500 I0.229 J0.194 K0.000 F42.000
G2 X16.671 Y5.877 Z-0.500 I17.140 J-15.997 K0.000 F42.000
G3 X16.751 Y6.038 Z-0.500 I-0.050 J0.125 K0.000 F42.000
G0 Z5.000
G0 X14.167 Y4.062 Z5.000
G0 X14.167 Y4.062 Z1.000
G1 X14.167 Y4.062 Z-0.500 F18.000
G2 X13.955 Y4.206 Z-0.500 I0.104 J0.382 K0.000 F42.000
G1 X13.955 Y3.877 Z-0.500 F42.000
G2 X14.167 Y4.062 Z-0.500 I0.907 J-0.830 K0.000 F42.000
G1 X14.167 Y4.062 Z-1.000 F18.000
G2 X13.955 Y4.206 Z-1.000 I0.104 J0.382 K0.000 F42.000
G1 X13.955 Y3.877 Z-1.000 F42.000
G2 X14.167 Y4.062 Z-1.000 I0.907 J-0.830 K0.000 F42.000
G0 Z5.000
G0 X14.364 Y3.775 Z5.000
G0 X14.364 Y3.775 Z1.000
G1 X14.364 Y3.775 Z-1.000 F18.000
G2 X14.713 Y3.873 Z-1.000 I0.320 J-0.466 K0.000 F42.000
G1 X14.853 Y3.784 Z-1.000 F42.000
G1 X16.347 Y2.096 Z-1.000 F42.000
G3 X16.723 Y1.806 Z-1.000 I0.679 J0.493 K0.000 F42.000
G3 X16.955 Y2.022 Z-1.000 I0.042 J0.187 K0.000 F42.000
G3 X15.234 Y4.073 Z-1.000 I-37.388 J-29.618 K0.000 F42.000
G2 X15.251 Y4.479 Z-1.000 I0.229 J0.194 K0.000 F42.000
G2 X16.671 Y5.877 Z-1.000 I17.140 J-15.997 K0.000 F42.000
G3 X16.751 Y6.038 Z-1.000 I-0.050 J0.125 K0.000 F42.000
G3 X16.238 Y6.051 Z-1.000 I-0.261 J-0.166 K0.000 F42.000
G1 X16.081 Y5.927 Z-1.000 F42.000
G1 X14.645 Y4.449 Z-1.000 F42.000
G2 X14.130 Y4.658 Z-1.000 I-0.215 J0.209 K0.000 F42.000
G1 X14.130 Y5.688 Z-1.000 F42.000
G3 X14.063 Y6.085 Z-1.000 I-0.801 J0.068 K0.000 F42.000
G3 X13.604 Y5.864 Z-1.000 I-0.205 J-0.161 K0.000 F42.000
G1 X13.595 Y5.692 Z-1.000 F42.000
G1 X13.595 Y2.304 Z-1.000 F42.000
G3 X13.664 Y1.900 Z-1.000 I0.811 J-0.070 K0.000 F42.000
G3 X14.014 Y1.846 Z-1.000 I0.203 J0.153 K0.000 F42.000
G3 X14.130 Y2.291 Z-1.000 I-0.446 J0.354 K0.000 F42.000
G1 X14.130 Y3.425 Z-1.000 F42.000
G2 X14.364 Y3.775 Z-1.000 I0.553 J-0.117 K0.000 F42.000
G1 X14.364 Y3.775 Z-1.500 F18.000
G2 X14.713 Y3.873 Z-1.500 I0.320 J-0.466 K0.000 F42.000
G1 X14.853 Y3.784 Z-1.500 F42.000
G1 X16.347 Y2.096 Z-1.500 F42.000
G3 X16.723 Y1.806 Z-1.500 I0.679 J0.493 K0.000 F42.000
G3 X16.955 Y2.022 Z-1.500 I0.042 J0.187 K0.000 F42.000
G3 X15.234 Y4.073 Z-1.500 I-37.388 J-29.618 K0.000 F42.000
G2 X15.251 Y4.479 Z-1.500 I0.229 J0.194 K0.000 F42.000
G2 X16.671 Y5.877 Z-1.500 I17.140 J-15.997 K0.000 F42.000
G3 X16.751 Y6.038 Z-1.500 I-0.050 J0.125 K0.000 F42.000
G3 X16.238 Y6.051 Z-1.500 I-0.261 J-0.166 K0.000 F42.000
G1 X16.081 Y5.927 Z-1.500 F42.000
G1 X14.645 Y4.449 Z-1.500 F42.000
G2 X14.130 Y4.658 Z-1.500 I-0.215 J0.209 K0.000 F42.000
G1 X14.130 Y5.688 Z-1.500 F42.000
G3 X14.063 Y6.085 Z-1.500 I-0.801 J0.068 K0.000 F42.000
G3 X13.604 Y5.864 Z-1.500 I-0.205 J-0.161 K0.000 F42.000
G1 X13.595 Y5.692 Z-1.500 F42.000
G1 X13.595 Y2.304 Z-1.500 F42.000
G3 X13.664 Y1.900 Z-1.500 I0.811 J-0.070 K0.000 F42.000
G3 X14.014 Y1.846 Z-1.500 I0.203 J0.153 K0.000 F42.000
G3 X14.130 Y2.291 Z-1.500 I-0.446 J0.354 K0.000 F42.000
G1 X14.130 Y3.425 Z-1.500 F42.000
G2 X14.364 Y3.775 Z-1.500 I0.553 J-0.117 K0.000 F42.000
G0 Z5.000
G0 X14.167 Y4.062 Z5.000
G0 X14.167 Y4.062 Z1.000
G1 X14.167 Y4.062 Z-1.500 F18.000
G2 X13.955 Y4.206 Z-1.500 I0.104 J0.382 K0.000 F42.000
G1 X13.955 Y3.877 Z-1.500 F42.000
G2 X14.167 Y4.062 Z-1.500 I0.907 J-0.830 K0.000 F42.000
G1 X14.167 Y4.062 Z-1.600 F18.000
G2 X13.955 Y4.206 Z-1.600 I0.104 J0.382 K0.000 F42.000
G1 X13.955 Y3.877 Z-1.600 F42.000
G2 X14.167 Y4.062 Z-1.600 I0.907 J-0.830 K0.000 F42.000
G0 Z5.000
G0 X14.364 Y3.775 Z5.000
G0 X14.364 Y3.775 Z1.000
G1 X14.364 Y3.775 Z-1.600 F18.000
G2 X14.713 Y3.873 Z-1.600 I0.320 J-0.466 K0.000 F42.000
G1 X14.853 Y3.784 Z-1.600 F42.000
G1 X16.347 Y2.096 Z-1.600 F42.000
G3 X16.723 Y1.806 Z-1.600 I0.679 J0.493 K0.000 F42.000
G3 X16.955 Y2.022 Z-1.600 I0.042 J0.187 K0.000 F42.000
G3 X15.234 Y4.073 Z-1.600 I-37.388 J-29.618 K0.000 F42.000
G2 X15.251 Y4.479 Z-1.600 I0.229 J0.194 K0.000 F42.000
G2 X16.671 Y5.877 Z-1.600 I17.140 J-15.997 K0.000 F42.000
G3 X16.751 Y6.038 Z-1.600 I-0.050 J0.125 K0.000 F42.000
G3 X16.238 Y6.051 Z-1.600 I-0.261 J-0.166 K0.000 F42.000
G1 X16.081 Y5.927 Z-1.600 F42.000
G1 X14.645 Y4.449 Z-1.600 F42.000
G2 X14.130 Y4.658 Z-1.600 I-0.215 J0.209 K0.000 F42.000
G1 X14.130 Y5.688 Z-1.600 F42.000
G3 X14.063 Y6.085 Z-1.600 I-0.801 J0.068 K0.000 F42.000
G3 X13.604 Y5.864 Z-1.600 I-0.205 J-0.161 K0.000 F42.000
G1 X13.595 Y5.692 Z-1.600 F42.000
G1 X13.595 Y2.304 Z-1.600 F42.000
G3 X13.664 Y1.900 Z-1.600 I0.811 J-0.070 K0.000 F42.000
G3 X14.014 Y1.846 Z-1.600 I0.203 J0.153 K0.000 F42.000
G3 X14.130 Y2.291 Z-1.600 I-0.446 J0.354 K0.000 F42.000
G1 X14.130 Y3.425 Z-1.600 F42.000
G2 X14.364 Y3.775 Z-1.600 I0.553 J-0.117 K0.000 F42.000
G0 Z5.000
G0 Z5.000
(Finish operation: Pocket_Shape)
(Begin postamble)
M5
G17 G90
M2
