(Exported by FreeCAD)
(Post Processor: grbl_post)
(Output Time:2021-11-21 17:07:27.247453)
(Begin preamble)
G17 G90
G21
(Begin operation: Fixture)
(Path: Fixture)
G54
(Finish operation: Fixture)
(Begin operation: 0.6mm Ball End001)
(Path: 0.6mm Ball End001)
(0.6mm Ball End001)
(Begin toolchange)
( M6 T1.0 )
M3 S0.0
(Finish operation: 0.6mm Ball End001)
(Begin operation: Pocket_Shape)
(Path: Pocket_Shape)
(Pocket_Shape)
G0 Z5.000
G0 X16.900 Y6.104
G0 Z1.000
G1 X16.900 Y6.104 Z-0.500 F18.000
G3 X16.877 Y6.118 Z-0.500 I-0.096 J-0.129 K0.000 F42.000
G3 X16.454 Y6.186 Z-0.500 I-0.389 J-1.075 K0.000 F42.000
G1 X15.198 Y6.186 Z-0.500 F42.000
G3 X14.819 Y6.124 Z-0.500 I-0.075 J-0.733 K0.000 F42.000
G3 X14.732 Y6.000 Z-0.500 I0.129 J-0.183 K0.000 F42.000
G1 X14.695 Y5.678 Z-0.500 F42.000
G1 X14.695 Y2.315 Z-0.500 F42.000
G3 X14.766 Y1.899 Z-0.500 I0.825 J-0.073 K0.000 F42.000
G3 X15.108 Y1.844 Z-0.500 I0.199 J0.149 K0.000 F42.000
G3 X15.230 Y2.311 Z-0.500 I-0.458 J0.370 K0.000 F42.000
G1 X15.230 Y5.489 Z-0.500 F42.000
G2 X15.530 Y5.789 Z-0.500 I0.300 J0.000 K0.000 F42.000
G3 X16.769 Y5.818 Z-0.500 I0.458 J6.852 K0.000 F42.000
G3 X16.900 Y6.104 Z-0.500 I0.034 J0.157 K0.000 F42.000
G0 Z5.000
G0 X15.067 Y5.868 Z5.000
G0 X15.067 Y5.868 Z1.000
G1 X15.067 Y5.868 Z-0.500 F18.000
G1 X15.018 Y5.862 Z-0.500 F42.000
G1 X15.007 Y5.764 Z-0.500 F42.000
G1 X15.067 Y5.868 Z-0.500 F42.000
G1 X15.067 Y5.868 Z-1.000 F18.000
G1 X15.018 Y5.862 Z-1.000 F42.000
G1 X15.007 Y5.764 Z-1.000 F42.000
G1 X15.067 Y5.868 Z-1.000 F42.000
G0 Z5.000
G0 X15.298 Y5.679 Z5.000
G0 X15.298 Y5.679 Z1.000
G1 X15.298 Y5.679 Z-1.000 F18.000
G2 X15.530 Y5.789 Z-1.000 I0.232 J-0.190 K0.000 F42.000
G3 X16.769 Y5.818 Z-1.000 I0.458 J6.852 K0.000 F42.000
G3 X16.877 Y6.118 Z-1.000 I0.034 J0.157 K0.000 F42.000
G3 X16.454 Y6.186 Z-1.000 I-0.389 J-1.075 K0.000 F42.000
G1 X15.198 Y6.186 Z-1.000 F42.000
G3 X14.819 Y6.124 Z-1.000 I-0.075 J-0.733 K0.000 F42.000
G3 X14.732 Y6.000 Z-1.000 I0.129 J-0.183 K0.000 F42.000
G1 X14.695 Y5.678 Z-1.000 F42.000
G1 X14.695 Y2.315 Z-1.000 F42.000
G3 X14.766 Y1.899 Z-1.000 I0.825 J-0.073 K0.000 F42.000
G3 X15.108 Y1.844 Z-1.000 I0.199 J0.149 K0.000 F42.000
G3 X15.230 Y2.311 Z-1.000 I-0.458 J0.370 K0.000 F42.000
G1 X15.230 Y5.489 Z-1.000 F42.000
G2 X15.298 Y5.679 Z-1.000 I0.300 J0.000 K0.000 F42.000
G1 X15.298 Y5.679 Z-1.500 F18.000
G2 X15.530 Y5.789 Z-1.500 I0.232 J-0.190 K0.000 F42.000
G3 X16.769 Y5.818 Z-1.500 I0.458 J6.852 K0.000 F42.000
G3 X16.877 Y6.118 Z-1.500 I0.034 J0.157 K0.000 F42.000
G3 X16.454 Y6.186 Z-1.500 I-0.389 J-1.075 K0.000 F42.000
G1 X15.198 Y6.186 Z-1.500 F42.000
G3 X14.819 Y6.124 Z-1.500 I-0.075 J-0.733 K0.000 F42.000
G3 X14.732 Y6.000 Z-1.500 I0.129 J-0.183 K0.000 F42.000
G1 X14.695 Y5.678 Z-1.500 F42.000
G1 X14.695 Y2.315 Z-1.500 F42.000
G3 X14.766 Y1.899 Z-1.500 I0.825 J-0.073 K0.000 F42.000
G3 X15.108 Y1.844 Z-1.500 I0.199 J0.149 K0.000 F42.000
G3 X15.230 Y2.311 Z-1.500 I-0.458 J0.370 K0.000 F42.000
G1 X15.230 Y5.489 Z-1.500 F42.000
G2 X15.298 Y5.679 Z-1.500 I0.300 J0.000 K0.000 F42.000
G0 Z5.000
G0 X15.043 Y5.826 Z5.000
G0 X15.043 Y5.826 Z1.000
G1 X15.043 Y5.826 Z-1.500 F18.000
G1 X15.067 Y5.868 Z-1.500 F42.000
G1 X15.018 Y5.862 Z-1.500 F42.000
G1 X15.007 Y5.764 Z-1.500 F42.000
G1 X15.043 Y5.826 Z-1.500 F42.000
G1 X15.043 Y5.826 Z-1.600 F18.000
G1 X15.067 Y5.868 Z-1.600 F42.000
G1 X15.018 Y5.862 Z-1.600 F42.000
G1 X15.007 Y5.764 Z-1.600 F42.000
G1 X15.043 Y5.826 Z-1.600 F42.000
G0 Z5.000
G0 X15.284 Y5.659 Z5.000
G0 X15.284 Y5.659 Z1.000
G1 X15.284 Y5.659 Z-1.600 F18.000
G2 X15.530 Y5.789 Z-1.600 I0.247 J-0.171 K0.000 F42.000
G3 X16.769 Y5.818 Z-1.600 I0.458 J6.852 K0.000 F42.000
G3 X16.877 Y6.118 Z-1.600 I0.034 J0.157 K0.000 F42.000
G3 X16.454 Y6.186 Z-1.600 I-0.389 J-1.075 K0.000 F42.000
G1 X15.198 Y6.186 Z-1.600 F42.000
G3 X14.819 Y6.124 Z-1.600 I-0.075 J-0.733 K0.000 F42.000
G3 X14.732 Y6.000 Z-1.600 I0.129 J-0.183 K0.000 F42.000
G1 X14.695 Y5.678 Z-1.600 F42.000
G1 X14.695 Y2.315 Z-1.600 F42.000
G3 X14.766 Y1.899 Z-1.600 I0.825 J-0.073 K0.000 F42.000
G3 X15.108 Y1.844 Z-1.600 I0.199 J0.149 K0.000 F42.000
G3 X15.230 Y2.311 Z-1.600 I-0.458 J0.370 K0.000 F42.000
G1 X15.230 Y5.489 Z-1.600 F42.000
G2 X15.284 Y5.659 Z-1.600 I0.300 J0.000 K0.000 F42.000
G0 Z5.000
G0 Z5.000
(Finish operation: Pocket_Shape)
(Begin postamble)
M5
G17 G90
M2
