(Exported by FreeCAD)
(Post Processor: grbl_post)
(Output Time:2021-11-21 16:54:29.289345)
(Begin preamble)
G17 G90
G21
(Begin operation: Fixture)
(Path: Fixture)
G54
(Finish operation: Fixture)
(Begin operation: 0.6mm Ball End001)
(Path: 0.6mm Ball End001)
(0.6mm Ball End001)
(Begin toolchange)
( M6 T1.0 )
M3 S0.0
(Finish operation: 0.6mm Ball End001)
(Begin operation: Pocket_Shape)
(Path: Pocket_Shape)
(Pocket_Shape)
G0 Z5.000
G0 X16.924 Y6.140
G0 Z1.000
G1 X16.924 Y6.140 Z-0.500 F18.000
G3 X16.521 Y6.018 Z-0.500 I-0.149 J-0.233 K0.000 F42.000
G1 X16.457 Y5.879 Z-0.500 F42.000
G1 X15.566 Y3.547 Z-0.500 F42.000
G2 X14.980 Y3.507 Z-0.500 I-0.300 J0.089 K0.000 F42.000
G1 X14.010 Y5.931 Z-0.500 F42.000
G3 X13.804 Y6.177 Z-0.500 I-0.331 J-0.068 K0.000 F42.000
G3 X13.540 Y5.840 Z-0.500 I-0.073 J-0.215 K0.000 F42.000
G3 X14.971 Y2.191 Z-0.500 I82.110 J30.082 K0.000 F42.000
G2 X14.965 Y1.957 Z-0.500 I-0.279 J-0.110 K0.000 F42.000
G1 X14.651 Y1.263 Z-0.500 F42.000
G3 X14.662 Y0.845 Z-0.500 I0.307 J-0.201 K0.000 F42.000
G3 X14.948 Y0.832 Z-0.500 I0.157 J0.289 K0.000 F42.000
G3 X15.098 Y1.097 Z-0.500 I-0.580 J0.501 K0.000 F42.000
G1 X16.910 Y5.745 Z-0.500 F42.000
G3 X16.924 Y6.140 Z-0.500 I-0.335 J0.210 K0.000 F42.000
G0 Z5.000
G0 X15.449 Y2.990 Z5.000
G0 X15.449 Y2.990 Z1.000
G1 X15.449 Y2.990 Z-0.500 F18.000
G2 X15.039 Y3.002 Z-0.500 I-0.189 J0.557 K0.000 F42.000
G1 X15.247 Y2.471 Z-0.500 F42.000
G1 X15.449 Y2.990 Z-0.500 F42.000
G1 X15.449 Y2.990 Z-1.000 F18.000
G2 X15.039 Y3.002 Z-1.000 I-0.189 J0.557 K0.000 F42.000
G1 X15.247 Y2.471 Z-1.000 F42.000
G1 X15.449 Y2.990 Z-1.000 F42.000
G0 Z5.000
G0 X15.351 Y3.335 Z5.000
G0 X15.351 Y3.335 Z1.000
G1 X15.351 Y3.335 Z-1.000 F18.000
G2 X14.980 Y3.507 Z-1.000 I-0.086 J0.301 K0.000 F42.000
G1 X14.010 Y5.931 Z-1.000 F42.000
G3 X13.804 Y6.177 Z-1.000 I-0.331 J-0.068 K0.000 F42.000
G3 X13.540 Y5.840 Z-1.000 I-0.073 J-0.215 K0.000 F42.000
G3 X14.971 Y2.191 Z-1.000 I82.110 J30.082 K0.000 F42.000
G2 X14.965 Y1.957 Z-1.000 I-0.279 J-0.110 K0.000 F42.000
G1 X14.651 Y1.263 Z-1.000 F42.000
G3 X14.662 Y0.845 Z-1.000 I0.307 J-0.201 K0.000 F42.000
G3 X14.948 Y0.832 Z-1.000 I0.157 J0.289 K0.000 F42.000
G3 X15.098 Y1.097 Z-1.000 I-0.580 J0.501 K0.000 F42.000
G1 X16.910 Y5.745 Z-1.000 F42.000
G3 X16.924 Y6.140 Z-1.000 I-0.335 J0.210 K0.000 F42.000
G3 X16.521 Y6.018 Z-1.000 I-0.149 J-0.233 K0.000 F42.000
G1 X16.457 Y5.879 Z-1.000 F42.000
G1 X15.566 Y3.547 Z-1.000 F42.000
G2 X15.351 Y3.335 Z-1.000 I-0.300 J0.089 K0.000 F42.000
G1 X15.351 Y3.335 Z-1.500 F18.000
G2 X14.980 Y3.507 Z-1.500 I-0.086 J0.301 K0.000 F42.000
G1 X14.010 Y5.931 Z-1.500 F42.000
G3 X13.804 Y6.177 Z-1.500 I-0.331 J-0.068 K0.000 F42.000
G3 X13.540 Y5.840 Z-1.500 I-0.073 J-0.215 K0.000 F42.000
G3 X14.971 Y2.191 Z-1.500 I82.110 J30.082 K0.000 F42.000
G2 X14.965 Y1.957 Z-1.500 I-0.279 J-0.110 K0.000 F42.000
G1 X14.651 Y1.263 Z-1.500 F42.000
G3 X14.662 Y0.845 Z-1.500 I0.307 J-0.201 K0.000 F42.000
G3 X14.948 Y0.832 Z-1.500 I0.157 J0.289 K0.000 F42.000
G3 X15.098 Y1.097 Z-1.500 I-0.580 J0.501 K0.000 F42.000
G1 X16.910 Y5.745 Z-1.500 F42.000
G3 X16.924 Y6.140 Z-1.500 I-0.335 J0.210 K0.000 F42.000
G3 X16.521 Y6.018 Z-1.500 I-0.149 J-0.233 K0.000 F42.000
G1 X16.457 Y5.879 Z-1.500 F42.000
G1 X15.566 Y3.547 Z-1.500 F42.000
G2 X15.351 Y3.335 Z-1.500 I-0.300 J0.089 K0.000 F42.000
G0 Z5.000
G0 X15.449 Y2.990 Z5.000
G0 X15.449 Y2.990 Z1.000
G1 X15.449 Y2.990 Z-1.500 F18.000
G2 X15.039 Y3.002 Z-1.500 I-0.189 J0.557 K0.000 F42.000
G1 X15.247 Y2.471 Z-1.500 F42.000
G1 X15.449 Y2.990 Z-1.500 F42.000
G1 X15.449 Y2.990 Z-1.600 F18.000
G2 X15.039 Y3.002 Z-1.600 I-0.189 J0.557 K0.000 F42.000
G1 X15.247 Y2.471 Z-1.600 F42.000
G1 X15.449 Y2.990 Z-1.600 F42.000
G0 Z5.000
G0 X15.351 Y3.335 Z5.000
G0 X15.351 Y3.335 Z1.000
G1 X15.351 Y3.335 Z-1.600 F18.000
G2 X14.980 Y3.507 Z-1.600 I-0.086 J0.301 K0.000 F42.000
G1 X14.010 Y5.931 Z-1.600 F42.000
G3 X13.804 Y6.177 Z-1.600 I-0.331 J-0.068 K0.000 F42.000
G3 X13.540 Y5.840 Z-1.600 I-0.073 J-0.215 K0.000 F42.000
G3 X14.971 Y2.191 Z-1.600 I82.110 J30.082 K0.000 F42.000
G2 X14.965 Y1.957 Z-1.600 I-0.279 J-0.110 K0.000 F42.000
G1 X14.651 Y1.263 Z-1.600 F42.000
G3 X14.662 Y0.845 Z-1.600 I0.307 J-0.201 K0.000 F42.000
G3 X14.948 Y0.832 Z-1.600 I0.157 J0.289 K0.000 F42.000
G3 X15.098 Y1.097 Z-1.600 I-0.580 J0.501 K0.000 F42.000
G1 X16.910 Y5.745 Z-1.600 F42.000
G3 X16.924 Y6.140 Z-1.600 I-0.335 J0.210 K0.000 F42.000
G3 X16.521 Y6.018 Z-1.600 I-0.149 J-0.233 K0.000 F42.000
G1 X16.457 Y5.879 Z-1.600 F42.000
G1 X15.566 Y3.547 Z-1.600 F42.000
G2 X15.351 Y3.335 Z-1.600 I-0.300 J0.089 K0.000 F42.000
G0 Z5.000
G0 Z5.000
(Finish operation: Pocket_Shape)
(Begin postamble)
M5
G17 G90
M2
