(Exported by FreeCAD)
(Post Processor: grbl_post)
(Output Time:2021-11-21 16:51:31.733303)
(Begin preamble)
G17 G90
G21
(Begin operation: Fixture)
(Path: Fixture)
G54
(Finish operation: Fixture)
(Begin operation: 0.6mm Ball End001)
(Path: 0.6mm Ball End001)
(0.6mm Ball End001)
(Begin toolchange)
( M6 T1.0 )
M3 S0.0
(Finish operation: 0.6mm Ball End001)
(Begin operation: Pocket_Shape)
(Path: Pocket_Shape)
(Pocket_Shape)
G0 Z5.000
G0 X16.884 Y6.113
G0 Z1.000
G1 X16.884 Y6.113 Z-0.500 F18.000
G3 X16.561 Y6.142 Z-0.500 I-0.178 J-0.169 K0.000 F42.000
G1 X16.343 Y5.978 Z-0.500 F42.000
G1 X14.269 Y3.238 Z-0.500 F42.000
G2 X13.730 Y3.419 Z-0.500 I-0.239 J0.181 K0.000 F42.000
G1 X13.730 Y5.682 Z-0.500 F42.000
G3 X13.662 Y6.085 Z-0.500 I-0.811 J0.070 K0.000 F42.000
G3 X13.204 Y5.864 Z-0.500 I-0.204 J-0.161 K0.000 F42.000
G1 X13.195 Y5.692 Z-0.500 F42.000
G1 X13.195 Y2.176 Z-0.500 F42.000
G3 X13.235 Y1.900 Z-0.500 I0.597 J-0.055 K0.000 F42.000
G3 X13.527 Y1.817 Z-0.500 I0.186 J0.101 K0.000 F42.000
G3 X13.844 Y2.028 Z-0.500 I-0.180 J0.615 K0.000 F42.000
G1 X15.883 Y4.724 Z-0.500 F42.000
G2 X16.422 Y4.543 Z-0.500 I0.239 J-0.181 K0.000 F42.000
G1 X16.422 Y2.308 Z-0.500 F42.000
G3 X16.492 Y1.900 Z-0.500 I0.816 J-0.071 K0.000 F42.000
G3 X16.841 Y1.846 Z-0.500 I0.202 J0.152 K0.000 F42.000
G3 X16.958 Y2.294 Z-0.500 I-0.448 J0.356 K0.000 F42.000
G1 X16.958 Y5.722 Z-0.500 F42.000
G3 X16.894 Y6.103 Z-0.500 I-0.768 J0.067 K0.000 F42.000
G3 X16.884 Y6.113 Z-0.500 I-0.188 J-0.158 K0.000 F42.000
G0 Z5.000
G0 X16.596 Y5.715 Z5.000
G0 X16.596 Y5.715 Z1.000
G1 X16.596 Y5.715 Z-0.500 F18.000
G1 X16.201 Y5.193 Z-0.500 F42.000
G2 X16.598 Y4.991 Z-0.500 I0.005 J-0.480 K0.000 F42.000
G3 X16.596 Y5.715 Z-0.500 I-3.006 J0.355 K0.000 F42.000
G0 Z5.000
G0 X13.953 Y2.768 Z5.000
G0 X13.953 Y2.768 Z1.000
G1 X13.953 Y2.768 Z-0.500 F18.000
G2 X13.555 Y2.970 Z-0.500 I-0.005 J0.481 K0.000 F42.000
G1 X13.555 Y2.255 Z-0.500 F42.000
G1 X13.581 Y2.277 Z-0.500 F42.000
G1 X13.953 Y2.768 Z-0.500 F42.000
G1 X13.953 Y2.768 Z-1.000 F18.000
G2 X13.555 Y2.970 Z-1.000 I-0.005 J0.481 K0.000 F42.000
G1 X13.555 Y2.255 Z-1.000 F42.000
G1 X13.581 Y2.277 Z-1.000 F42.000
G1 X13.953 Y2.768 Z-1.000 F42.000
G0 Z5.000
G0 X13.995 Y3.121 Z5.000
G0 X13.995 Y3.121 Z1.000
G1 X13.995 Y3.121 Z-1.000 F18.000
G2 X13.730 Y3.419 Z-1.000 I0.036 J0.298 K0.000 F42.000
G1 X13.730 Y5.682 Z-1.000 F42.000
G3 X13.662 Y6.085 Z-1.000 I-0.811 J0.070 K0.000 F42.000
G3 X13.204 Y5.864 Z-1.000 I-0.204 J-0.161 K0.000 F42.000
G1 X13.195 Y5.692 Z-1.000 F42.000
G1 X13.195 Y2.176 Z-1.000 F42.000
G3 X13.235 Y1.900 Z-1.000 I0.597 J-0.055 K0.000 F42.000
G3 X13.527 Y1.817 Z-1.000 I0.186 J0.101 K0.000 F42.000
G3 X13.844 Y2.028 Z-1.000 I-0.180 J0.615 K0.000 F42.000
G1 X15.883 Y4.724 Z-1.000 F42.000
G2 X16.422 Y4.543 Z-1.000 I0.239 J-0.181 K0.000 F42.000
G1 X16.422 Y2.308 Z-1.000 F42.000
G3 X16.492 Y1.900 Z-1.000 I0.816 J-0.071 K0.000 F42.000
G3 X16.841 Y1.846 Z-1.000 I0.202 J0.152 K0.000 F42.000
G3 X16.958 Y2.294 Z-1.000 I-0.448 J0.356 K0.000 F42.000
G1 X16.958 Y5.722 Z-1.000 F42.000
G3 X16.894 Y6.103 Z-1.000 I-0.768 J0.067 K0.000 F42.000
G3 X16.561 Y6.142 Z-1.000 I-0.188 J-0.158 K0.000 F42.000
G1 X16.343 Y5.978 Z-1.000 F42.000
G1 X14.269 Y3.238 Z-1.000 F42.000
G2 X13.995 Y3.121 Z-1.000 I-0.239 J0.181 K0.000 F42.000
G0 Z5.000
G0 X16.201 Y5.193 Z5.000
G0 X16.201 Y5.193 Z1.000
G1 X16.201 Y5.193 Z-1.000 F18.000
G2 X16.598 Y4.991 Z-1.000 I0.005 J-0.480 K0.000 F42.000
G3 X16.596 Y5.715 Z-1.000 I-3.006 J0.355 K0.000 F42.000
G1 X16.201 Y5.193 Z-1.000 F42.000
G1 X16.201 Y5.193 Z-1.500 F18.000
G2 X16.598 Y4.991 Z-1.500 I0.005 J-0.480 K0.000 F42.000
G3 X16.596 Y5.715 Z-1.500 I-3.006 J0.355 K0.000 F42.000
G1 X16.201 Y5.193 Z-1.500 F42.000
G0 Z5.000
G0 X16.158 Y4.840 Z5.000
G0 X16.158 Y4.840 Z1.000
G1 X16.158 Y4.840 Z-1.500 F18.000
G2 X16.422 Y4.543 Z-1.500 I-0.036 J-0.298 K0.000 F42.000
G1 X16.422 Y2.308 Z-1.500 F42.000
G3 X16.492 Y1.900 Z-1.500 I0.816 J-0.071 K0.000 F42.000
G3 X16.841 Y1.846 Z-1.500 I0.202 J0.152 K0.000 F42.000
G3 X16.958 Y2.294 Z-1.500 I-0.448 J0.356 K0.000 F42.000
G1 X16.958 Y5.722 Z-1.500 F42.000
G3 X16.894 Y6.103 Z-1.500 I-0.768 J0.067 K0.000 F42.000
G3 X16.561 Y6.142 Z-1.500 I-0.188 J-0.158 K0.000 F42.000
G1 X16.343 Y5.978 Z-1.500 F42.000
G1 X14.269 Y3.238 Z-1.500 F42.000
G2 X13.730 Y3.419 Z-1.500 I-0.239 J0.181 K0.000 F42.000
G1 X13.730 Y5.682 Z-1.500 F42.000
G3 X13.662 Y6.085 Z-1.500 I-0.811 J0.070 K0.000 F42.000
G3 X13.204 Y5.864 Z-1.500 I-0.204 J-0.161 K0.000 F42.000
G1 X13.195 Y5.692 Z-1.500 F42.000
G1 X13.195 Y2.176 Z-1.500 F42.000
G3 X13.235 Y1.900 Z-1.500 I0.597 J-0.055 K0.000 F42.000
G3 X13.527 Y1.817 Z-1.500 I0.186 J0.101 K0.000 F42.000
G3 X13.844 Y2.028 Z-1.500 I-0.180 J0.615 K0.000 F42.000
G1 X15.883 Y4.724 Z-1.500 F42.000
G2 X16.158 Y4.840 Z-1.500 I0.239 J-0.181 K0.000 F42.000
G0 Z5.000
G0 X13.953 Y2.768 Z5.000
G0 X13.953 Y2.768 Z1.000
G1 X13.953 Y2.768 Z-1.500 F18.000
G2 X13.555 Y2.970 Z-1.500 I-0.005 J0.481 K0.000 F42.000
G1 X13.555 Y2.255 Z-1.500 F42.000
G1 X13.581 Y2.277 Z-1.500 F42.000
G1 X13.953 Y2.768 Z-1.500 F42.000
G1 X13.953 Y2.768 Z-1.600 F18.000
G2 X13.555 Y2.970 Z-1.600 I-0.005 J0.481 K0.000 F42.000
G1 X13.555 Y2.255 Z-1.600 F42.000
G1 X13.581 Y2.277 Z-1.600 F42.000
G1 X13.953 Y2.768 Z-1.600 F42.000
G0 Z5.000
G0 X13.995 Y3.121 Z5.000
G0 X13.995 Y3.121 Z1.000
G1 X13.995 Y3.121 Z-1.600 F18.000
G2 X13.730 Y3.419 Z-1.600 I0.036 J0.298 K0.000 F42.000
G1 X13.730 Y5.682 Z-1.600 F42.000
G3 X13.662 Y6.085 Z-1.600 I-0.811 J0.070 K0.000 F42.000
G3 X13.204 Y5.864 Z-1.600 I-0.204 J-0.161 K0.000 F42.000
G1 X13.195 Y5.692 Z-1.600 F42.000
G1 X13.195 Y2.176 Z-1.600 F42.000
G3 X13.235 Y1.900 Z-1.600 I0.597 J-0.055 K0.000 F42.000
G3 X13.527 Y1.817 Z-1.600 I0.186 J0.101 K0.000 F42.000
G3 X13.844 Y2.028 Z-1.600 I-0.180 J0.615 K0.000 F42.000
G1 X15.883 Y4.724 Z-1.600 F42.000
G2 X16.422 Y4.543 Z-1.600 I0.239 J-0.181 K0.000 F42.000
G1 X16.422 Y2.308 Z-1.600 F42.000
G3 X16.492 Y1.900 Z-1.600 I0.816 J-0.071 K0.000 F42.000
G3 X16.841 Y1.846 Z-1.600 I0.202 J0.152 K0.000 F42.000
G3 X16.958 Y2.294 Z-1.600 I-0.448 J0.356 K0.000 F42.000
G1 X16.958 Y5.722 Z-1.600 F42.000
G3 X16.894 Y6.103 Z-1.600 I-0.768 J0.067 K0.000 F42.000
G3 X16.561 Y6.142 Z-1.600 I-0.188 J-0.158 K0.000 F42.000
G1 X16.343 Y5.978 Z-1.600 F42.000
G1 X14.269 Y3.238 Z-1.600 F42.000
G2 X13.995 Y3.121 Z-1.600 I-0.239 J0.181 K0.000 F42.000
G0 Z5.000
G0 X16.201 Y5.193 Z5.000
G0 X16.201 Y5.193 Z1.000
G1 X16.201 Y5.193 Z-1.600 F18.000
G2 X16.598 Y4.991 Z-1.600 I0.005 J-0.480 K0.000 F42.000
G3 X16.596 Y5.715 Z-1.600 I-3.006 J0.355 K0.000 F42.000
G1 X16.201 Y5.193 Z-1.600 F42.000
G0 Z5.000
G0 Z5.000
(Finish operation: Pocket_Shape)
(Begin postamble)
M5
G17 G90
M2
