(Exported by FreeCAD)
(Post Processor: grbl_post)
(Output Time:2021-11-06 18:58:26.652681)
(Begin preamble)
G17 G90
G21
(Begin operation: Fixture)
(Path: Fixture)
G54
(Finish operation: Fixture)
(Begin operation: 0.56mm Ball End001)
(Path: 0.56mm Ball End001)
(0.56mm Ball End001)
(Begin toolchange)
( M6 T1.0 )
M3 S0.0
(Finish operation: 0.56mm Ball End001)
(Begin operation: Pocket_Shape)
(Path: Pocket_Shape)
(Pocket_Shape)
G0 Z5.000
G0 X16.689 Y6.266
G0 Z1.000
G1 X16.689 Y6.266 Z-0.500 F18.000
G3 X16.627 Y6.241 Z-0.500 I0.017 J-0.132 K0.000 F42.000
G1 X14.430 Y4.220 Z-0.500 F42.000
G1 X14.319 Y4.162 Z-0.500 F42.000
G1 X14.435 Y4.116 Z-0.500 F42.000
G1 X16.770 Y1.872 Z-0.500 F42.000
G1 X14.614 Y3.973 Z-0.500 F42.000
G2 X14.621 Y4.380 Z-0.500 I0.195 J0.201 K0.000 F42.000
G1 X16.689 Y6.266 Z-0.500 F42.000
G0 Z5.000
G0 X13.963 Y6.245 Z5.000
G0 X13.963 Y6.245 Z1.000
G1 X13.963 Y6.245 Z-0.500 F18.000
G3 X13.910 Y6.267 Z-0.500 I-0.031 J-0.000 K0.000 F42.000
G1 X13.895 Y6.200 Z-0.500 F42.000
G1 X13.895 Y1.832 Z-0.500 F42.000
G3 X13.953 Y1.787 Z-0.500 I0.039 J-0.010 K0.000 F42.000
G3 X13.961 Y1.826 Z-0.500 I-0.047 J0.030 K0.000 F42.000
G1 X13.961 Y3.914 Z-0.500 F42.000
G2 X14.144 Y4.168 Z-0.500 I0.218 J0.036 K0.000 F42.000
G2 X13.961 Y4.426 Z-0.500 I0.085 J0.254 K0.000 F42.000
G1 X13.961 Y6.233 Z-0.500 F42.000
G3 X13.963 Y6.245 Z-0.500 I-0.029 J0.011 K0.000 F42.000
G1 X13.963 Y6.245 Z-1.000 F18.000
G3 X13.910 Y6.267 Z-1.000 I-0.031 J-0.000 K0.000 F42.000
G1 X13.895 Y6.200 Z-1.000 F42.000
G1 X13.895 Y1.832 Z-1.000 F42.000
G3 X13.953 Y1.787 Z-1.000 I0.039 J-0.010 K0.000 F42.000
G3 X13.961 Y1.826 Z-1.000 I-0.047 J0.030 K0.000 F42.000
G1 X13.961 Y3.914 Z-1.000 F42.000
G2 X14.144 Y4.168 Z-1.000 I0.218 J0.036 K0.000 F42.000
G2 X13.961 Y4.426 Z-1.000 I0.085 J0.254 K0.000 F42.000
G1 X13.961 Y6.233 Z-1.000 F42.000
G3 X13.963 Y6.245 Z-1.000 I-0.029 J0.011 K0.000 F42.000
G0 Z5.000
G0 X15.186 Y4.916 Z5.000
G0 X15.186 Y4.916 Z1.000
G1 X15.186 Y4.916 Z-1.000 F18.000
G1 X14.430 Y4.220 Z-1.000 F42.000
G1 X14.319 Y4.162 Z-1.000 F42.000
G1 X14.435 Y4.116 Z-1.000 F42.000
G1 X16.770 Y1.872 Z-1.000 F42.000
G1 X14.614 Y3.973 Z-1.000 F42.000
G2 X14.621 Y4.380 Z-1.000 I0.195 J0.201 K0.000 F42.000
G1 X16.689 Y6.266 Z-1.000 F42.000
G3 X16.627 Y6.241 Z-1.000 I0.017 J-0.132 K0.000 F42.000
G1 X15.186 Y4.916 Z-1.000 F42.000
G1 X15.186 Y4.916 Z-1.500 F18.000
G1 X14.430 Y4.220 Z-1.500 F42.000
G1 X14.319 Y4.162 Z-1.500 F42.000
G1 X14.435 Y4.116 Z-1.500 F42.000
G1 X16.770 Y1.872 Z-1.500 F42.000
G1 X14.614 Y3.973 Z-1.500 F42.000
G2 X14.621 Y4.380 Z-1.500 I0.195 J0.201 K0.000 F42.000
G1 X16.689 Y6.266 Z-1.500 F42.000
G3 X16.627 Y6.241 Z-1.500 I0.017 J-0.132 K0.000 F42.000
G1 X15.186 Y4.916 Z-1.500 F42.000
G0 Z5.000
G0 X13.961 Z5.000
G0 X13.961 Z1.000
G1 X13.961 Y4.916 Z-1.500 F18.000
G1 X13.961 Y6.233 Z-1.500 F42.000
G3 X13.910 Y6.267 Z-1.500 I-0.029 J0.011 K0.000 F42.000
G1 X13.895 Y6.200 Z-1.500 F42.000
G1 X13.895 Y1.832 Z-1.500 F42.000
G3 X13.953 Y1.787 Z-1.500 I0.039 J-0.010 K0.000 F42.000
G3 X13.961 Y1.826 Z-1.500 I-0.047 J0.030 K0.000 F42.000
G1 X13.961 Y3.914 Z-1.500 F42.000
G2 X14.144 Y4.168 Z-1.500 I0.218 J0.036 K0.000 F42.000
G2 X13.961 Y4.426 Z-1.500 I0.085 J0.254 K0.000 F42.000
G1 X13.961 Y4.916 Z-1.500 F42.000
G0 Z5.000
G0 Z5.000
(Finish operation: Pocket_Shape)
(Begin postamble)
M5
G17 G90
M2
