(Exported by FreeCAD)
(Post Processor: grbl_post)
(Output Time:2021-11-21 17:10:08.850167)
(Begin preamble)
G17 G90
G21
(Begin operation: Fixture)
(Path: Fixture)
G54
(Finish operation: Fixture)
(Begin operation: 0.6mm Ball End001)
(Path: 0.6mm Ball End001)
(0.6mm Ball End001)
(Begin toolchange)
( M6 T1.0 )
M3 S0.0
(Finish operation: 0.6mm Ball End001)
(Begin operation: Pocket_Shape)
(Path: Pocket_Shape)
(Pocket_Shape)
G0 Z5.000
G0 X16.843 Y6.103
G0 Z1.000
G1 X16.843 Y6.103 Z-0.500 F18.000
G3 X16.403 Y5.865 Z-0.500 I-0.188 J-0.178 K0.000 F42.000
G1 X16.394 Y5.694 Z-0.500 F42.000
G1 X16.394 Y2.497 Z-0.500 F42.000
G2 X16.094 Y2.197 Z-0.500 I-0.300 J-0.000 K0.000 F42.000
G1 X14.767 Y2.197 Z-0.500 F42.000
G2 X14.467 Y2.497 Z-0.500 I-0.000 J0.300 K0.000 F42.000
G1 X14.467 Y5.690 Z-0.500 F42.000
G3 X14.421 Y6.088 Z-0.500 I-0.921 J0.094 K0.000 F42.000
G3 X14.075 Y5.973 Z-0.500 I-0.162 J-0.090 K0.000 F42.000
G1 X14.057 Y5.693 Z-0.500 F42.000
G1 X14.057 Y2.497 Z-0.500 F42.000
G2 X13.757 Y2.197 Z-0.500 I-0.300 J-0.000 K0.000 F42.000
G1 X12.430 Y2.197 Z-0.500 F42.000
G2 X12.130 Y2.497 Z-0.500 I-0.000 J0.300 K0.000 F42.000
G1 X12.130 Y5.684 Z-0.500 F42.000
G3 X12.062 Y6.085 Z-0.500 I-0.808 J0.069 K0.000 F42.000
G3 X11.635 Y6.008 Z-0.500 I-0.196 J-0.138 K0.000 F42.000
G3 X11.595 Y5.684 Z-0.500 I1.174 J-0.308 K0.000 F42.000
G1 X11.595 Y2.313 Z-0.500 F42.000
G3 X11.818 Y1.840 Z-0.500 I0.430 J-0.087 K0.000 F42.000
G3 X12.090 Y1.800 Z-0.500 I0.233 J0.631 K0.000 F42.000
G1 X16.434 Y1.800 Z-0.500 F42.000
G3 X16.884 Y2.017 Z-0.500 I0.078 J0.414 K0.000 F42.000
G3 X16.929 Y2.313 Z-0.500 I-0.663 J0.252 K0.000 F42.000
G1 X16.929 Y5.670 Z-0.500 F42.000
G3 X16.858 Y6.086 Z-0.500 I-0.825 J0.073 K0.000 F42.000
G3 X16.843 Y6.103 Z-0.500 I-0.203 J-0.161 K0.000 F42.000
G0 Z5.000
G0 X16.617 Y2.221 Z5.000
G0 X16.617 Y2.221 Z1.000
G1 X16.617 Y2.221 Z-0.500 F18.000
G1 X16.555 Y2.115 Z-0.500 F42.000
G3 X16.617 Y2.221 Z-0.500 I0.002 J0.070 K0.000 F42.000
G0 Z5.000
G0 X14.329 Y2.100 Z5.000
G0 X14.329 Y2.100 Z1.000
G1 X14.329 Y2.100 Z-0.500 F18.000
G1 X14.258 Y2.184 Z-0.500 F42.000
G2 X14.203 Y2.100 Z-0.500 I-0.144 J0.034 K0.000 F42.000
G1 X14.329 Y2.100 Z-0.500 F42.000
G0 Z5.000
G0 X11.981 Y2.114 Z5.000
G0 X11.981 Y2.114 Z1.000
G1 X11.981 Y2.114 Z-0.500 F18.000
G2 X11.909 Y2.202 Z-0.500 I0.059 J0.121 K0.000 F42.000
G3 X11.981 Y2.114 Z-0.500 I0.059 J-0.025 K0.000 F42.000
G1 X11.981 Y2.114 Z-1.000 F18.000
G2 X11.909 Y2.202 Z-1.000 I0.059 J0.121 K0.000 F42.000
G3 X11.981 Y2.114 Z-1.000 I0.059 J-0.025 K0.000 F42.000
G0 Z5.000
G0 X12.202 Y2.302 Z5.000
G0 X12.202 Y2.302 Z1.000
G1 X12.202 Y2.302 Z-1.000 F18.000
G2 X12.130 Y2.497 Z-1.000 I0.228 J0.195 K0.000 F42.000
G1 X12.130 Y5.684 Z-1.000 F42.000
G3 X12.062 Y6.085 Z-1.000 I-0.808 J0.069 K0.000 F42.000
G3 X11.635 Y6.008 Z-1.000 I-0.196 J-0.138 K0.000 F42.000
G3 X11.595 Y5.684 Z-1.000 I1.174 J-0.308 K0.000 F42.000
G1 X11.595 Y2.313 Z-1.000 F42.000
G3 X11.818 Y1.840 Z-1.000 I0.430 J-0.087 K0.000 F42.000
G3 X12.090 Y1.800 Z-1.000 I0.233 J0.631 K0.000 F42.000
G1 X16.434 Y1.800 Z-1.000 F42.000
G3 X16.884 Y2.017 Z-1.000 I0.078 J0.414 K0.000 F42.000
G3 X16.929 Y2.313 Z-1.000 I-0.663 J0.252 K0.000 F42.000
G1 X16.929 Y5.670 Z-1.000 F42.000
G3 X16.858 Y6.086 Z-1.000 I-0.825 J0.073 K0.000 F42.000
G3 X16.403 Y5.865 Z-1.000 I-0.203 J-0.161 K0.000 F42.000
G1 X16.394 Y5.694 Z-1.000 F42.000
G1 X16.394 Y2.497 Z-1.000 F42.000
G2 X16.094 Y2.197 Z-1.000 I-0.300 J-0.000 K0.000 F42.000
G1 X14.767 Y2.197 Z-1.000 F42.000
G2 X14.467 Y2.497 Z-1.000 I-0.000 J0.300 K0.000 F42.000
G1 X14.467 Y5.690 Z-1.000 F42.000
G3 X14.421 Y6.088 Z-1.000 I-0.921 J0.094 K0.000 F42.000
G3 X14.075 Y5.973 Z-1.000 I-0.162 J-0.090 K0.000 F42.000
G1 X14.057 Y5.693 Z-1.000 F42.000
G1 X14.057 Y2.497 Z-1.000 F42.000
G2 X13.757 Y2.197 Z-1.000 I-0.300 J-0.000 K0.000 F42.000
G1 X12.430 Y2.197 Z-1.000 F42.000
G2 X12.202 Y2.302 Z-1.000 I-0.000 J0.300 K0.000 F42.000
G0 Z5.000
G0 X14.203 Y2.100 Z5.000
G0 X14.203 Y2.100 Z1.000
G1 X14.203 Y2.100 Z-1.000 F18.000
G1 X14.329 Y2.100 Z-1.000 F42.000
G1 X14.258 Y2.184 Z-1.000 F42.000
G2 X14.203 Y2.100 Z-1.000 I-0.144 J0.034 K0.000 F42.000
G0 Z5.000
G0 X16.555 Y2.115 Z5.000
G0 X16.555 Y2.115 Z1.000
G1 X16.555 Y2.115 Z-1.000 F18.000
G3 X16.617 Y2.221 Z-1.000 I0.002 J0.070 K0.000 F42.000
G1 X16.555 Y2.115 Z-1.000 F42.000
G1 X16.555 Y2.115 Z-1.500 F18.000
G3 X16.617 Y2.221 Z-1.500 I0.002 J0.070 K0.000 F42.000
G1 X16.555 Y2.115 Z-1.500 F42.000
G0 Z5.000
G0 X16.325 Y2.306 Z5.000
G0 X16.325 Y2.306 Z1.000
G1 X16.325 Y2.306 Z-1.500 F18.000
G2 X16.094 Y2.197 Z-1.500 I-0.231 J0.191 K0.000 F42.000
G1 X14.767 Y2.197 Z-1.500 F42.000
G2 X14.467 Y2.497 Z-1.500 I-0.000 J0.300 K0.000 F42.000
G1 X14.467 Y5.690 Z-1.500 F42.000
G3 X14.421 Y6.088 Z-1.500 I-0.921 J0.094 K0.000 F42.000
G3 X14.075 Y5.973 Z-1.500 I-0.162 J-0.090 K0.000 F42.000
G1 X14.057 Y5.693 Z-1.500 F42.000
G1 X14.057 Y2.497 Z-1.500 F42.000
G2 X13.757 Y2.197 Z-1.500 I-0.300 J-0.000 K0.000 F42.000
G1 X12.430 Y2.197 Z-1.500 F42.000
G2 X12.130 Y2.497 Z-1.500 I-0.000 J0.300 K0.000 F42.000
G1 X12.130 Y5.684 Z-1.500 F42.000
G3 X12.062 Y6.085 Z-1.500 I-0.808 J0.069 K0.000 F42.000
G3 X11.635 Y6.008 Z-1.500 I-0.196 J-0.138 K0.000 F42.000
G3 X11.595 Y5.684 Z-1.500 I1.174 J-0.308 K0.000 F42.000
G1 X11.595 Y2.313 Z-1.500 F42.000
G3 X11.818 Y1.840 Z-1.500 I0.430 J-0.087 K0.000 F42.000
G3 X12.090 Y1.800 Z-1.500 I0.233 J0.631 K0.000 F42.000
G1 X16.434 Y1.800 Z-1.500 F42.000
G3 X16.884 Y2.017 Z-1.500 I0.078 J0.414 K0.000 F42.000
G3 X16.929 Y2.313 Z-1.500 I-0.663 J0.252 K0.000 F42.000
G1 X16.929 Y5.670 Z-1.500 F42.000
G3 X16.858 Y6.086 Z-1.500 I-0.825 J0.073 K0.000 F42.000
G3 X16.403 Y5.865 Z-1.500 I-0.203 J-0.161 K0.000 F42.000
G1 X16.394 Y5.694 Z-1.500 F42.000
G1 X16.394 Y2.497 Z-1.500 F42.000
G2 X16.325 Y2.306 Z-1.500 I-0.300 J-0.000 K0.000 F42.000
G0 Z5.000
G0 X14.329 Y2.100 Z5.000
G0 X14.329 Y2.100 Z1.000
G1 X14.329 Y2.100 Z-1.500 F18.000
G1 X14.258 Y2.184 Z-1.500 F42.000
G2 X14.203 Y2.100 Z-1.500 I-0.144 J0.034 K0.000 F42.000
G1 X14.329 Y2.100 Z-1.500 F42.000
G0 Z5.000
G0 X11.981 Y2.114 Z5.000
G0 X11.981 Y2.114 Z1.000
G1 X11.981 Y2.114 Z-1.500 F18.000
G2 X11.909 Y2.202 Z-1.500 I0.059 J0.121 K0.000 F42.000
G3 X11.981 Y2.114 Z-1.500 I0.059 J-0.025 K0.000 F42.000
G1 X11.981 Y2.114 Z-1.600 F18.000
G2 X11.909 Y2.202 Z-1.600 I0.059 J0.121 K0.000 F42.000
G3 X11.981 Y2.114 Z-1.600 I0.059 J-0.025 K0.000 F42.000
G0 Z5.000
G0 X12.202 Y2.302 Z5.000
G0 X12.202 Y2.302 Z1.000
G1 X12.202 Y2.302 Z-1.600 F18.000
G2 X12.130 Y2.497 Z-1.600 I0.228 J0.195 K0.000 F42.000
G1 X12.130 Y5.684 Z-1.600 F42.000
G3 X12.062 Y6.085 Z-1.600 I-0.808 J0.069 K0.000 F42.000
G3 X11.635 Y6.008 Z-1.600 I-0.196 J-0.138 K0.000 F42.000
G3 X11.595 Y5.684 Z-1.600 I1.174 J-0.308 K0.000 F42.000
G1 X11.595 Y2.313 Z-1.600 F42.000
G3 X11.818 Y1.840 Z-1.600 I0.430 J-0.087 K0.000 F42.000
G3 X12.090 Y1.800 Z-1.600 I0.233 J0.631 K0.000 F42.000
G1 X16.434 Y1.800 Z-1.600 F42.000
G3 X16.884 Y2.017 Z-1.600 I0.078 J0.414 K0.000 F42.000
G3 X16.929 Y2.313 Z-1.600 I-0.663 J0.252 K0.000 F42.000
G1 X16.929 Y5.670 Z-1.600 F42.000
G3 X16.858 Y6.086 Z-1.600 I-0.825 J0.073 K0.000 F42.000
G3 X16.403 Y5.865 Z-1.600 I-0.203 J-0.161 K0.000 F42.000
G1 X16.394 Y5.694 Z-1.600 F42.000
G1 X16.394 Y2.497 Z-1.600 F42.000
G2 X16.094 Y2.197 Z-1.600 I-0.300 J-0.000 K0.000 F42.000
G1 X14.767 Y2.197 Z-1.600 F42.000
G2 X14.467 Y2.497 Z-1.600 I-0.000 J0.300 K0.000 F42.000
G1 X14.467 Y5.690 Z-1.600 F42.000
G3 X14.421 Y6.088 Z-1.600 I-0.921 J0.094 K0.000 F42.000
G3 X14.075 Y5.973 Z-1.600 I-0.162 J-0.090 K0.000 F42.000
G1 X14.057 Y5.693 Z-1.600 F42.000
G1 X14.057 Y2.497 Z-1.600 F42.000
G2 X13.757 Y2.197 Z-1.600 I-0.300 J-0.000 K0.000 F42.000
G1 X12.430 Y2.197 Z-1.600 F42.000
G2 X12.202 Y2.302 Z-1.600 I-0.000 J0.300 K0.000 F42.000
G0 Z5.000
G0 X14.203 Y2.100 Z5.000
G0 X14.203 Y2.100 Z1.000
G1 X14.203 Y2.100 Z-1.600 F18.000
G1 X14.329 Y2.100 Z-1.600 F42.000
G1 X14.258 Y2.184 Z-1.600 F42.000
G2 X14.203 Y2.100 Z-1.600 I-0.144 J0.034 K0.000 F42.000
G0 Z5.000
G0 X16.555 Y2.115 Z5.000
G0 X16.555 Y2.115 Z1.000
G1 X16.555 Y2.115 Z-1.600 F18.000
G3 X16.617 Y2.221 Z-1.600 I0.002 J0.070 K0.000 F42.000
G1 X16.555 Y2.115 Z-1.600 F42.000
G0 Z5.000
G0 Z5.000
(Finish operation: Pocket_Shape)
(Begin postamble)
M5
G17 G90
M2
