(Exported by FreeCAD)
(Post Processor: grbl_post)
(Output Time:2021-11-21 16:59:36.985629)
(Begin preamble)
G17 G90
G21
(Begin operation: Fixture)
(Path: Fixture)
G54
(Finish operation: Fixture)
(Begin operation: 0.6mm Ball End001)
(Path: 0.6mm Ball End001)
(0.6mm Ball End001)
(Begin toolchange)
( M6 T1.0 )
M3 S0.0
(Finish operation: 0.6mm Ball End001)
(Begin operation: Pocket_Shape)
(Path: Pocket_Shape)
(Pocket_Shape)
G0 Z5.000
G0 X16.881 Y6.094
G0 Z1.000
G1 X16.881 Y6.094 Z-0.500 F18.000
G3 X16.847 Y6.118 Z-0.500 I-0.108 J-0.119 K0.000 F42.000
G3 X16.424 Y6.186 Z-0.500 I-0.389 J-1.075 K0.000 F42.000
G1 X15.169 Y6.186 Z-0.500 F42.000
G3 X14.790 Y6.123 Z-0.500 I-0.075 J-0.723 K0.000 F42.000
G3 X14.702 Y5.996 Z-0.500 I0.135 J-0.188 K0.000 F42.000
G1 X14.665 Y5.670 Z-0.500 F42.000
G1 X14.665 Y2.235 Z-0.500 F42.000
G3 X14.720 Y1.896 Z-0.500 I0.611 J-0.075 K0.000 F42.000
G3 X15.154 Y1.800 Z-0.500 I0.338 J0.499 K0.000 F42.000
G1 X16.450 Y1.800 Z-0.500 F42.000
G3 X16.882 Y1.868 Z-0.500 I0.101 J0.764 K0.000 F42.000
G3 X16.829 Y2.152 Z-0.500 I-0.062 J0.135 K0.000 F42.000
G3 X15.500 Y2.197 Z-0.500 I-0.850 J-5.384 K0.000 F42.000
G2 X15.200 Y2.497 Z-0.500 I-0.000 J0.300 K0.000 F42.000
G1 X15.200 Y3.494 Z-0.500 F42.000
G2 X15.500 Y3.794 Z-0.500 I0.300 J0.000 K0.000 F42.000
G3 X16.608 Y3.823 Z-0.500 I0.393 J6.133 K0.000 F42.000
G3 X16.719 Y4.123 Z-0.500 I0.036 J0.157 K0.000 F42.000
G3 X16.293 Y4.191 Z-0.500 I-0.392 J-1.079 K0.000 F42.000
G1 X15.500 Y4.191 Z-0.500 F42.000
G2 X15.200 Y4.491 Z-0.500 I-0.000 J0.300 K0.000 F42.000
G1 X15.200 Y5.489 Z-0.500 F42.000
G2 X15.500 Y5.789 Z-0.500 I0.300 J0.000 K0.000 F42.000
G3 X16.739 Y5.818 Z-0.500 I0.458 J6.852 K0.000 F42.000
G3 X16.881 Y6.094 Z-0.500 I0.034 J0.157 K0.000 F42.000
G0 Z5.000
G0 X15.060 Y4.033 Z5.000
G0 X15.060 Y4.033 Z1.000
G1 X15.060 Y4.033 Z-0.500 F18.000
G3 X15.025 Y4.046 Z-0.500 I-0.035 J-0.039 K0.000 F42.000
G1 X15.025 Y3.942 Z-0.500 F42.000
G3 X15.060 Y4.033 Z-0.500 I0.000 J0.052 K0.000 F42.000
G1 X15.060 Y4.033 Z-1.000 F18.000
G3 X15.025 Y4.046 Z-1.000 I-0.035 J-0.039 K0.000 F42.000
G1 X15.025 Y3.942 Z-1.000 F42.000
G3 X15.060 Y4.033 Z-1.000 I0.000 J0.052 K0.000 F42.000
G0 Z5.000
G0 X15.292 Y4.275 Z5.000
G0 X15.292 Y4.275 Z1.000
G1 X15.292 Y4.275 Z-1.000 F18.000
G2 X15.200 Y4.491 Z-1.000 I0.208 J0.216 K0.000 F42.000
G1 X15.200 Y5.489 Z-1.000 F42.000
G2 X15.500 Y5.789 Z-1.000 I0.300 J0.000 K0.000 F42.000
G3 X16.739 Y5.818 Z-1.000 I0.458 J6.852 K0.000 F42.000
G3 X16.847 Y6.118 Z-1.000 I0.034 J0.157 K0.000 F42.000
G3 X16.424 Y6.186 Z-1.000 I-0.389 J-1.075 K0.000 F42.000
G1 X15.169 Y6.186 Z-1.000 F42.000
G3 X14.790 Y6.123 Z-1.000 I-0.075 J-0.723 K0.000 F42.000
G3 X14.702 Y5.996 Z-1.000 I0.135 J-0.188 K0.000 F42.000
G1 X14.665 Y5.670 Z-1.000 F42.000
G1 X14.665 Y2.235 Z-1.000 F42.000
G3 X14.720 Y1.896 Z-1.000 I0.611 J-0.075 K0.000 F42.000
G3 X15.154 Y1.800 Z-1.000 I0.338 J0.499 K0.000 F42.000
G1 X16.450 Y1.800 Z-1.000 F42.000
G3 X16.882 Y1.868 Z-1.000 I0.101 J0.764 K0.000 F42.000
G3 X16.829 Y2.152 Z-1.000 I-0.062 J0.135 K0.000 F42.000
G3 X15.500 Y2.197 Z-1.000 I-0.850 J-5.384 K0.000 F42.000
G2 X15.200 Y2.497 Z-1.000 I-0.000 J0.300 K0.000 F42.000
G1 X15.200 Y3.494 Z-1.000 F42.000
G2 X15.500 Y3.794 Z-1.000 I0.300 J0.000 K0.000 F42.000
G3 X16.608 Y3.823 Z-1.000 I0.393 J6.133 K0.000 F42.000
G3 X16.719 Y4.123 Z-1.000 I0.036 J0.157 K0.000 F42.000
G3 X16.293 Y4.191 Z-1.000 I-0.392 J-1.079 K0.000 F42.000
G1 X15.500 Y4.191 Z-1.000 F42.000
G2 X15.292 Y4.275 Z-1.000 I-0.000 J0.300 K0.000 F42.000
G1 X15.292 Y4.275 Z-1.500 F18.000
G2 X15.200 Y4.491 Z-1.500 I0.208 J0.216 K0.000 F42.000
G1 X15.200 Y5.489 Z-1.500 F42.000
G2 X15.500 Y5.789 Z-1.500 I0.300 J0.000 K0.000 F42.000
G3 X16.739 Y5.818 Z-1.500 I0.458 J6.852 K0.000 F42.000
G3 X16.847 Y6.118 Z-1.500 I0.034 J0.157 K0.000 F42.000
G3 X16.424 Y6.186 Z-1.500 I-0.389 J-1.075 K0.000 F42.000
G1 X15.169 Y6.186 Z-1.500 F42.000
G3 X14.790 Y6.123 Z-1.500 I-0.075 J-0.723 K0.000 F42.000
G3 X14.702 Y5.996 Z-1.500 I0.135 J-0.188 K0.000 F42.000
G1 X14.665 Y5.670 Z-1.500 F42.000
G1 X14.665 Y2.235 Z-1.500 F42.000
G3 X14.720 Y1.896 Z-1.500 I0.611 J-0.075 K0.000 F42.000
G3 X15.154 Y1.800 Z-1.500 I0.338 J0.499 K0.000 F42.000
G1 X16.450 Y1.800 Z-1.500 F42.000
G3 X16.882 Y1.868 Z-1.500 I0.101 J0.764 K0.000 F42.000
G3 X16.829 Y2.152 Z-1.500 I-0.062 J0.135 K0.000 F42.000
G3 X15.500 Y2.197 Z-1.500 I-0.850 J-5.384 K0.000 F42.000
G2 X15.200 Y2.497 Z-1.500 I-0.000 J0.300 K0.000 F42.000
G1 X15.200 Y3.494 Z-1.500 F42.000
G2 X15.500 Y3.794 Z-1.500 I0.300 J0.000 K0.000 F42.000
G3 X16.608 Y3.823 Z-1.500 I0.393 J6.133 K0.000 F42.000
G3 X16.719 Y4.123 Z-1.500 I0.036 J0.157 K0.000 F42.000
G3 X16.293 Y4.191 Z-1.500 I-0.392 J-1.079 K0.000 F42.000
G1 X15.500 Y4.191 Z-1.500 F42.000
G2 X15.292 Y4.275 Z-1.500 I-0.000 J0.300 K0.000 F42.000
G0 Z5.000
G0 X15.061 Y4.032 Z5.000
G0 X15.061 Y4.032 Z1.000
G1 X15.061 Y4.032 Z-1.500 F18.000
G3 X15.025 Y4.046 Z-1.500 I-0.036 J-0.038 K0.000 F42.000
G1 X15.025 Y3.942 Z-1.500 F42.000
G3 X15.061 Y4.032 Z-1.500 I0.000 J0.052 K0.000 F42.000
G1 X15.061 Y4.032 Z-1.600 F18.000
G3 X15.025 Y4.046 Z-1.600 I-0.036 J-0.038 K0.000 F42.000
G1 X15.025 Y3.942 Z-1.600 F42.000
G3 X15.061 Y4.032 Z-1.600 I0.000 J0.052 K0.000 F42.000
G0 Z5.000
G0 X15.293 Y4.274 Z5.000
G0 X15.293 Y4.274 Z1.000
G1 X15.293 Y4.274 Z-1.600 F18.000
G2 X15.200 Y4.491 Z-1.600 I0.207 J0.217 K0.000 F42.000
G1 X15.200 Y5.489 Z-1.600 F42.000
G2 X15.500 Y5.789 Z-1.600 I0.300 J0.000 K0.000 F42.000
G3 X16.739 Y5.818 Z-1.600 I0.458 J6.852 K0.000 F42.000
G3 X16.847 Y6.118 Z-1.600 I0.034 J0.157 K0.000 F42.000
G3 X16.424 Y6.186 Z-1.600 I-0.389 J-1.075 K0.000 F42.000
G1 X15.169 Y6.186 Z-1.600 F42.000
G3 X14.790 Y6.123 Z-1.600 I-0.075 J-0.723 K0.000 F42.000
G3 X14.702 Y5.996 Z-1.600 I0.135 J-0.188 K0.000 F42.000
G1 X14.665 Y5.670 Z-1.600 F42.000
G1 X14.665 Y2.235 Z-1.600 F42.000
G3 X14.720 Y1.896 Z-1.600 I0.611 J-0.075 K0.000 F42.000
G3 X15.154 Y1.800 Z-1.600 I0.338 J0.499 K0.000 F42.000
G1 X16.450 Y1.800 Z-1.600 F42.000
G3 X16.882 Y1.868 Z-1.600 I0.101 J0.764 K0.000 F42.000
G3 X16.829 Y2.152 Z-1.600 I-0.062 J0.135 K0.000 F42.000
G3 X15.500 Y2.197 Z-1.600 I-0.850 J-5.384 K0.000 F42.000
G2 X15.200 Y2.497 Z-1.600 I-0.000 J0.300 K0.000 F42.000
G1 X15.200 Y3.494 Z-1.600 F42.000
G2 X15.500 Y3.794 Z-1.600 I0.300 J0.000 K0.000 F42.000
G3 X16.608 Y3.823 Z-1.600 I0.393 J6.133 K0.000 F42.000
G3 X16.719 Y4.123 Z-1.600 I0.036 J0.157 K0.000 F42.000
G3 X16.293 Y4.191 Z-1.600 I-0.392 J-1.079 K0.000 F42.000
G1 X15.500 Y4.191 Z-1.600 F42.000
G2 X15.293 Y4.274 Z-1.600 I-0.000 J0.300 K0.000 F42.000
G0 Z5.000
G0 Z5.000
(Finish operation: Pocket_Shape)
(Begin postamble)
M5
G17 G90
M2
