(Exported by FreeCAD)
(Post Processor: grbl_post)
(Output Time:2021-11-21 17:14:41.617606)
(Begin preamble)
G17 G90
G21
(Begin operation: Fixture)
(Path: Fixture)
G54
(Finish operation: Fixture)
(Begin operation: 0.6mm Ball End001)
(Path: 0.6mm Ball End001)
(0.6mm Ball End001)
(Begin toolchange)
( M6 T1.0 )
M3 S0.0
(Finish operation: 0.6mm Ball End001)
(Begin operation: Pocket_Shape)
(Path: Pocket_Shape)
(Pocket_Shape)
G0 Z5.000
G0 X16.575 Y5.841
G0 Z1.000
G1 X16.575 Y5.841 Z-0.500 F18.000
G3 X15.908 Y6.141 Z-0.500 I-0.693 J-0.649 K0.000 F42.000
G3 X14.288 Y5.985 Z-0.500 I-0.562 J-2.650 K0.000 F42.000
G3 X14.097 Y5.812 Z-0.500 I0.160 J-0.368 K0.000 F42.000
G3 X14.149 Y5.731 Z-0.500 I0.071 J-0.012 K0.000 F42.000
G3 X15.360 Y5.786 Z-0.500 I-0.727 J28.961 K0.000 F42.000
G2 X16.140 Y5.497 Z-0.500 I0.100 J-0.926 K0.000 F42.000
G2 X15.889 Y4.435 Z-0.500 I-0.492 J-0.444 K0.000 F42.000
G2 X14.978 Y4.328 Z-0.500 I-0.756 J2.496 K0.000 F42.000
G3 X14.663 Y4.185 Z-0.500 I-0.037 J-0.339 K0.000 F42.000
G3 X14.777 Y3.972 Z-0.500 I0.142 J-0.061 K0.000 F42.000
G3 X15.569 Y3.921 Z-0.500 I0.685 J4.463 K0.000 F42.000
G2 X15.713 Y2.243 Z-0.500 I-0.049 J-0.849 K0.000 F42.000
G2 X14.223 Y2.404 Z-0.500 I-0.478 J2.560 K0.000 F42.000
G3 X13.928 Y2.385 Z-0.500 I-0.133 J-0.248 K0.000 F42.000
G3 X14.071 Y2.039 Z-0.500 I0.265 J-0.093 K0.000 F42.000
G3 X15.292 Y1.801 Z-0.500 I1.093 J2.352 K0.000 F42.000
G3 X16.459 Y2.038 Z-0.500 I0.175 J2.123 K0.000 F42.000
G3 X16.954 Y3.030 Z-0.500 I-0.543 J0.890 K0.000 F42.000
G3 X16.318 Y3.872 Z-0.500 I-0.832 J0.033 K0.000 F42.000
G2 X16.312 Y4.424 Z-0.500 I0.152 J0.278 K0.000 F42.000
G3 X16.800 Y5.434 Z-0.500 I-0.262 J0.749 K0.000 F42.000
G3 X16.575 Y5.841 Z-0.500 I-0.918 J-0.243 K0.000 F42.000
G0 Z5.000
G0 X16.622 Y2.735 Z5.000
G0 X16.622 Y2.735 Z1.000
G1 X16.622 Y2.735 Z-0.500 F18.000
G1 X16.612 Y2.697 Z-0.500 F42.000
G3 X16.622 Y2.735 Z-0.500 I-0.100 J0.045 K0.000 F42.000
G0 Z5.000
G0 X16.612 Y2.696 Z5.000
G0 X16.612 Y2.696 Z1.000
G1 X16.612 Y2.696 Z-0.500 F18.000
G1 X16.552 Y2.553 Z-0.500 F42.000
G3 X16.612 Y2.696 Z-0.500 I-0.268 J0.197 K0.000 F42.000
G1 X16.612 Y2.696 Z-1.000 F18.000
G1 X16.552 Y2.553 Z-1.000 F42.000
G3 X16.612 Y2.696 Z-1.000 I-0.268 J0.197 K0.000 F42.000
G0 Z5.000
G0 X16.612 Y2.697 Z5.000
G0 X16.612 Y2.697 Z1.000
G1 X16.612 Y2.697 Z-1.000 F18.000
G3 X16.622 Y2.735 Z-1.000 I-0.100 J0.045 K0.000 F42.000
G1 X16.612 Y2.697 Z-1.000 F42.000
G0 Z5.000
G0 X16.324 Y2.795 Z5.000
G0 X16.324 Y2.795 Z1.000
G1 X16.324 Y2.795 Z-1.000 F18.000
G2 X15.713 Y2.243 Z-1.000 I-0.805 J0.276 K0.000 F42.000
G2 X14.223 Y2.404 Z-1.000 I-0.478 J2.560 K0.000 F42.000
G3 X13.928 Y2.385 Z-1.000 I-0.133 J-0.248 K0.000 F42.000
G3 X14.071 Y2.039 Z-1.000 I0.265 J-0.093 K0.000 F42.000
G3 X15.292 Y1.801 Z-1.000 I1.093 J2.352 K0.000 F42.000
G3 X16.459 Y2.038 Z-1.000 I0.175 J2.123 K0.000 F42.000
G3 X16.954 Y3.030 Z-1.000 I-0.543 J0.890 K0.000 F42.000
G3 X16.318 Y3.872 Z-1.000 I-0.832 J0.033 K0.000 F42.000
G2 X16.312 Y4.424 Z-1.000 I0.152 J0.278 K0.000 F42.000
G3 X16.800 Y5.434 Z-1.000 I-0.262 J0.749 K0.000 F42.000
G3 X15.908 Y6.141 Z-1.000 I-0.918 J-0.243 K0.000 F42.000
G3 X14.288 Y5.985 Z-1.000 I-0.562 J-2.650 K0.000 F42.000
G3 X14.097 Y5.812 Z-1.000 I0.160 J-0.368 K0.000 F42.000
G3 X14.149 Y5.731 Z-1.000 I0.071 J-0.012 K0.000 F42.000
G3 X15.360 Y5.786 Z-1.000 I-0.727 J28.961 K0.000 F42.000
G2 X16.140 Y5.497 Z-1.000 I0.100 J-0.926 K0.000 F42.000
G2 X15.889 Y4.435 Z-1.000 I-0.492 J-0.444 K0.000 F42.000
G2 X14.978 Y4.328 Z-1.000 I-0.756 J2.496 K0.000 F42.000
G3 X14.663 Y4.185 Z-1.000 I-0.037 J-0.339 K0.000 F42.000
G3 X14.777 Y3.972 Z-1.000 I0.142 J-0.061 K0.000 F42.000
G3 X15.569 Y3.921 Z-1.000 I0.685 J4.463 K0.000 F42.000
G2 X16.324 Y2.795 Z-1.000 I-0.049 J-0.849 K0.000 F42.000
G0 Z5.000
G0 X16.619 Y2.722 Z5.000
G0 X16.619 Y2.722 Z1.000
G1 X16.619 Y2.722 Z-1.500 F18.000
G1 X16.612 Y2.697 Z-1.500 F42.000
G3 X16.622 Y2.735 Z-1.500 I-0.100 J0.045 K0.000 F42.000
G1 X16.619 Y2.722 Z-1.500 F42.000
G0 Z5.000
G0 X16.612 Y2.696 Z5.000
G0 X16.612 Y2.696 Z1.000
G1 X16.612 Y2.696 Z-1.500 F18.000
G1 X16.552 Y2.553 Z-1.500 F42.000
G3 X16.612 Y2.696 Z-1.500 I-0.268 J0.197 K0.000 F42.000
G0 Z5.000
G0 X16.324 Y2.795 Z5.000
G0 X16.324 Y2.795 Z1.000
G1 X16.324 Y2.795 Z-1.500 F18.000
G2 X15.713 Y2.243 Z-1.500 I-0.805 J0.276 K0.000 F42.000
G2 X14.223 Y2.404 Z-1.500 I-0.478 J2.560 K0.000 F42.000
G3 X13.928 Y2.385 Z-1.500 I-0.133 J-0.248 K0.000 F42.000
G3 X14.071 Y2.039 Z-1.500 I0.265 J-0.093 K0.000 F42.000
G3 X15.292 Y1.801 Z-1.500 I1.093 J2.352 K0.000 F42.000
G3 X16.459 Y2.038 Z-1.500 I0.175 J2.123 K0.000 F42.000
G3 X16.954 Y3.030 Z-1.500 I-0.543 J0.890 K0.000 F42.000
G3 X16.318 Y3.872 Z-1.500 I-0.832 J0.033 K0.000 F42.000
G2 X16.312 Y4.424 Z-1.500 I0.152 J0.278 K0.000 F42.000
G3 X16.800 Y5.434 Z-1.500 I-0.262 J0.749 K0.000 F42.000
G3 X15.908 Y6.141 Z-1.500 I-0.918 J-0.243 K0.000 F42.000
G3 X14.288 Y5.985 Z-1.500 I-0.562 J-2.650 K0.000 F42.000
G3 X14.097 Y5.812 Z-1.500 I0.160 J-0.368 K0.000 F42.000
G3 X14.149 Y5.731 Z-1.500 I0.071 J-0.012 K0.000 F42.000
G3 X15.360 Y5.786 Z-1.500 I-0.727 J28.961 K0.000 F42.000
G2 X16.140 Y5.497 Z-1.500 I0.100 J-0.926 K0.000 F42.000
G2 X15.889 Y4.435 Z-1.500 I-0.492 J-0.444 K0.000 F42.000
G2 X14.978 Y4.328 Z-1.500 I-0.756 J2.496 K0.000 F42.000
G3 X14.663 Y4.185 Z-1.500 I-0.037 J-0.339 K0.000 F42.000
G3 X14.777 Y3.972 Z-1.500 I0.142 J-0.061 K0.000 F42.000
G3 X15.569 Y3.921 Z-1.500 I0.685 J4.463 K0.000 F42.000
G2 X16.324 Y2.795 Z-1.500 I-0.049 J-0.849 K0.000 F42.000
G0 Z5.000
G0 X16.619 Y2.722 Z5.000
G0 X16.619 Y2.722 Z1.000
G1 X16.619 Y2.722 Z-1.600 F18.000
G1 X16.612 Y2.697 Z-1.600 F42.000
G3 X16.622 Y2.735 Z-1.600 I-0.100 J0.045 K0.000 F42.000
G1 X16.619 Y2.722 Z-1.600 F42.000
G0 Z5.000
G0 X16.612 Y2.696 Z5.000
G0 X16.612 Y2.696 Z1.000
G1 X16.612 Y2.696 Z-1.600 F18.000
G1 X16.552 Y2.553 Z-1.600 F42.000
G3 X16.612 Y2.696 Z-1.600 I-0.268 J0.197 K0.000 F42.000
G0 Z5.000
G0 X16.324 Y2.795 Z5.000
G0 X16.324 Y2.795 Z1.000
G1 X16.324 Y2.795 Z-1.600 F18.000
G2 X15.713 Y2.243 Z-1.600 I-0.805 J0.276 K0.000 F42.000
G2 X14.223 Y2.404 Z-1.600 I-0.478 J2.560 K0.000 F42.000
G3 X13.928 Y2.385 Z-1.600 I-0.133 J-0.248 K0.000 F42.000
G3 X14.071 Y2.039 Z-1.600 I0.265 J-0.093 K0.000 F42.000
G3 X15.292 Y1.801 Z-1.600 I1.093 J2.352 K0.000 F42.000
G3 X16.459 Y2.038 Z-1.600 I0.175 J2.123 K0.000 F42.000
G3 X16.954 Y3.030 Z-1.600 I-0.543 J0.890 K0.000 F42.000
G3 X16.318 Y3.872 Z-1.600 I-0.832 J0.033 K0.000 F42.000
G2 X16.312 Y4.424 Z-1.600 I0.152 J0.278 K0.000 F42.000
G3 X16.800 Y5.434 Z-1.600 I-0.262 J0.749 K0.000 F42.000
G3 X15.908 Y6.141 Z-1.600 I-0.918 J-0.243 K0.000 F42.000
G3 X14.288 Y5.985 Z-1.600 I-0.562 J-2.650 K0.000 F42.000
G3 X14.097 Y5.812 Z-1.600 I0.160 J-0.368 K0.000 F42.000
G3 X14.149 Y5.731 Z-1.600 I0.071 J-0.012 K0.000 F42.000
G3 X15.360 Y5.786 Z-1.600 I-0.727 J28.961 K0.000 F42.000
G2 X16.140 Y5.497 Z-1.600 I0.100 J-0.926 K0.000 F42.000
G2 X15.889 Y4.435 Z-1.600 I-0.492 J-0.444 K0.000 F42.000
G2 X14.978 Y4.328 Z-1.600 I-0.756 J2.496 K0.000 F42.000
G3 X14.663 Y4.185 Z-1.600 I-0.037 J-0.339 K0.000 F42.000
G3 X14.777 Y3.972 Z-1.600 I0.142 J-0.061 K0.000 F42.000
G3 X15.569 Y3.921 Z-1.600 I0.685 J4.463 K0.000 F42.000
G2 X16.324 Y2.795 Z-1.600 I-0.049 J-0.849 K0.000 F42.000
G0 Z5.000
G0 Z5.000
(Finish operation: Pocket_Shape)
(Begin postamble)
M5
G17 G90
M2
