(Exported by FreeCAD)
(Post Processor: grbl_post)
(Output Time:2021-11-21 17:21:04.135891)
(Begin preamble)
G17 G90
G21
(Begin operation: Fixture)
(Path: Fixture)
G54
(Finish operation: Fixture)
(Begin operation: 0.6mm Ball End001)
(Path: 0.6mm Ball End001)
(0.6mm Ball End001)
(Begin toolchange)
( M6 T1.0 )
M3 S0.0
(Finish operation: 0.6mm Ball End001)
(Begin operation: Pocket_Shape)
(Path: Pocket_Shape)
(Pocket_Shape)
G0 Z5.000
G0 X16.636 Y6.083
G0 Z1.000
G1 X16.636 Y6.083 Z-0.500 F18.000
G3 X16.442 Y6.184 Z-0.500 I-0.152 J-0.055 K0.000 F42.000
G3 X16.081 Y5.942 Z-0.500 I0.085 J-0.518 K0.000 F42.000
G1 X15.367 Y4.901 Z-0.500 F42.000
G2 X14.869 Y4.905 Z-0.500 I-0.248 J0.170 K0.000 F42.000
G1 X14.195 Y5.928 Z-0.500 F42.000
G3 X13.850 Y6.183 Z-0.500 I-0.458 J-0.257 K0.000 F42.000
G3 X13.610 Y5.993 Z-0.500 I-0.060 J-0.171 K0.000 F42.000
G3 X14.707 Y4.311 Z-0.500 I33.270 J20.511 K0.000 F42.000
G2 X14.698 Y3.968 Z-0.500 I-0.250 J-0.165 K0.000 F42.000
G1 X13.495 Y2.336 Z-0.500 F42.000
G3 X13.301 Y1.951 Z-0.500 I0.493 J-0.491 K0.000 F42.000
G3 X13.675 Y1.884 Z-0.500 I0.205 J0.067 K0.000 F42.000
G1 X13.870 Y2.097 Z-0.500 F42.000
G1 X14.863 Y3.474 Z-0.500 F42.000
G2 X15.350 Y3.474 Z-0.500 I0.243 J-0.176 K0.000 F42.000
G1 X16.352 Y2.082 Z-0.500 F42.000
G3 X16.645 Y1.823 Z-0.500 I0.607 J0.393 K0.000 F42.000
G3 X16.936 Y2.018 Z-0.500 I0.102 J0.162 K0.000 F42.000
G1 X16.743 Y2.334 Z-0.500 F42.000
G1 X15.532 Y4.030 Z-0.500 F42.000
G2 X15.532 Y4.378 Z-0.500 I0.244 J0.174 K0.000 F42.000
G3 X16.616 Y5.934 Z-0.500 I-13.697 J10.696 K0.000 F42.000
G3 X16.636 Y6.083 Z-0.500 I-0.131 J0.094 K0.000 F42.000
G0 Z5.000
G0 X15.251 Y4.489 Z5.000
G0 X15.251 Y4.489 Z1.000
G1 X15.251 Y4.489 Z-0.500 F18.000
G2 X14.938 Y4.507 Z-0.500 I-0.133 J0.440 K0.000 F42.000
G2 X14.975 Y3.881 Z-0.500 I-0.445 J-0.341 K0.000 F42.000
G2 X15.285 Y3.862 Z-0.500 I0.128 J-0.435 K0.000 F42.000
G2 X15.251 Y4.489 Z-0.500 I0.477 J0.340 K0.000 F42.000
G1 X15.251 Y4.489 Z-1.000 F18.000
G2 X14.938 Y4.507 Z-1.000 I-0.133 J0.440 K0.000 F42.000
G2 X14.975 Y3.881 Z-1.000 I-0.445 J-0.341 K0.000 F42.000
G2 X15.285 Y3.862 Z-1.000 I0.128 J-0.435 K0.000 F42.000
G2 X15.251 Y4.489 Z-1.000 I0.477 J0.340 K0.000 F42.000
G0 Z5.000
G0 X15.186 Y4.777 Z5.000
G0 X15.186 Y4.777 Z1.000
G1 X15.186 Y4.777 Z-1.000 F18.000
G2 X14.869 Y4.905 Z-1.000 I-0.066 J0.293 K0.000 F42.000
G1 X14.195 Y5.928 Z-1.000 F42.000
G3 X13.850 Y6.183 Z-1.000 I-0.458 J-0.257 K0.000 F42.000
G3 X13.610 Y5.993 Z-1.000 I-0.060 J-0.171 K0.000 F42.000
G3 X14.707 Y4.311 Z-1.000 I33.270 J20.511 K0.000 F42.000
G2 X14.698 Y3.968 Z-1.000 I-0.250 J-0.165 K0.000 F42.000
G1 X13.495 Y2.336 Z-1.000 F42.000
G3 X13.301 Y1.951 Z-1.000 I0.493 J-0.491 K0.000 F42.000
G3 X13.675 Y1.884 Z-1.000 I0.205 J0.067 K0.000 F42.000
G1 X13.870 Y2.097 Z-1.000 F42.000
G1 X14.863 Y3.474 Z-1.000 F42.000
G2 X15.350 Y3.474 Z-1.000 I0.243 J-0.176 K0.000 F42.000
G1 X16.352 Y2.082 Z-1.000 F42.000
G3 X16.645 Y1.823 Z-1.000 I0.607 J0.393 K0.000 F42.000
G3 X16.936 Y2.018 Z-1.000 I0.102 J0.162 K0.000 F42.000
G1 X16.743 Y2.334 Z-1.000 F42.000
G1 X15.532 Y4.030 Z-1.000 F42.000
G2 X15.532 Y4.378 Z-1.000 I0.244 J0.174 K0.000 F42.000
G3 X16.616 Y5.934 Z-1.000 I-13.697 J10.696 K0.000 F42.000
G3 X16.442 Y6.184 Z-1.000 I-0.131 J0.094 K0.000 F42.000
G3 X16.081 Y5.942 Z-1.000 I0.085 J-0.518 K0.000 F42.000
G1 X15.367 Y4.901 Z-1.000 F42.000
G2 X15.186 Y4.777 Z-1.000 I-0.248 J0.170 K0.000 F42.000
G1 X15.186 Y4.777 Z-1.500 F18.000
G2 X14.869 Y4.905 Z-1.500 I-0.066 J0.293 K0.000 F42.000
G1 X14.195 Y5.928 Z-1.500 F42.000
G3 X13.850 Y6.183 Z-1.500 I-0.458 J-0.257 K0.000 F42.000
G3 X13.610 Y5.993 Z-1.500 I-0.060 J-0.171 K0.000 F42.000
G3 X14.707 Y4.311 Z-1.500 I33.270 J20.511 K0.000 F42.000
G2 X14.698 Y3.968 Z-1.500 I-0.250 J-0.165 K0.000 F42.000
G1 X13.495 Y2.336 Z-1.500 F42.000
G3 X13.301 Y1.951 Z-1.500 I0.493 J-0.491 K0.000 F42.000
G3 X13.675 Y1.884 Z-1.500 I0.205 J0.067 K0.000 F42.000
G1 X13.870 Y2.097 Z-1.500 F42.000
G1 X14.863 Y3.474 Z-1.500 F42.000
G2 X15.350 Y3.474 Z-1.500 I0.243 J-0.176 K0.000 F42.000
G1 X16.352 Y2.082 Z-1.500 F42.000
G3 X16.645 Y1.823 Z-1.500 I0.607 J0.393 K0.000 F42.000
G3 X16.936 Y2.018 Z-1.500 I0.102 J0.162 K0.000 F42.000
G1 X16.743 Y2.334 Z-1.500 F42.000
G1 X15.532 Y4.030 Z-1.500 F42.000
G2 X15.532 Y4.378 Z-1.500 I0.244 J0.174 K0.000 F42.000
G3 X16.616 Y5.934 Z-1.500 I-13.697 J10.696 K0.000 F42.000
G3 X16.442 Y6.184 Z-1.500 I-0.131 J0.094 K0.000 F42.000
G3 X16.081 Y5.942 Z-1.500 I0.085 J-0.518 K0.000 F42.000
G1 X15.367 Y4.901 Z-1.500 F42.000
G2 X15.186 Y4.777 Z-1.500 I-0.248 J0.170 K0.000 F42.000
G0 Z5.000
G0 X15.251 Y4.489 Z5.000
G0 X15.251 Y4.489 Z1.000
G1 X15.251 Y4.489 Z-1.500 F18.000
G2 X14.938 Y4.507 Z-1.500 I-0.133 J0.440 K0.000 F42.000
G2 X14.975 Y3.881 Z-1.500 I-0.445 J-0.341 K0.000 F42.000
G2 X15.285 Y3.862 Z-1.500 I0.128 J-0.435 K0.000 F42.000
G2 X15.251 Y4.489 Z-1.500 I0.477 J0.340 K0.000 F42.000
G1 X15.251 Y4.489 Z-1.600 F18.000
G2 X14.938 Y4.507 Z-1.600 I-0.133 J0.440 K0.000 F42.000
G2 X14.975 Y3.881 Z-1.600 I-0.445 J-0.341 K0.000 F42.000
G2 X15.285 Y3.862 Z-1.600 I0.128 J-0.435 K0.000 F42.000
G2 X15.251 Y4.489 Z-1.600 I0.477 J0.340 K0.000 F42.000
G0 Z5.000
G0 X15.186 Y4.777 Z5.000
G0 X15.186 Y4.777 Z1.000
G1 X15.186 Y4.777 Z-1.600 F18.000
G2 X14.869 Y4.905 Z-1.600 I-0.066 J0.293 K0.000 F42.000
G1 X14.195 Y5.928 Z-1.600 F42.000
G3 X13.850 Y6.183 Z-1.600 I-0.458 J-0.257 K0.000 F42.000
G3 X13.610 Y5.993 Z-1.600 I-0.060 J-0.171 K0.000 F42.000
G3 X14.707 Y4.311 Z-1.600 I33.270 J20.511 K0.000 F42.000
G2 X14.698 Y3.968 Z-1.600 I-0.250 J-0.165 K0.000 F42.000
G1 X13.495 Y2.336 Z-1.600 F42.000
G3 X13.301 Y1.951 Z-1.600 I0.493 J-0.491 K0.000 F42.000
G3 X13.675 Y1.884 Z-1.600 I0.205 J0.067 K0.000 F42.000
G1 X13.870 Y2.097 Z-1.600 F42.000
G1 X14.863 Y3.474 Z-1.600 F42.000
G2 X15.350 Y3.474 Z-1.600 I0.243 J-0.176 K0.000 F42.000
G1 X16.352 Y2.082 Z-1.600 F42.000
G3 X16.645 Y1.823 Z-1.600 I0.607 J0.393 K0.000 F42.000
G3 X16.936 Y2.018 Z-1.600 I0.102 J0.162 K0.000 F42.000
G1 X16.743 Y2.334 Z-1.600 F42.000
G1 X15.532 Y4.030 Z-1.600 F42.000
G2 X15.532 Y4.378 Z-1.600 I0.244 J0.174 K0.000 F42.000
G3 X16.616 Y5.934 Z-1.600 I-13.697 J10.696 K0.000 F42.000
G3 X16.442 Y6.184 Z-1.600 I-0.131 J0.094 K0.000 F42.000
G3 X16.081 Y5.942 Z-1.600 I0.085 J-0.518 K0.000 F42.000
G1 X15.367 Y4.901 Z-1.600 F42.000
G2 X15.186 Y4.777 Z-1.600 I-0.248 J0.170 K0.000 F42.000
G0 Z5.000
G0 Z5.000
(Finish operation: Pocket_Shape)
(Begin postamble)
M5
G17 G90
M2
