(Exported by FreeCAD)
(Post Processor: grbl_post)
(Output Time:2021-11-21 17:03:59.009060)
(Begin preamble)
G17 G90
G21
(Begin operation: Fixture)
(Path: Fixture)
G54
(Finish operation: Fixture)
(Begin operation: 0.6mm Ball End001)
(Path: 0.6mm Ball End001)
(0.6mm Ball End001)
(Begin toolchange)
( M6 T1.0 )
M3 S0.0
(Finish operation: 0.6mm Ball End001)
(Begin operation: Pocket_Shape)
(Path: Pocket_Shape)
(Pocket_Shape)
G0 Z5.000
G0 X16.873 Y6.105
G0 Z1.000
G1 X16.873 Y6.105 Z-0.500 F18.000
G3 X16.459 Y6.016 Z-0.500 I-0.182 J-0.162 K0.000 F42.000
G1 X16.422 Y5.713 Z-0.500 F42.000
G1 X16.422 Y4.634 Z-0.500 F42.000
G2 X16.122 Y4.334 Z-0.500 I-0.300 J-0.000 K0.000 F42.000
G1 X14.030 Y4.334 Z-0.500 F42.000
G2 X13.730 Y4.634 Z-0.500 I-0.000 J0.300 K0.000 F42.000
G1 X13.730 Y5.713 Z-0.500 F42.000
G3 X13.668 Y6.084 Z-0.500 I-0.766 J0.062 K0.000 F42.000
G3 X13.204 Y5.864 Z-0.500 I-0.207 J-0.162 K0.000 F42.000
G1 X13.195 Y5.692 Z-0.500 F42.000
G1 X13.195 Y2.304 Z-0.500 F42.000
G3 X13.264 Y1.900 Z-0.500 I0.811 J-0.070 K0.000 F42.000
G3 X13.686 Y1.980 Z-0.500 I0.193 J0.134 K0.000 F42.000
G3 X13.730 Y2.336 Z-0.500 I-1.243 J0.335 K0.000 F42.000
G1 X13.730 Y3.637 Z-0.500 F42.000
G2 X14.030 Y3.937 Z-0.500 I0.300 J0.000 K0.000 F42.000
G1 X16.122 Y3.937 Z-0.500 F42.000
G2 X16.422 Y3.637 Z-0.500 I0.000 J-0.300 K0.000 F42.000
G1 X16.422 Y2.344 Z-0.500 F42.000
G3 X16.510 Y1.883 Z-0.500 I0.781 J-0.091 K0.000 F42.000
G3 X16.841 Y1.846 Z-0.500 I0.187 J0.173 K0.000 F42.000
G3 X16.958 Y2.294 Z-0.500 I-0.448 J0.356 K0.000 F42.000
G1 X16.958 Y5.682 Z-0.500 F42.000
G3 X16.889 Y6.085 Z-0.500 I-0.811 J0.070 K0.000 F42.000
G3 X16.873 Y6.105 Z-0.500 I-0.198 J-0.142 K0.000 F42.000
G0 Z5.000
G0 X16.598 Y4.186 Z5.000
G0 X16.598 Y4.186 Z1.000
G1 X16.598 Y4.186 Z-0.500 F18.000
G3 X16.545 Y4.134 Z-0.500 I-0.000 J-0.052 K0.000 F42.000
G3 X16.598 Y4.082 Z-0.500 I0.052 J0.000 K0.000 F42.000
G1 X16.598 Y4.186 Z-0.500 F42.000
G0 Z5.000
G0 X13.607 Y4.137 Z5.000
G0 X13.607 Y4.137 Z1.000
G1 X13.607 Y4.137 Z-0.500 F18.000
G3 X13.555 Y4.189 Z-0.500 I-0.052 J-0.001 K0.000 F42.000
G1 X13.555 Y4.084 Z-0.500 F42.000
G3 X13.607 Y4.137 Z-0.500 I0.000 J0.052 K0.000 F42.000
G1 X13.607 Y4.137 Z-1.000 F18.000
G3 X13.555 Y4.189 Z-1.000 I-0.052 J-0.001 K0.000 F42.000
G1 X13.555 Y4.084 Z-1.000 F42.000
G3 X13.607 Y4.137 Z-1.000 I0.000 J0.052 K0.000 F42.000
G0 Z5.000
G0 X13.836 Y4.405 Z5.000
G0 X13.836 Y4.405 Z1.000
G1 X13.836 Y4.405 Z-1.000 F18.000
G2 X13.730 Y4.634 Z-1.000 I0.195 J0.228 K0.000 F42.000
G1 X13.730 Y5.713 Z-1.000 F42.000
G3 X13.668 Y6.084 Z-1.000 I-0.766 J0.062 K0.000 F42.000
G3 X13.204 Y5.864 Z-1.000 I-0.207 J-0.162 K0.000 F42.000
G1 X13.195 Y5.692 Z-1.000 F42.000
G1 X13.195 Y2.304 Z-1.000 F42.000
G3 X13.264 Y1.900 Z-1.000 I0.811 J-0.070 K0.000 F42.000
G3 X13.686 Y1.980 Z-1.000 I0.193 J0.134 K0.000 F42.000
G3 X13.730 Y2.336 Z-1.000 I-1.243 J0.335 K0.000 F42.000
G1 X13.730 Y3.637 Z-1.000 F42.000
G2 X14.030 Y3.937 Z-1.000 I0.300 J0.000 K0.000 F42.000
G1 X16.122 Y3.937 Z-1.000 F42.000
G2 X16.422 Y3.637 Z-1.000 I0.000 J-0.300 K0.000 F42.000
G1 X16.422 Y2.344 Z-1.000 F42.000
G3 X16.510 Y1.883 Z-1.000 I0.781 J-0.091 K0.000 F42.000
G3 X16.841 Y1.846 Z-1.000 I0.187 J0.173 K0.000 F42.000
G3 X16.958 Y2.294 Z-1.000 I-0.448 J0.356 K0.000 F42.000
G1 X16.958 Y5.682 Z-1.000 F42.000
G3 X16.889 Y6.085 Z-1.000 I-0.811 J0.070 K0.000 F42.000
G3 X16.459 Y6.016 Z-1.000 I-0.198 J-0.142 K0.000 F42.000
G1 X16.422 Y5.713 Z-1.000 F42.000
G1 X16.422 Y4.634 Z-1.000 F42.000
G2 X16.122 Y4.334 Z-1.000 I-0.300 J-0.000 K0.000 F42.000
G1 X14.030 Y4.334 Z-1.000 F42.000
G2 X13.836 Y4.405 Z-1.000 I-0.000 J0.300 K0.000 F42.000
G0 Z5.000
G0 X16.546 Y4.139 Z5.000
G0 X16.546 Y4.139 Z1.000
G1 X16.546 Y4.139 Z-1.000 F18.000
G3 X16.598 Y4.082 Z-1.000 I0.052 J-0.005 K0.000 F42.000
G1 X16.598 Y4.186 Z-1.000 F42.000
G3 X16.546 Y4.139 Z-1.000 I-0.000 J-0.052 K0.000 F42.000
G1 X16.546 Y4.139 Z-1.500 F18.000
G3 X16.598 Y4.082 Z-1.500 I0.052 J-0.005 K0.000 F42.000
G1 X16.598 Y4.186 Z-1.500 F42.000
G3 X16.546 Y4.139 Z-1.500 I-0.000 J-0.052 K0.000 F42.000
G0 Z5.000
G0 X16.317 Y4.406 Z5.000
G0 X16.317 Y4.406 Z1.000
G1 X16.317 Y4.406 Z-1.500 F18.000
G2 X16.122 Y4.334 Z-1.500 I-0.195 J0.228 K0.000 F42.000
G1 X14.030 Y4.334 Z-1.500 F42.000
G2 X13.730 Y4.634 Z-1.500 I-0.000 J0.300 K0.000 F42.000
G1 X13.730 Y5.713 Z-1.500 F42.000
G3 X13.668 Y6.084 Z-1.500 I-0.766 J0.062 K0.000 F42.000
G3 X13.204 Y5.864 Z-1.500 I-0.207 J-0.162 K0.000 F42.000
G1 X13.195 Y5.692 Z-1.500 F42.000
G1 X13.195 Y2.304 Z-1.500 F42.000
G3 X13.264 Y1.900 Z-1.500 I0.811 J-0.070 K0.000 F42.000
G3 X13.686 Y1.980 Z-1.500 I0.193 J0.134 K0.000 F42.000
G3 X13.730 Y2.336 Z-1.500 I-1.243 J0.335 K0.000 F42.000
G1 X13.730 Y3.637 Z-1.500 F42.000
G2 X14.030 Y3.937 Z-1.500 I0.300 J0.000 K0.000 F42.000
G1 X16.122 Y3.937 Z-1.500 F42.000
G2 X16.422 Y3.637 Z-1.500 I0.000 J-0.300 K0.000 F42.000
G1 X16.422 Y2.344 Z-1.500 F42.000
G3 X16.510 Y1.883 Z-1.500 I0.781 J-0.091 K0.000 F42.000
G3 X16.841 Y1.846 Z-1.500 I0.187 J0.173 K0.000 F42.000
G3 X16.958 Y2.294 Z-1.500 I-0.448 J0.356 K0.000 F42.000
G1 X16.958 Y5.682 Z-1.500 F42.000
G3 X16.889 Y6.085 Z-1.500 I-0.811 J0.070 K0.000 F42.000
G3 X16.459 Y6.016 Z-1.500 I-0.198 J-0.142 K0.000 F42.000
G1 X16.422 Y5.713 Z-1.500 F42.000
G1 X16.422 Y4.634 Z-1.500 F42.000
G2 X16.317 Y4.406 Z-1.500 I-0.300 J-0.000 K0.000 F42.000
G0 Z5.000
G0 X13.607 Y4.142 Z5.000
G0 X13.607 Y4.142 Z1.000
G1 X13.607 Y4.142 Z-1.500 F18.000
G3 X13.555 Y4.189 Z-1.500 I-0.052 J-0.005 K0.000 F42.000
G1 X13.555 Y4.084 Z-1.500 F42.000
G3 X13.607 Y4.142 Z-1.500 I0.000 J0.052 K0.000 F42.000
G1 X13.607 Y4.142 Z-1.600 F18.000
G3 X13.555 Y4.189 Z-1.600 I-0.052 J-0.005 K0.000 F42.000
G1 X13.555 Y4.084 Z-1.600 F42.000
G3 X13.607 Y4.142 Z-1.600 I0.000 J0.052 K0.000 F42.000
G0 Z5.000
G0 X13.835 Y4.406 Z5.000
G0 X13.835 Y4.406 Z1.000
G1 X13.835 Y4.406 Z-1.600 F18.000
G2 X13.730 Y4.634 Z-1.600 I0.196 J0.228 K0.000 F42.000
G1 X13.730 Y5.713 Z-1.600 F42.000
G3 X13.668 Y6.084 Z-1.600 I-0.766 J0.062 K0.000 F42.000
G3 X13.204 Y5.864 Z-1.600 I-0.207 J-0.162 K0.000 F42.000
G1 X13.195 Y5.692 Z-1.600 F42.000
G1 X13.195 Y2.304 Z-1.600 F42.000
G3 X13.264 Y1.900 Z-1.600 I0.811 J-0.070 K0.000 F42.000
G3 X13.686 Y1.980 Z-1.600 I0.193 J0.134 K0.000 F42.000
G3 X13.730 Y2.336 Z-1.600 I-1.243 J0.335 K0.000 F42.000
G1 X13.730 Y3.637 Z-1.600 F42.000
G2 X14.030 Y3.937 Z-1.600 I0.300 J0.000 K0.000 F42.000
G1 X16.122 Y3.937 Z-1.600 F42.000
G2 X16.422 Y3.637 Z-1.600 I0.000 J-0.300 K0.000 F42.000
G1 X16.422 Y2.344 Z-1.600 F42.000
G3 X16.510 Y1.883 Z-1.600 I0.781 J-0.091 K0.000 F42.000
G3 X16.841 Y1.846 Z-1.600 I0.187 J0.173 K0.000 F42.000
G3 X16.958 Y2.294 Z-1.600 I-0.448 J0.356 K0.000 F42.000
G1 X16.958 Y5.682 Z-1.600 F42.000
G3 X16.889 Y6.085 Z-1.600 I-0.811 J0.070 K0.000 F42.000
G3 X16.459 Y6.016 Z-1.600 I-0.198 J-0.142 K0.000 F42.000
G1 X16.422 Y5.713 Z-1.600 F42.000
G1 X16.422 Y4.634 Z-1.600 F42.000
G2 X16.122 Y4.334 Z-1.600 I-0.300 J-0.000 K0.000 F42.000
G1 X14.030 Y4.334 Z-1.600 F42.000
G2 X13.835 Y4.406 Z-1.600 I-0.000 J0.300 K0.000 F42.000
G0 Z5.000
G0 X16.546 Y4.139 Z5.000
G0 X16.546 Y4.139 Z1.000
G1 X16.546 Y4.139 Z-1.600 F18.000
G3 X16.598 Y4.082 Z-1.600 I0.052 J-0.005 K0.000 F42.000
G1 X16.598 Y4.186 Z-1.600 F42.000
G3 X16.546 Y4.139 Z-1.600 I-0.000 J-0.052 K0.000 F42.000
G0 Z5.000
G0 Z5.000
(Finish operation: Pocket_Shape)
(Begin postamble)
M5
G17 G90
M2
